design/lut/jc-grade-deep.cube
TITLE "JC Alvarez — deep"
LUT_3D_SIZE 33
DOMAIN_MIN 0 0 0
DOMAIN_MAX 1 1 1
0.048383 0.050270 0.054092
0.066640 0.051667 0.055451
0.085680 0.053067 0.056813
0.105462 0.054469 0.058177
0.125941 0.055874 0.059543
0.147073 0.057281 0.060912
0.167108 0.058526 0.063092
0.176456 0.058693 0.070607
0.186004 0.058831 0.078278
0.195736 0.058943 0.086091
0.205635 0.059031 0.094035
0.215686 0.059098 0.102096
0.225872 0.059147 0.110261
0.236177 0.059180 0.118519
0.246584 0.059199 0.126857
0.257077 0.059208 0.135262
0.267640 0.059208 0.143721
0.278257 0.059202 0.152222
0.288912 0.059193 0.160752
0.299587 0.059183 0.169300
0.310268 0.059175 0.177852
0.320938 0.059171 0.186396
0.331581 0.059173 0.194920
0.342181 0.059185 0.203410
0.352722 0.059208 0.211856
0.363188 0.059246 0.220244
0.373563 0.059300 0.228562
0.383831 0.059374 0.236798
0.393976 0.059469 0.244939
0.403982 0.059588 0.252974
0.413834 0.059734 0.260889
0.423515 0.059908 0.268673
0.433010 0.060115 0.276313
0.053173 0.071784 0.058674
0.071576 0.073230 0.060041
0.090754 0.074678 0.061411
0.110662 0.076128 0.062783
0.131257 0.077581 0.064157
0.152496 0.079036 0.065534
0.172137 0.080282 0.067954
0.181522 0.080491 0.075500
0.191104 0.080672 0.083198
0.200866 0.080827 0.091037
0.210792 0.080959 0.099002
0.220866 0.081071 0.107082
0.231071 0.081164 0.115264
0.241391 0.081241 0.123536
0.251810 0.081305 0.131884
0.262312 0.081359 0.140297
0.272880 0.081405 0.148761
0.283498 0.081445 0.157265
0.294150 0.081482 0.165795
0.304820 0.081518 0.174340
0.315492 0.081556 0.182886
0.326149 0.081599 0.191422
0.336776 0.081649 0.199935
0.347357 0.081709 0.208412
0.357875 0.081780 0.216842
0.368315 0.081866 0.225211
0.378661 0.081968 0.233508
0.388896 0.082090 0.241720
0.399005 0.082234 0.249835
0.408973 0.082403 0.257841
0.418782 0.082598 0.265725
0.428418 0.082823 0.273475
0.437864 0.083079 0.281079
0.057990 0.094278 0.063283
0.076537 0.095769 0.064658
0.095849 0.097261 0.066035
0.115881 0.098756 0.067415
0.136590 0.100253 0.068797
0.157933 0.101751 0.070181
0.177186 0.102994 0.072837
0.186608 0.103242 0.080413
0.196223 0.103462 0.088139
0.206014 0.103657 0.096001
0.215966 0.103829 0.103988
0.226062 0.103980 0.112087
0.236285 0.104113 0.120285
0.246620 0.104231 0.128569
0.257050 0.104336 0.136927
0.267559 0.104431 0.145347
0.278131 0.104519 0.153816
0.288750 0.104601 0.162322
0.299399 0.104680 0.170851
0.310062 0.104759 0.179392
0.320724 0.104840 0.187932
0.331368 0.104926 0.196459
0.341978 0.105019 0.204960
0.352539 0.105122 0.213424
0.363034 0.105238 0.221836
0.373447 0.105368 0.230186
0.383762 0.105515 0.238461
0.393964 0.105682 0.246649
0.404037 0.105871 0.254737
0.413965 0.106084 0.262714
0.423731 0.106325 0.270566
0.433321 0.106595 0.278282
0.442718 0.106898 0.285849
0.062833 0.117684 0.067918
0.081523 0.119216 0.069300
0.100967 0.120749 0.070685
0.121120 0.122284 0.072073
0.141941 0.123820 0.073462
0.163386 0.125358 0.074854
0.182256 0.126595 0.077742
0.191714 0.126878 0.085347
0.201361 0.127133 0.093099
0.211181 0.127363 0.100985
0.221157 0.127571 0.108992
0.231274 0.127758 0.117109
0.241515 0.127928 0.125322
0.251863 0.128083 0.133618
0.262304 0.128225 0.141986
0.272819 0.128358 0.150412
0.283394 0.128483 0.158885
0.294012 0.128603 0.167392
0.304658 0.128720 0.175920
0.315314 0.128838 0.184456
0.325965 0.128958 0.192990
0.336594 0.129083 0.201507
0.347187 0.129216 0.209996
0.357727 0.129359 0.218444
0.368197 0.129514 0.226840
0.378583 0.129685 0.235170
0.388868 0.129872 0.243423
0.399036 0.130080 0.251585
0.409071 0.130310 0.259646
0.418958 0.130566 0.267592
0.428681 0.130848 0.275412
0.438224 0.131160 0.283093
0.447571 0.131505 0.290623
0.067703 0.141935 0.072578
0.086532 0.143503 0.073968
0.106105 0.145073 0.075361
0.126379 0.146644 0.076755
0.147309 0.148216 0.078152
0.168853 0.149790 0.079551
0.187347 0.151018 0.082668
0.196839 0.151332 0.090301
0.206517 0.151618 0.098079
0.216365 0.151880 0.105987
0.226365 0.152119 0.114015
0.236502 0.152339 0.122148
0.246759 0.152541 0.130375
0.257121 0.152729 0.138683
0.267570 0.152905 0.147059
0.278092 0.153071 0.155492
0.288669 0.153229 0.163968
0.299286 0.153384 0.172475
0.309926 0.153536 0.181000
0.320574 0.153688 0.189532
0.331213 0.153843 0.198058
0.341828 0.154004 0.206565
0.352403 0.154172 0.215041
0.362920 0.154351 0.223474
0.373366 0.154543 0.231852
0.383723 0.154750 0.240161
0.393977 0.154975 0.248391
0.404110 0.155219 0.256528
0.414107 0.155487 0.264560
0.423953 0.155780 0.272476
0.433632 0.156100 0.280263
0.443127 0.156451 0.287909
0.452424 0.156833 0.295401
0.072598 0.166963 0.077264
0.091565 0.168564 0.078661
0.111265 0.170166 0.080061
0.131655 0.171769 0.081462
0.152693 0.173374 0.082866
0.174334 0.174979 0.084272
0.192457 0.176194 0.087613
0.201983 0.176535 0.095275
0.211692 0.176849 0.103077
0.221565 0.177139 0.111008
0.231588 0.177406 0.119054
0.241745 0.177654 0.127204
0.252017 0.177885 0.135444
0.262391 0.178102 0.143763
0.272849 0.178307 0.152147
0.283375 0.178503 0.160585
0.293954 0.178692 0.169063
0.304569 0.178877 0.177570
0.315203 0.179059 0.186093
0.325842 0.179243 0.194619
0.336469 0.179429 0.203136
0.347068 0.179622 0.211633
0.357624 0.179822 0.220095
0.368119 0.180033 0.228512
0.378539 0.180257 0.236871
0.388867 0.180497 0.245160
0.399088 0.180755 0.253365
0.409186 0.181033 0.261476
0.419144 0.181334 0.269480
0.428948 0.181661 0.277365
0.438582 0.182015 0.285118
0.448029 0.182400 0.292728
0.457274 0.182817 0.300182
0.077518 0.192701 0.081973
0.096620 0.194331 0.083378
0.116445 0.195961 0.084785
0.136950 0.197593 0.086194
0.158092 0.199225 0.087605
0.179829 0.200858 0.089018
0.197586 0.202058 0.092579
0.207145 0.202422 0.100267
0.216883 0.202760 0.108094
0.226782 0.203073 0.116045
0.236827 0.203365 0.124110
0.247002 0.203638 0.132276
0.257290 0.203894 0.140529
0.267674 0.204136 0.148857
0.278140 0.204367 0.157249
0.288670 0.204589 0.165691
0.299249 0.204804 0.174171
0.309861 0.205015 0.182677
0.320490 0.205225 0.191196
0.331119 0.205436 0.199716
0.341732 0.205650 0.208225
0.352315 0.205870 0.216710
0.362850 0.206099 0.225158
0.373322 0.206338 0.233558
0.383716 0.206591 0.241898
0.394014 0.206860 0.250165
0.404202 0.207147 0.258346
0.414263 0.207455 0.266430
0.424183 0.207786 0.274405
0.433944 0.208142 0.282258
0.443531 0.208527 0.289977
0.452930 0.208943 0.297550
0.462123 0.209391 0.304965
0.082463 0.219082 0.086707
0.101697 0.220736 0.088119
0.121645 0.222392 0.089533
0.142262 0.224047 0.090948
0.163507 0.225704 0.092366
0.185336 0.227362 0.093786
0.202734 0.228542 0.097564
0.212325 0.228926 0.105278
0.222091 0.229284 0.113128
0.232015 0.229617 0.121100
0.242082 0.229930 0.129183
0.252273 0.230224 0.137363
0.262575 0.230501 0.145628
0.272970 0.230765 0.153966
0.283442 0.231018 0.162364
0.293976 0.231262 0.170810
0.304554 0.231500 0.179291
0.315162 0.231734 0.187796
0.325784 0.231967 0.196311
0.336402 0.232201 0.204824
0.347002 0.232439 0.213323
0.357567 0.232683 0.221795
0.368082 0.232936 0.230229
0.378530 0.233201 0.238612
0.388896 0.233479 0.246932
0.399164 0.233773 0.255176
0.409318 0.234085 0.263333
0.419342 0.234419 0.271390
0.429221 0.234776 0.279334
0.438939 0.235159 0.287155
0.448480 0.235571 0.294839
0.457829 0.236013 0.302375
0.466970 0.236489 0.309750
0.087431 0.246040 0.091464
0.106796 0.247715 0.092883
0.126863 0.249391 0.094303
0.147591 0.251068 0.095726
0.168937 0.252745 0.097150
0.190856 0.254422 0.098577
0.207900 0.255581 0.102567
0.217522 0.255981 0.110307
0.227316 0.256355 0.118180
0.237264 0.256705 0.126172
0.247350 0.257034 0.134271
0.257558 0.257345 0.142465
0.267873 0.257641 0.150742
0.278277 0.257923 0.159088
0.288755 0.258193 0.167492
0.299291 0.258456 0.175941
0.309869 0.258713 0.184423
0.320472 0.258966 0.192925
0.331085 0.259219 0.201435
0.341693 0.259473 0.209941
0.352277 0.259731 0.218429
0.362824 0.259996 0.226889
0.373318 0.260270 0.235308
0.383741 0.260555 0.243673
0.394079 0.260854 0.251972
0.404315 0.261170 0.260193
0.414435 0.261504 0.268324
0.424421 0.261860 0.276353
0.434260 0.262240 0.284267
0.443933 0.262646 0.292055
0.453427 0.263080 0.299704
0.462726 0.263546 0.307202
0.471813 0.264045 0.314538
0.092423 0.273508 0.096244
0.111915 0.275201 0.097670
0.132101 0.276894 0.099097
0.152937 0.278587 0.100526
0.174380 0.280281 0.101957
0.196388 0.281974 0.103390
0.213083 0.283108 0.107589
0.222736 0.283520 0.115354
0.232556 0.283907 0.123248
0.242527 0.284270 0.131259
0.252632 0.284613 0.139375
0.262856 0.284938 0.147582
0.273183 0.285247 0.155870
0.283596 0.285543 0.164224
0.294079 0.285829 0.172633
0.304616 0.286106 0.181084
0.315192 0.286378 0.189566
0.325790 0.286647 0.198065
0.336394 0.286916 0.206569
0.346989 0.287186 0.215067
0.357559 0.287461 0.223544
0.368087 0.287742 0.231991
0.378557 0.288033 0.240393
0.388955 0.288336 0.248740
0.399264 0.288653 0.257018
0.409469 0.288987 0.265216
0.419553 0.289340 0.273321
0.429501 0.289714 0.281321
0.439298 0.290113 0.289204
0.448927 0.290538 0.296958
0.458373 0.290992 0.304572
0.467620 0.291477 0.312031
0.476654 0.291996 0.319326
0.097437 0.301421 0.101047
0.117056 0.303127 0.102478
0.137357 0.304834 0.103912
0.158299 0.306540 0.105348
0.179838 0.308246 0.106785
0.201931 0.309953 0.108224
0.218284 0.311059 0.112628
0.227966 0.311480 0.120417
0.237812 0.311875 0.128332
0.247805 0.312248 0.136362
0.257928 0.312600 0.144493
0.268167 0.312935 0.152713
0.278505 0.313254 0.161010
0.288925 0.313561 0.169372
0.299413 0.313858 0.177786
0.309951 0.314147 0.186239
0.320524 0.314431 0.194719
0.331115 0.314712 0.203215
0.341710 0.314992 0.211713
0.352292 0.315275 0.220201
0.362845 0.315563 0.228668
0.373353 0.315858 0.237100
0.383801 0.316162 0.245486
0.394172 0.316479 0.253813
0.404452 0.316810 0.262069
0.414623 0.317158 0.270243
0.424672 0.317526 0.278321
0.434581 0.317915 0.286292
0.444335 0.318329 0.294144
0.453918 0.318770 0.301864
0.463316 0.319240 0.309441
0.472512 0.319741 0.316862
0.481490 0.320277 0.324115
0.102474 0.329714 0.105871
0.122216 0.331430 0.107309
0.142630 0.333146 0.108749
0.163675 0.334861 0.110191
0.185308 0.336577 0.111635
0.207486 0.338293 0.113080
0.223501 0.339368 0.117685
0.233212 0.339794 0.125497
0.243082 0.340194 0.133433
0.253096 0.340573 0.141480
0.263237 0.340931 0.149625
0.273490 0.341272 0.157858
0.283838 0.341599 0.166164
0.294265 0.341913 0.174532
0.304756 0.342217 0.182950
0.315294 0.342514 0.191404
0.325863 0.342805 0.199883
0.336448 0.343095 0.208374
0.347032 0.343384 0.216865
0.357600 0.343676 0.225344
0.368135 0.343973 0.233798
0.378623 0.344278 0.242216
0.389047 0.344592 0.250584
0.399392 0.344919 0.258892
0.409641 0.345261 0.267126
0.419779 0.345620 0.275275
0.429790 0.345999 0.283326
0.439659 0.346400 0.291267
0.449370 0.346825 0.299086
0.458908 0.347278 0.306772
0.468256 0.347760 0.314312
0.477315 0.348172 0.321600
0.485935 0.348344 0.328474
0.107533 0.358321 0.110716
0.127395 0.360043 0.112161
0.147921 0.361765 0.113607
0.169067 0.363487 0.115055
0.190791 0.365208 0.116505
0.213051 0.366928 0.117956
0.228734 0.367970 0.122758
0.238472 0.368397 0.130593
0.248366 0.368800 0.138548
0.258401 0.369180 0.146612
0.268558 0.369541 0.154772
0.278824 0.369886 0.163015
0.289182 0.370215 0.171330
0.299615 0.370533 0.179704
0.310108 0.370841 0.188125
0.320645 0.371142 0.196579
0.331210 0.371438 0.205056
0.341786 0.371732 0.213542
0.352359 0.372027 0.222026
0.362913 0.372325 0.230494
0.373430 0.372628 0.238936
0.383897 0.372938 0.247338
0.394296 0.373259 0.255689
0.404613 0.373593 0.263976
0.414831 0.373942 0.272187
0.424935 0.374308 0.280310
0.434909 0.374695 0.288333
0.444737 0.375104 0.296244
0.454194 0.375312 0.303802
0.463366 0.375420 0.311103
0.472360 0.375558 0.318268
0.481161 0.375728 0.325284
0.489753 0.375934 0.332139
0.112613 0.387179 0.115582
0.132594 0.388903 0.117033
0.153228 0.390627 0.118485
0.174473 0.392351 0.119939
0.196287 0.394073 0.121395
0.218625 0.395796 0.122852
0.233983 0.396801 0.127848
0.243748 0.397226 0.135704
0.253665 0.397627 0.143678
0.263718 0.398006 0.151758
0.273892 0.398366 0.159931
0.284169 0.398710 0.168186
0.294536 0.399039 0.176508
0.304974 0.399357 0.184887
0.315469 0.399665 0.193310
0.326004 0.399967 0.201764
0.336563 0.400265 0.210238
0.347131 0.400561 0.218719
0.357692 0.400857 0.227194
0.368230 0.401157 0.235652
0.378729 0.401462 0.244080
0.389173 0.401776 0.252466
0.399547 0.402100 0.260799
0.409835 0.402436 0.269065
0.420022 0.402789 0.277252
0.429739 0.402828 0.284975
0.439340 0.402888 0.292607
0.448807 0.402970 0.300138
0.458126 0.403079 0.307554
0.467280 0.403216 0.314843
0.476252 0.403383 0.321993
0.485028 0.403584 0.328992
0.493590 0.403820 0.335827
0.117713 0.416222 0.120469
0.137811 0.417945 0.121925
0.158552 0.419668 0.123383
0.179894 0.421389 0.124843
0.201794 0.423111 0.126305
0.224210 0.424831 0.127768
0.239247 0.425797 0.132953
0.249037 0.426216 0.140830
0.258976 0.426612 0.148823
0.269048 0.426987 0.156918
0.279236 0.427342 0.165104
0.289525 0.427682 0.173368
0.299899 0.428008 0.181698
0.310342 0.428322 0.190081
0.320837 0.428627 0.198506
0.331370 0.428926 0.206959
0.341923 0.429222 0.215429
0.352482 0.429515 0.223903
0.363030 0.429810 0.232370
0.373551 0.430109 0.240816
0.384031 0.430413 0.249230
0.394314 0.430613 0.257455
0.404293 0.430628 0.265380
0.414199 0.430657 0.273249
0.424016 0.430702 0.281050
0.433729 0.430765 0.288772
0.443321 0.430850 0.296400
0.452777 0.430958 0.303924
0.462080 0.431092 0.311331
0.471215 0.431255 0.318608
0.480165 0.431449 0.325743
0.488914 0.431676 0.332723
0.497446 0.431939 0.339537
0.122834 0.445386 0.125375
0.143045 0.447105 0.126837
0.163891 0.448822 0.128301
0.185327 0.450539 0.129766
0.207312 0.452255 0.131234
0.229803 0.453970 0.132702
0.244525 0.454893 0.138073
0.254340 0.455304 0.145971
0.264300 0.455691 0.153981
0.274390 0.456058 0.162091
0.284592 0.456406 0.170289
0.294891 0.456738 0.178562
0.305272 0.457056 0.186898
0.315718 0.457364 0.195285
0.326213 0.457663 0.203711
0.336742 0.457956 0.212163
0.347289 0.458245 0.220628
0.357837 0.458534 0.229096
0.368079 0.458616 0.237251
0.378196 0.458624 0.245283
0.388285 0.458639 0.253294
0.398329 0.458662 0.261270
0.408313 0.458698 0.269201
0.418220 0.458747 0.277074
0.428036 0.458813 0.284876
0.437743 0.458897 0.292596
0.447326 0.459003 0.300220
0.456770 0.459133 0.307736
0.466056 0.459290 0.315133
0.475171 0.459475 0.322397
0.484097 0.459692 0.329516
0.492819 0.459943 0.336478
0.501321 0.460230 0.343270
0.127974 0.474609 0.130300
0.148298 0.476319 0.131768
0.169245 0.478028 0.133238
0.190773 0.479736 0.134709
0.212841 0.481443 0.136181
0.235405 0.483149 0.137655
0.249817 0.484028 0.143208
0.259656 0.484426 0.151125
0.269637 0.484802 0.159152
0.279742 0.485156 0.167276
0.289958 0.485493 0.175485
0.300267 0.485814 0.183767
0.310654 0.486122 0.192109
0.321102 0.486420 0.200499
0.331557 0.486685 0.208885
0.341659 0.486706 0.216904
0.351791 0.486724 0.224948
0.361940 0.486742 0.233005
0.372088 0.486762 0.241062
0.382220 0.486786 0.249108
0.392320 0.486816 0.257129
0.402371 0.486857 0.265115
0.412360 0.486909 0.273051
0.422268 0.486975 0.280927
0.432081 0.487059 0.288730
0.441782 0.487161 0.296446
0.451355 0.487286 0.304065
0.460784 0.487434 0.311574
0.470054 0.487610 0.318959
0.479148 0.487815 0.326210
0.488050 0.488051 0.333313
0.496743 0.488323 0.340255
0.505213 0.488630 0.347025
0.133133 0.503826 0.135245
0.153566 0.505524 0.136718
0.174613 0.507222 0.138193
0.196232 0.508918 0.139669
0.218380 0.510612 0.141147
0.241014 0.512306 0.142626
0.255123 0.513137 0.148358
0.264985 0.513519 0.156293
0.274985 0.513880 0.164336
0.285106 0.514220 0.172473
0.295334 0.514542 0.180693
0.305445 0.514740 0.188775
0.315395 0.514795 0.196678
0.325421 0.514840 0.204640
0.335507 0.514877 0.212648
0.345635 0.514909 0.220691
0.355792 0.514939 0.228756
0.365961 0.514968 0.236831
0.376126 0.515000 0.244904
0.386272 0.515037 0.252963
0.396382 0.515080 0.260995
0.406441 0.515134 0.268988
0.416433 0.515200 0.276930
0.426341 0.515280 0.284808
0.436150 0.515377 0.292610
0.445844 0.515495 0.300324
0.455406 0.515634 0.307937
0.464821 0.515798 0.315437
0.474073 0.515989 0.322811
0.483145 0.516210 0.330047
0.492021 0.516463 0.337132
0.500686 0.516751 0.344054
0.509122 0.517077 0.350801
0.138311 0.532974 0.140207
0.158852 0.534658 0.141685
0.179996 0.536340 0.143165
0.201703 0.538020 0.144647
0.223928 0.539699 0.146130
0.246632 0.541377 0.147615
0.260442 0.542157 0.153521
0.270326 0.542521 0.161474
0.279955 0.542685 0.169147
0.289632 0.542791 0.176838
0.299428 0.542879 0.184623
0.309327 0.542953 0.192488
0.319314 0.543015 0.200421
0.329373 0.543067 0.208411
0.339488 0.543112 0.216445
0.349644 0.543152 0.224511
0.359824 0.543190 0.232596
0.370012 0.543228 0.240689
0.380194 0.543269 0.248777
0.390353 0.543314 0.256848
0.400472 0.543368 0.264890
0.410537 0.543431 0.272890
0.420531 0.543507 0.280837
0.430439 0.543598 0.288716
0.440243 0.543706 0.296517
0.449929 0.543834 0.304227
0.459480 0.543985 0.311834
0.468880 0.544162 0.319324
0.478112 0.544365 0.326686
0.487162 0.544599 0.333907
0.496012 0.544865 0.340974
0.504647 0.545167 0.347876
0.513049 0.545506 0.354599
0.143507 0.561992 0.145187
0.164153 0.563657 0.146671
0.185393 0.565320 0.148156
0.207185 0.566982 0.149642
0.229394 0.568606 0.151040
0.251683 0.570072 0.152039
0.264710 0.570605 0.157650
0.274154 0.570754 0.165162
0.283745 0.570881 0.172789
0.293467 0.570989 0.180518
0.303305 0.571081 0.188337
0.313244 0.571158 0.196235
0.323266 0.571223 0.204198
0.333357 0.571279 0.212215
0.343502 0.571328 0.220274
0.353683 0.571373 0.228362
0.363885 0.571415 0.236468
0.374093 0.571458 0.244578
0.384290 0.571504 0.252680
0.394461 0.571556 0.260763
0.404589 0.571615 0.268814
0.414660 0.571685 0.276821
0.424656 0.571767 0.284771
0.434561 0.571865 0.292652
0.444360 0.571981 0.300451
0.454037 0.572118 0.308157
0.463576 0.572277 0.315756
0.472959 0.572461 0.323236
0.482172 0.572674 0.330585
0.491198 0.572917 0.337790
0.500021 0.573193 0.344839
0.508625 0.573505 0.351719
0.516993 0.573854 0.358418
0.148721 0.590817 0.150184
0.169167 0.592364 0.151403
0.189975 0.593833 0.152404
0.211361 0.595303 0.153408
0.233285 0.596773 0.154415
0.255706 0.598244 0.155426
0.268437 0.598741 0.161247
0.277932 0.598889 0.168801
0.287571 0.599015 0.176467
0.297337 0.599122 0.184233
0.307217 0.599213 0.192087
0.317193 0.599290 0.200016
0.327251 0.599356 0.208009
0.337374 0.599412 0.216053
0.347546 0.599461 0.224136
0.357753 0.599507 0.232246
0.367977 0.599551 0.240370
0.378203 0.599595 0.248497
0.388415 0.599643 0.256614
0.398597 0.599697 0.264708
0.408733 0.599759 0.272767
0.418808 0.599832 0.280780
0.428805 0.599918 0.288733
0.438708 0.600019 0.296614
0.448501 0.600139 0.304411
0.458168 0.600280 0.312111
0.467693 0.600444 0.319703
0.477060 0.600634 0.327172
0.486252 0.600852 0.334507
0.495254 0.601101 0.341696
0.504049 0.601383 0.348726
0.512620 0.601701 0.355583
0.520953 0.602058 0.362257
0.152307 0.618943 0.153774
0.172657 0.620413 0.154783
0.193618 0.621884 0.155795
0.215150 0.623356 0.156810
0.237211 0.624828 0.157829
0.259761 0.626300 0.158852
0.272201 0.626759 0.164880
0.281746 0.626902 0.172475
0.291432 0.627023 0.180180
0.301242 0.627126 0.187983
0.311163 0.627213 0.195870
0.321177 0.627286 0.203831
0.331268 0.627348 0.211853
0.341422 0.627402 0.219923
0.351622 0.627448 0.228030
0.361853 0.627491 0.236161
0.372098 0.627533 0.244304
0.382341 0.627576 0.252447
0.392567 0.627622 0.260577
0.402760 0.627675 0.268681
0.412904 0.627736 0.276749
0.422982 0.627808 0.284767
0.432979 0.627894 0.292722
0.442879 0.627996 0.300603
0.452665 0.628117 0.308397
0.462321 0.628258 0.316091
0.471832 0.628424 0.323674
0.481181 0.628615 0.331132
0.490352 0.628835 0.338453
0.499328 0.629086 0.345624
0.508094 0.629371 0.352634
0.516633 0.629693 0.359469
0.524929 0.630053 0.366116
0.155676 0.646828 0.157181
0.176186 0.648298 0.158201
0.197299 0.649767 0.159225
0.218975 0.651237 0.160252
0.241172 0.652707 0.161283
0.263849 0.654177 0.162317
0.276001 0.654595 0.168550
0.285596 0.654729 0.176186
0.295328 0.654843 0.183929
0.305182 0.654938 0.191767
0.315142 0.655017 0.199688
0.325193 0.655083 0.207680
0.335318 0.655138 0.215730
0.345502 0.655185 0.223826
0.355729 0.655225 0.231956
0.365983 0.655262 0.240108
0.376248 0.655298 0.248269
0.386508 0.655336 0.256426
0.396748 0.655377 0.264569
0.406950 0.655425 0.272684
0.417100 0.655482 0.280759
0.427181 0.655550 0.288781
0.437178 0.655632 0.296738
0.447073 0.655731 0.304618
0.456851 0.655849 0.312408
0.466496 0.655988 0.320096
0.475992 0.656151 0.327669
0.485322 0.656340 0.335115
0.494470 0.656559 0.342421
0.503421 0.656809 0.349575
0.512157 0.657093 0.356563
0.520662 0.657414 0.363374
0.528921 0.657774 0.369995
0.159085 0.674489 0.160627
0.179753 0.675953 0.161659
0.201017 0.677417 0.162695
0.222835 0.678882 0.163734
0.245166 0.680346 0.164776
0.267969 0.681811 0.165821
0.279838 0.682184 0.172255
0.289481 0.682307 0.179932
0.299259 0.682409 0.187713
0.309156 0.682492 0.195586
0.319155 0.682561 0.203540
0.329242 0.682616 0.211562
0.339400 0.682660 0.219640
0.349613 0.682697 0.227761
0.359866 0.682728 0.235913
0.370143 0.682755 0.244085
0.380427 0.682782 0.252263
0.390703 0.682811 0.260436
0.400955 0.682843 0.268590
0.411167 0.682883 0.276715
0.421323 0.682932 0.284796
0.431406 0.682993 0.292822
0.441400 0.683068 0.300781
0.451291 0.683160 0.308659
0.461060 0.683271 0.316445
0.470693 0.683403 0.324126
0.480173 0.683561 0.331689
0.489483 0.683745 0.339122
0.498608 0.683958 0.346412
0.507531 0.684204 0.353547
0.516237 0.684484 0.360514
0.524707 0.684801 0.367300
0.532927 0.685157 0.373894
0.162534 0.701859 0.164113
0.183359 0.703312 0.165156
0.204771 0.704762 0.166203
0.226730 0.706210 0.167253
0.249193 0.707657 0.168307
0.272121 0.709101 0.169364
0.283710 0.709424 0.175997
0.293402 0.709530 0.183713
0.303224 0.709616 0.191531
0.313163 0.709684 0.199440
0.323201 0.709737 0.207426
0.333323 0.709778 0.215477
0.343513 0.709808 0.223582
0.353755 0.709830 0.231728
0.364033 0.709848 0.239902
0.374332 0.709862 0.248093
0.384635 0.709876 0.256288
0.394926 0.709892 0.264475
0.405190 0.709912 0.272641
0.415410 0.709940 0.280773
0.425570 0.709977 0.288861
0.435655 0.710026 0.296890
0.445647 0.710090 0.304849
0.455531 0.710170 0.312725
0.465291 0.710270 0.320506
0.474911 0.710392 0.328179
0.484374 0.710539 0.335731
0.493664 0.710712 0.343151
0.502764 0.710915 0.350424
0.511660 0.711150 0.357540
0.520333 0.711419 0.364485
0.528768 0.711725 0.371246
0.536949 0.712070 0.377812
0.166023 0.728492 0.167637
0.187003 0.729896 0.168691
0.208562 0.731297 0.169750
0.230660 0.732696 0.170812
0.253254 0.734093 0.171877
0.276305 0.735487 0.172945
0.287618 0.735753 0.179774
0.297357 0.735838 0.187529
0.307224 0.735903 0.195384
0.317204 0.735952 0.203327
0.327280 0.735986 0.211344
0.337436 0.736008 0.219425
0.347657 0.736020 0.227556
0.357928 0.736026 0.235726
0.368230 0.736026 0.243922
0.378550 0.736024 0.252131
0.388871 0.736022 0.260342
0.399177 0.736022 0.268543
0.409451 0.736026 0.276719
0.419679 0.736038 0.284860
0.429843 0.736060 0.292953
0.439928 0.736094 0.300985
0.449917 0.736142 0.308944
0.459794 0.736207 0.316817
0.469544 0.736291 0.324592
0.479149 0.736397 0.332256
0.488595 0.736527 0.339797
0.497863 0.736684 0.347202
0.506939 0.736869 0.354459
0.515805 0.737087 0.361554
0.524446 0.737338 0.368476
0.532845 0.737625 0.375212
0.540985 0.737952 0.381748
0.169551 0.754038 0.171199
0.190684 0.755391 0.172265
0.212389 0.756740 0.173335
0.234624 0.758088 0.174408
0.257348 0.759433 0.175484
0.280520 0.760775 0.176564
0.291561 0.760983 0.183587
0.301347 0.761044 0.191380
0.311258 0.761087 0.199271
0.321278 0.761113 0.207247
0.331391 0.761126 0.215296
0.341581 0.761127 0.223405
0.351833 0.761119 0.231562
0.362130 0.761105 0.239755
0.372457 0.761086 0.247972
0.382797 0.761064 0.256200
0.393135 0.761043 0.264426
0.403454 0.761025 0.272639
0.413739 0.761011 0.280826
0.423973 0.761005 0.288974
0.434140 0.761008 0.297072
0.444224 0.761024 0.305106
0.454210 0.761053 0.313064
0.464080 0.761100 0.320933
0.473818 0.761166 0.328702
0.483409 0.761253 0.336357
0.492835 0.761364 0.343886
0.502081 0.761501 0.351276
