design/lut/jc-grade-band.cube
TITLE "JC Alvarez — band"
LUT_3D_SIZE 5
DOMAIN_MIN 0 0 0
DOMAIN_MAX 1 1 1
0.088430 0.139183 0.166949
0.222493 0.146346 0.189800
0.301265 0.146326 0.247428
0.382501 0.146025 0.306811
0.459256 0.146467 0.363042
0.124969 0.320289 0.198833
0.260283 0.328475 0.223251
0.339414 0.329664 0.281178
0.419653 0.330694 0.339900
0.494149 0.332574 0.394576
0.162316 0.525229 0.231440
0.298543 0.533115 0.257177
0.376838 0.533666 0.314347
0.453091 0.532699 0.369527
0.523361 0.532712 0.420513
0.192882 0.727693 0.258758
0.327339 0.733490 0.282569
0.404551 0.732657 0.338502
0.481324 0.731919 0.394156
0.550705 0.732292 0.444620
0.217084 0.888971 0.281214
0.354929 0.892492 0.306888
0.433721 0.890912 0.364040
0.510727 0.889497 0.419961
0.578902 0.889051 0.469674
0.106595 0.139846 0.280608
0.257704 0.152568 0.318064
0.401887 0.158489 0.348575
0.483780 0.158297 0.408652
0.561021 0.158859 0.465446
0.144222 0.321216 0.314508
0.298588 0.335402 0.353835
0.442401 0.342446 0.384722
0.523131 0.343549 0.443979
0.597953 0.345516 0.499060
0.182413 0.525998 0.348859
0.339461 0.540242 0.389597
0.481001 0.545937 0.419174
0.558513 0.545101 0.475616
0.629873 0.545263 0.527737
0.213080 0.727565 0.376664
0.370375 0.740229 0.417866
0.512769 0.745153 0.447415
0.590677 0.744528 0.504215
0.661020 0.745014 0.555694
0.239568 0.888314 0.400860
0.401252 0.897668 0.446293
0.545658 0.900578 0.476702
0.623670 0.899247 0.533647
0.692673 0.898878 0.584248
0.163611 0.137000 0.344345
0.283530 0.151922 0.440611
0.452027 0.166089 0.491588
0.598283 0.171775 0.523853
0.675370 0.172401 0.580562
0.201543 0.315019 0.378569
0.324328 0.335188 0.477088
0.493317 0.350513 0.527723
0.637701 0.357410 0.559262
0.712221 0.359407 0.614116
0.239817 0.519777 0.412997
0.364899 0.540039 0.513314
0.531803 0.553382 0.561798
0.673570 0.558384 0.591438
0.744917 0.558644 0.644133
0.269908 0.720588 0.440494
0.396042 0.739231 0.541483
0.565204 0.752587 0.592484
0.707787 0.757611 0.622108
0.776178 0.758156 0.674026
0.297500 0.882478 0.465896
0.428199 0.896457 0.570525
0.599343 0.906121 0.623829
0.741999 0.909184 0.653222
0.806326 0.908776 0.704179
0.223030 0.137000 0.410803
0.343067 0.144974 0.507093
0.479677 0.165148 0.616505
0.651773 0.179736 0.669964
0.788776 0.186178 0.698218
0.260273 0.308560 0.444226
0.383063 0.328799 0.542661
0.519790 0.350160 0.652126
0.689807 0.365613 0.703185
0.819765 0.373344 0.729694
0.297660 0.513467 0.477632
0.421912 0.533199 0.577171
0.556880 0.552467 0.685164
0.724484 0.565870 0.734512
0.848007 0.571951 0.758944
0.326493 0.713659 0.504043
0.453121 0.732430 0.605431
0.590690 0.751706 0.715490
0.757157 0.764757 0.764573
0.874840 0.770823 0.786937
0.354217 0.876751 0.529550
0.485309 0.890906 0.634476
0.625023 0.905127 0.746005
0.788532 0.914327 0.793410
0.900081 0.918084 0.813488
0.279931 0.137000 0.474405
0.399801 0.138559 0.570398
0.535960 0.158854 0.679284
0.675514 0.179500 0.788259
0.828994 0.193497 0.828399
0.315551 0.302749 0.505970
0.438068 0.323107 0.604006
0.574244 0.344568 0.712849
0.711357 0.366110 0.816627
0.855425 0.379905 0.851537
0.351140 0.507968 0.537323
0.474368 0.527069 0.635911
0.609381 0.546428 0.743684
0.744301 0.565895 0.842169
0.880219 0.578478 0.874430
0.377991 0.707687 0.561823
0.504803 0.726582 0.663261
0.642307 0.746075 0.771819
0.775512 0.764945 0.866257
0.903444 0.776730 0.895862
0.404815 0.871874 0.586265
0.535984 0.886225 0.691133
0.675517 0.900631 0.798991
0.805266 0.914290 0.889040
0.924778 0.921974 0.915385
