design/lut/jc-grade-clean.cube
TITLE "JC Alvarez — clean"
LUT_3D_SIZE 5
DOMAIN_MIN 0 0 0
DOMAIN_MAX 1 1 1
0.107872 0.122855 0.134341
0.280378 0.117216 0.127822
0.503805 0.112152 0.126282
0.590161 0.095001 0.192205
0.648375 0.083829 0.236658
0.099173 0.285138 0.117615
0.276031 0.283469 0.115537
0.501007 0.281173 0.122478
0.593355 0.266996 0.193986
0.658039 0.258341 0.244401
0.105240 0.523289 0.116009
0.281579 0.524924 0.118501
0.509035 0.525159 0.130198
0.604202 0.512742 0.204566
0.673255 0.505109 0.259044
0.123707 0.765164 0.127622
0.294476 0.766807 0.133383
0.525075 0.767311 0.146496
0.622287 0.756472 0.223430
0.695130 0.749060 0.281819
0.154666 0.894745 0.152528
0.317769 0.895756 0.162955
0.553007 0.896436 0.175289
0.649869 0.889332 0.252924
0.724308 0.883953 0.313729
0.106334 0.120793 0.304291
0.279509 0.115601 0.299039
0.511982 0.111735 0.294639
0.699925 0.104702 0.313339
0.756186 0.093920 0.358080
0.099111 0.284468 0.290055
0.276132 0.283113 0.287764
0.517960 0.282692 0.286399
0.701834 0.277592 0.313734
0.762830 0.269136 0.363351
0.106682 0.523798 0.286068
0.282713 0.525575 0.286969
0.527268 0.527413 0.288248
0.708594 0.523431 0.319834
0.772108 0.515792 0.372797
0.126137 0.765732 0.291069
0.296304 0.767347 0.294356
0.539075 0.768894 0.298692
0.720597 0.765374 0.332183
0.785167 0.757912 0.388144
0.158642 0.895120 0.306323
0.320773 0.896038 0.313190
0.556118 0.896690 0.321145
0.739283 0.894470 0.352747
0.802368 0.889008 0.410337
0.118910 0.116107 0.498335
0.278734 0.114138 0.525041
0.512429 0.110727 0.523818
0.746814 0.108662 0.522940
0.872557 0.107921 0.522586
0.113699 0.281023 0.493372
0.276334 0.282864 0.522326
0.518764 0.282765 0.522324
0.759018 0.283625 0.522721
0.878380 0.284184 0.529818
0.120132 0.521999 0.498980
0.283954 0.526275 0.523931
0.528245 0.528056 0.524857
0.768514 0.530260 0.526212
0.884002 0.530985 0.537694
0.135627 0.765077 0.512856
0.298248 0.767879 0.528833
0.540545 0.769407 0.531347
0.776098 0.770890 0.534382
0.890127 0.770654 0.547530
0.162773 0.895462 0.535620
0.323898 0.896289 0.539396
0.558161 0.896853 0.543736
0.782802 0.897167 0.548656
0.897127 0.896544 0.560097
0.185482 0.100874 0.581214
0.308234 0.106834 0.687916
0.512910 0.109874 0.748587
0.748169 0.108269 0.750349
0.874409 0.108025 0.751956
0.184654 0.266517 0.581299
0.309222 0.276250 0.689512
0.519606 0.282949 0.753914
0.760107 0.284138 0.755191
0.887792 0.286308 0.756347
0.193661 0.508343 0.589704
0.316501 0.520587 0.696365
0.529268 0.528752 0.757753
0.769344 0.531117 0.758682
0.897008 0.533967 0.759539
0.209835 0.752894 0.604164
0.328314 0.763487 0.706934
0.542068 0.769915 0.760625
0.776800 0.771388 0.761383
0.902317 0.772844 0.762130
0.235672 0.887815 0.626912
0.347992 0.894135 0.723782
0.560267 0.896987 0.763166
0.783467 0.897219 0.763967
0.904238 0.897166 0.764822
0.227747 0.090653 0.633911
0.352096 0.096850 0.740701
0.519069 0.108056 0.855906
0.749495 0.108033 0.866829
0.875983 0.108253 0.869953
0.231789 0.256879 0.639648
0.357309 0.266747 0.746720
0.529040 0.281544 0.862784
0.761172 0.284764 0.876004
0.888908 0.286982 0.878071
0.244607 0.499251 0.652386
0.367500 0.511257 0.755989
0.539457 0.527690 0.869355
0.770157 0.532029 0.882103
0.897712 0.535049 0.883311
0.263300 0.744239 0.669708
0.381562 0.754916 0.767542
0.550807 0.769172 0.875891
0.777494 0.771883 0.885048
0.902657 0.773338 0.885329
0.290664 0.882044 0.693946
0.402072 0.888433 0.782971
0.564382 0.896873 0.883008
0.784133 0.897244 0.884987
0.904252 0.897087 0.884340
