design/lut/jc-grade-standard.cube
TITLE "JC Alvarez — standard"
LUT_3D_SIZE 9
DOMAIN_MIN 0 0 0
DOMAIN_MAX 1 1 1
0.084929 0.078811 0.078599
0.168770 0.084250 0.083885
0.223686 0.086214 0.106411
0.263461 0.086233 0.138610
0.304398 0.086076 0.171718
0.345744 0.085862 0.205146
0.386751 0.085708 0.238311
0.426680 0.085731 0.270635
0.464795 0.086047 0.301542
0.103465 0.176027 0.096411
0.188103 0.181712 0.101721
0.242373 0.183813 0.124774
0.282175 0.184061 0.156998
0.323002 0.184149 0.190024
0.364107 0.184191 0.223268
0.404748 0.184307 0.256151
0.444192 0.184610 0.288098
0.481709 0.185215 0.318542
0.122077 0.280852 0.114297
0.207435 0.286635 0.119626
0.261074 0.288734 0.143161
0.300875 0.289070 0.175387
0.341566 0.289258 0.208310
0.382405 0.289415 0.241350
0.422658 0.289658 0.273932
0.461597 0.290099 0.305488
0.498497 0.290854 0.335451
0.140748 0.390383 0.132242
0.226754 0.396125 0.137586
0.279774 0.398091 0.161559
0.319547 0.398379 0.193766
0.360076 0.398534 0.226564
0.400627 0.398672 0.259380
0.440470 0.398907 0.291644
0.478623 0.399074 0.322504
0.513422 0.398087 0.350309
0.159465 0.501793 0.150233
0.246044 0.507363 0.155587
0.298462 0.509072 0.179954
0.338179 0.509186 0.212119
0.377442 0.508504 0.243657
0.415869 0.507196 0.274300
0.453793 0.505994 0.304557
0.490478 0.505014 0.333853
0.525180 0.504372 0.361608
0.178213 0.612330 0.168254
0.263101 0.616864 0.171427
0.312729 0.617363 0.193926
0.350505 0.616341 0.224071
0.389114 0.615208 0.254873
0.427825 0.614080 0.285763
0.465902 0.613072 0.316165
0.502604 0.612302 0.345499
0.537182 0.611887 0.373182
0.187964 0.717980 0.178406
0.274252 0.722480 0.181419
0.323846 0.722926 0.204743
0.362129 0.721943 0.235308
0.401124 0.720862 0.266438
0.440096 0.719797 0.297556
0.478301 0.718865 0.328083
0.514993 0.718183 0.357435
0.549418 0.717870 0.385022
0.197802 0.812527 0.188681
0.285771 0.816362 0.191812
0.335336 0.816594 0.215935
0.374106 0.815661 0.246905
0.413466 0.814653 0.278345
0.452674 0.813671 0.309672
0.490982 0.812814 0.340305
0.527638 0.812184 0.369652
0.561880 0.811885 0.397121
0.208043 0.888343 0.199354
0.297651 0.891457 0.202602
0.347193 0.891427 0.227497
0.386430 0.890461 0.258856
0.426132 0.889439 0.290587
0.465552 0.888447 0.322106
0.503938 0.887571 0.352822
0.540528 0.886897 0.382143
0.574558 0.886515 0.409470
0.086797 0.080657 0.157778
0.170721 0.086099 0.163306
0.261660 0.091547 0.168835
0.314259 0.092809 0.195124
0.355324 0.092669 0.228379
0.396781 0.092474 0.261939
0.437882 0.092341 0.295222
0.477889 0.092386 0.327649
0.516067 0.092725 0.358647
0.105341 0.177957 0.176378
0.190055 0.183642 0.181907
0.281395 0.189327 0.187437
0.333421 0.190759 0.214014
0.374360 0.190860 0.247170
0.415560 0.190918 0.280529
0.456280 0.191050 0.313514
0.495787 0.191372 0.345550
0.533353 0.191997 0.376067
0.123959 0.282817 0.194979
0.209387 0.288598 0.200506
0.301057 0.294371 0.206033
0.352523 0.295834 0.232856
0.393311 0.296033 0.265892
0.434230 0.296203 0.299031
0.474548 0.296459 0.331699
0.513535 0.296915 0.363326
0.550469 0.297686 0.393349
0.142636 0.392335 0.213568
0.228702 0.398072 0.219090
0.320634 0.403796 0.224609
0.371553 0.405160 0.251636
0.412164 0.405323 0.284532
0.452780 0.405470 0.317431
0.492673 0.405715 0.349765
0.530411 0.405312 0.380190
0.565500 0.404366 0.408324
0.161356 0.503687 0.232133
0.247989 0.509250 0.237644
0.340113 0.514793 0.243152
0.390500 0.515935 0.270343
0.429318 0.514841 0.301449
0.468072 0.513567 0.332450
0.506308 0.512400 0.363052
0.543288 0.511456 0.392680
0.578271 0.510853 0.420754
0.179466 0.613932 0.250174
0.264210 0.618375 0.253555
0.354848 0.622834 0.256968
0.403075 0.622817 0.282645
0.442016 0.621713 0.313808
0.481045 0.620615 0.345046
0.519424 0.619640 0.375784
0.556412 0.618905 0.405440
0.591259 0.618526 0.433431
0.188938 0.719510 0.261677
0.275399 0.724004 0.265167
0.367469 0.728478 0.268689
0.415710 0.728440 0.295009
0.455028 0.727395 0.326489
0.494307 0.726368 0.357945
0.532805 0.725474 0.388798
0.569773 0.724829 0.418461
0.604457 0.724553 0.446346
0.198818 0.813832 0.273544
0.286954 0.817658 0.277141
0.380411 0.821459 0.280770
0.428672 0.821299 0.307704
0.468345 0.820322 0.339484
0.507851 0.819372 0.371140
0.546442 0.818547 0.402086
0.583363 0.817949 0.431735
0.617853 0.817680 0.459490
0.209099 0.889404 0.285770
0.298870 0.892508 0.289472
0.393667 0.895584 0.293205
0.441955 0.895242 0.320724
0.481961 0.894249 0.352785
0.521669 0.893286 0.384621
0.560326 0.892438 0.415641
0.597172 0.891791 0.445252
0.631439 0.891434 0.472855
0.105615 0.079115 0.209089
0.172672 0.087948 0.249425
0.263655 0.093400 0.255083
0.359604 0.098858 0.260735
0.410246 0.099650 0.289505
0.451747 0.099468 0.323124
0.492877 0.099349 0.356451
0.532896 0.099409 0.388909
0.571072 0.099765 0.419925
0.124369 0.176458 0.227706
0.192007 0.185573 0.268436
0.283384 0.191258 0.274075
0.379354 0.196942 0.279706
0.429493 0.197936 0.308535
0.470723 0.198004 0.341937
0.511457 0.198147 0.374951
0.550963 0.198480 0.407002
0.588512 0.199119 0.437523
0.143153 0.281318 0.246342
0.211337 0.290559 0.287377
0.303038 0.296330 0.292993
0.398964 0.302094 0.298600
0.448613 0.303152 0.327449
0.489548 0.303328 0.360615
0.529865 0.303591 0.393297
0.568837 0.304057 0.424925
0.605741 0.304838 0.454935
0.161954 0.390799 0.264983
0.230651 0.400018 0.306236
0.322605 0.405737 0.311825
0.418422 0.411442 0.317405
0.467594 0.412433 0.346235
0.508212 0.412583 0.379146
0.548090 0.412833 0.411478
0.585511 0.411873 0.441576
0.620840 0.410963 0.469984
0.180757 0.502076 0.283616
0.249934 0.511134 0.325001
0.342073 0.516671 0.330559
0.437366 0.521939 0.335747
0.484488 0.521500 0.362921
0.523520 0.520254 0.394225
0.562018 0.519116 0.425118
0.599244 0.518205 0.455023
0.634456 0.517636 0.483359
0.198127 0.611894 0.300865
0.265322 0.619887 0.340912
0.356107 0.624352 0.344733
0.450867 0.628832 0.348582
0.498046 0.628522 0.376239
0.537342 0.627450 0.407769
0.575973 0.626503 0.438785
0.613196 0.625797 0.468708
0.648262 0.625450 0.496950
0.208687 0.717312 0.311594
0.276549 0.725525 0.353878
0.368761 0.729993 0.357794
0.464647 0.734442 0.361738
0.511890 0.734147 0.389847
0.551426 0.733152 0.421585
0.590165 0.732291 0.452705
0.627358 0.731680 0.482623
0.662249 0.731434 0.510748
0.219629 0.811759 0.322695
0.288141 0.818952 0.367163
0.381735 0.822744 0.371173
0.478698 0.826510 0.375210
0.526012 0.826154 0.403738
0.565764 0.825231 0.435664
0.604585 0.824434 0.466867
0.641719 0.823863 0.496758
0.676405 0.823619 0.524742
0.230947 0.887463 0.334161
0.300093 0.893556 0.380760
0.395022 0.896622 0.384861
0.493009 0.899659 0.388988
0.540403 0.899173 0.417903
0.580346 0.898235 0.449997
0.619222 0.897412 0.481263
0.656269 0.896790 0.511104
0.690721 0.896454 0.538923
0.134506 0.076000 0.244819
0.195095 0.085705 0.298589
0.265650 0.095252 0.346150
0.361604 0.100713 0.351823
0.460493 0.106179 0.357485
0.509539 0.106735 0.387468
0.550634 0.106624 0.420768
0.590603 0.106694 0.453187
0.628714 0.107061 0.484150
0.153291 0.172979 0.263473
0.214411 0.183413 0.317704
0.285371 0.193188 0.365189
0.381340 0.198872 0.370822
0.479889 0.204554 0.376444
0.528500 0.205342 0.406267
0.569186 0.205490 0.439240
0.608628 0.205830 0.471237
0.646098 0.206476 0.501691
0.172087 0.277872 0.282121
0.233683 0.288441 0.336766
0.305017 0.298289 0.384091
0.400935 0.304050 0.389682
0.499082 0.309802 0.395260
0.547271 0.310685 0.424888
0.587526 0.310949 0.457514
0.626421 0.311418 0.489074
0.663234 0.312203 0.519004
0.190879 0.387340 0.300750
0.252899 0.397902 0.355761
0.324575 0.407676 0.402846
0.420378 0.413376 0.408391
0.518063 0.419062 0.413922
0.565842 0.419908 0.443319
0.605448 0.419860 0.475375
0.642856 0.418654 0.505471
0.678374 0.417775 0.534095
0.209653 0.498565 0.319346
0.272045 0.508984 0.374678
0.344033 0.518547 0.421442
0.438716 0.523393 0.426179
0.534769 0.527688 0.430291
0.581143 0.527153 0.458431
0.619851 0.526041 0.489556
0.657271 0.525156 0.519679
0.692660 0.524616 0.548220
0.226231 0.607971 0.335853
0.287045 0.617281 0.389641
0.357370 0.625871 0.435939
0.452246 0.630356 0.440108
0.549158 0.634857 0.444302
0.595639 0.634481 0.472727
0.634469 0.633556 0.503964
0.671875 0.632874 0.534092
0.707106 0.632554 0.562527
0.237150 0.713366 0.347021
0.299185 0.722814 0.401889
0.370056 0.731506 0.450061
0.466054 0.735948 0.454312
0.563770 0.740369 0.458586
0.610368 0.740041 0.487260
0.649294 0.739208 0.518589
0.686657 0.738624 0.548701
0.721700 0.738403 0.577006
0.248436 0.808304 0.358543
0.311663 0.816469 0.414465
0.383062 0.824026 0.464453
0.480131 0.827783 0.468782
0.578596 0.831514 0.473134
0.625319 0.831155 0.502023
0.664315 0.830381 0.533422
0.701608 0.829833 0.563495
0.736248 0.829609 0.591645
0.260083 0.884450 0.370411
0.324472 0.891296 0.427360
0.396380 0.897656 0.479106
0.494468 0.900683 0.483510
0.593626 0.903681 0.487937
0.640482 0.903215 0.517004
0.679522 0.902413 0.548453
0.716715 0.901811 0.578463
0.750662 0.901461 0.606490
0.164382 0.076000 0.281784
0.225008 0.081964 0.335579
0.290456 0.092543 0.393600
0.363602 0.102569 0.445863
0.462460 0.108037 0.451441
0.562244 0.113512 0.457004
0.610056 0.114062 0.486946
0.649914 0.114136 0.519257
0.687898 0.114507 0.550100
0.183098 0.169324 0.300350
0.244244 0.179767 0.354594
0.309941 0.190602 0.412827
0.383325 0.200802 0.464563
0.481836 0.206484 0.470084
0.580933 0.212164 0.475587
0.628376 0.212975 0.505162
0.667694 0.213315 0.537038
0.705026 0.213963 0.567359
0.201806 0.274267 0.318885
0.263417 0.284844 0.373532
0.329313 0.295782 0.431932
0.402905 0.306004 0.483065
0.501008 0.311754 0.488525
0.599362 0.317496 0.493967
0.646448 0.318429 0.523141
0.685207 0.318895 0.554566
0.721867 0.319679 0.584350
0.220491 0.383742 0.337379
0.282516 0.394310 0.392380
0.348560 0.405210 0.450904
0.422332 0.415309 0.501359
0.519967 0.420990 0.506755
0.617522 0.426656 0.512132
0.663817 0.426734 0.540413
0.701377 0.425552 0.570680
0.736828 0.424699 0.599460
0.239140 0.494933 0.355817
0.301526 0.505356 0.411128
0.367672 0.516084 0.469733
0.440069 0.524849 0.518542
0.536211 0.529151 0.522898
0.632760 0.533474 0.527274
0.678732 0.533069 0.555165
0.716292 0.532206 0.585446
0.751107 0.531690 0.614130
0.254913 0.603934 0.371566
0.315923 0.613245 0.425553
0.381005 0.622919 0.483112
0.453627 0.631883 0.533276
0.550623 0.636388 0.537699
0.647696 0.640908 0.542142
0.693830 0.640694 0.570108
0.731273 0.640031 0.600381
0.765204 0.639732 0.628946
0.266103 0.709317 0.383063
0.328327 0.718802 0.438122
0.394422 0.728511 0.496577
0.467463 0.737452 0.548233
0.565257 0.741866 0.552721
0.662796 0.746261 0.557228
0.709101 0.746119 0.585230
0.746092 0.745556 0.615474
0.779103 0.745356 0.643895
0.277645 0.804757 0.394894
0.341052 0.812975 0.450998
0.408127 0.821333 0.510320
0.481566 0.829053 0.563404
0.580104 0.832775 0.567954
0.678049 0.836470 0.572521
0.724520 0.836297 0.600523
0.760719 0.835766 0.630714
0.792785 0.835557 0.658967
0.289531 0.881367 0.407051
0.354092 0.888266 0.464173
0.422114 0.895247 0.524332
0.495930 0.901704 0.578779
0.595155 0.904692 0.583388
0.693443 0.907650 0.588013
0.739839 0.907364 0.615974
0.775136 0.906776 0.646089
0.806287 0.906380 0.674233
0.194707 0.076000 0.319311
0.255340 0.078140 0.373094
0.320767 0.088734 0.431077
0.389584 0.099628 0.492030
0.464425 0.109896 0.546497
0.564143 0.115372 0.551877
0.662795 0.120854 0.557235
0.709736 0.121628 0.585899
0.747014 0.121998 0.616557
0.213257 0.165599 0.337667
0.274399 0.176057 0.391888
0.340065 0.186904 0.450072
0.408861 0.198021 0.510998
0.483781 0.208413 0.564509
0.582805 0.214093 0.569814
0.680440 0.219770 0.575096
0.727042 0.220831 0.603194
0.762869 0.221475 0.633317
0.231780 0.270611 0.355970
0.293379 0.281201 0.410583
0.359233 0.292150 0.468924
0.427962 0.303340 0.529782
0.502932 0.313705 0.582265
0.601207 0.319443 0.587493
0.697774 0.325173 0.592697
0.743716 0.326383 0.620199
0.778053 0.327160 0.649774
0.250264 0.380111 0.374210
0.312266 0.390690 0.429167
0.378260 0.401600 0.487622
0.446875 0.412721 0.548372
0.521869 0.422916 0.599758
0.619340 0.428577 0.604905
0.714291 0.432847 0.609488
0.758900 0.432462 0.636004
0.791792 0.431630 0.664877
0.268695 0.491285 0.392374
0.331049 0.501719 0.447630
0.396762 0.512162 0.505814
0.463887 0.521815 0.565177
0.537656 0.530617 0.615638
0.634260 0.534946 0.620164
0.729247 0.539296 0.624706
0.773130 0.539250 0.651117
0.805142 0.538751 0.679880
0.283656 0.599888 0.407353
0.344834 0.609206 0.461504
0.410063 0.618884 0.519210
0.478015 0.628811 0.579305
0.552090 0.637922 0.630925
0.649213 0.642447 0.635501
0.744023 0.646986 0.640092
0.787151 0.647163 0.666358
0.818258 0.646879 0.694988
0.295025 0.705275 0.419064
0.357409 0.714782 0.474279
0.423643 0.724549 0.532870
0.492388 0.734400 0.593666
0.566746 0.743361 0.646377
0.664329 0.747748 0.651000
0.758580 0.752114 0.655637
0.800945 0.752375 0.681717
0.831125 0.752188 0.710184
0.306729 0.801211 0.431087
0.370289 0.809485 0.487338
0.437494 0.817899 0.546787
0.506995 0.826345 0.608251
0.581614 0.834033 0.661982
0.679596 0.837719 0.666649
0.772898 0.841378 0.671328
0.814495 0.841574 0.697181
0.843727 0.841376 0.725246
0.318759 0.878294 0.443414
0.383465 0.885247 0.500675
0.451608 0.892284 0.560951
0.521828 0.899311 0.623050
0.596685 0.905700 0.677730
0.695005 0.908648 0.682437
0.786963 0.911566 0.687156
0.827785 0.911614 0.712720
0.856046 0.911161 0.740070
0.224944 0.076000 0.356730
0.285557 0.076000 0.410465
0.350934 0.084955 0.468375
0.419674 0.095867 0.529230
0.490385 0.106956 0.591811
0.566038 0.117233 0.646009
0.664590 0.122717 0.651091
0.758998 0.128205 0.656146
0.801398 0.129429 0.682305
0.243236 0.161909 0.374758
0.304347 0.172388 0.428921
0.369954 0.183254 0.487022
0.438663 0.194386 0.547841
0.509096 0.205667 0.610167
0.584675 0.216021 0.662998
0.682204 0.221698 0.667990
0.774203 0.227372 0.672954
0.815359 0.228907 0.698360
0.261484 0.267008 0.392715
0.323042 0.277617 0.447259
0.388827 0.288582 0.505507
0.457460 0.299786 0.566248
0.527571 0.311111 0.628281
0.603050 0.321390 0.679681
0.699506 0.327117 0.684580
0.788722 0.332834 0.689451
0.828676 0.334544 0.714047
0.279676 0.376550 0.410588
0.341628 0.387146 0.465467
0.407543 0.398070 0.523818
0.476054 0.409205 0.584441
0.545801 0.420433 0.646145
0.620964 0.430177 0.695996
0.715802 0.434224 0.700555
0.802207 0.438295 0.705124
0.841192 0.438464 0.728816
0.297800 0.487725 0.428366
0.360094 0.498174 0.483534
0.425217 0.508173 0.541163
0.492446 0.517836 0.600625
0.561255 0.527654 0.661474
0.635762 0.536421 0.711363
0.730748 0.540778 0.715917
0.815170 0.545154 0.720450
0.853429 0.545696 0.743317
0.311939 0.595937 0.442562
0.373256 0.605267 0.496843
0.438603 0.614956 0.554658
0.506651 0.624891 0.614842
0.576060 0.634957 0.676220
0.650731 0.643987 0.726602
0.745503 0.648531 0.731087
0.827865 0.653089 0.735551
0.865391 0.653889 0.757559
0.323392 0.701347 0.454367
0.385907 0.710865 0.509702
0.452250 0.720687 0.568394
0.521081 0.730600 0.629268
0.591051 0.740474 0.691141
0.665863 0.749233 0.741604
0.760036 0.753591 0.746016
0.840277 0.757928 0.750404
0.877065 0.758803 0.771528
0.335160 0.797757 0.466461
0.398843 0.806091 0.522823
0.466149 0.814565 0.582362
0.535727 0.823070 0.643895
0.606217 0.831501 0.706227
0.681146 0.838965 0.756352
0.774330 0.842614 0.760685
0.852394 0.846236 0.764993
0.888440 0.846983 0.785208
0.347237 0.875308 0.478836
0.412057 0.882320 0.536197
0.480291 0.889415 0.596554
0.550579 0.896499 0.658711
0.621549 0.903485 0.721330
0.696568 0.909642 0.770829
0.788368 0.912550 0.775078
0.864196 0.915390 0.779292
0.899398 0.915736 0.798475
0.254562 0.076000 0.393370
0.315126 0.076000 0.447024
0.380426 0.081310 0.504827
0.449062 0.092246 0.565551
0.519642 0.103356 0.627976
0.590789 0.114523 0.690895
0.666382 0.124580 0.741530
0.760564 0.130070 0.745977
0.840174 0.135564 0.750365
0.272505 0.158362 0.410959
0.333559 0.168866 0.465032
0.399079 0.179755 0.523016
0.467676 0.190909 0.583694
0.537969 0.202210 0.645856
0.608592 0.213539 0.708303
0.683965 0.223625 0.756255
0.775700 0.229298 0.760504
0.851998 0.234969 0.764695
0.290390 0.263564 0.428459
0.351880 0.274196 0.482902
0.417571 0.285183 0.541024
0.486082 0.296407 0.601615
0.556046 0.307749 0.663476
0.626104 0.319093 0.725193
0.701235 0.329059 0.770319
0.790151 0.334773 0.774375
0.863234 0.340133 0.778389
0.308204 0.373165 0.445857
0.370079 0.383783 0.500626
0.435891 0.394727 0.558842
0.504271 0.405879 0.619306
0.573863 0.417123 0.680828
0.642972 0.427444 0.741107
0.717314 0.435603 0.783902
0.803528 0.439683 0.787915
0.874330 0.443788 0.791904
0.325935 0.484357 0.463142
0.388144 0.494826 0.518190
0.452730 0.504376 0.575331
0.520033 0.514055 0.634854
0.588893 0.523887 0.695744
0.657969 0.533758 0.755135
0.732248 0.542262 0.797305
0.816464 0.546645 0.801235
0.885129 0.551048 0.805140
0.339240 0.592185 0.476539
0.400668 0.601532 0.530912
0.466103 0.611238 0.588800
0.534215 0.621188 0.649035
0.603665 0.631267 0.710437
0.673100 0.641359 0.768968
0.746981 0.650078 0.810423
0.829131 0.654641 0.814266
0.895619 0.659217 0.818081
0.350677 0.697637 0.488314
0.413294 0.707171 0.543731
0.479716 0.717034 0.602485
0.548603 0.727010 0.663401
0.618604 0.736948 0.725072
0.688355 0.746729 0.782588
0.761490 0.755066 0.823242
0.841514 0.759395 0.826993
0.905795 0.763702 0.830716
0.362410 0.794491 0.500352
0.426186 0.802887 0.556787
0.493561 0.811423 0.616378
0.563186 0.819989 0.677941
0.633697 0.828479 0.739535
0.703721 0.836795 0.795979
0.775759 0.843847 0.835749
0.853601 0.847460 0.839405
0.915648 0.851045 0.843032
0.374431 0.872494 0.512646
0.439334 0.879565 0.570070
0.507629 0.886718 0.630468
0.577953 0.893861 0.692645
0.648934 0.900904 0.753805
0.719186 0.907762 0.809123
0.789770 0.913531 0.847932
0.865354 0.916296 0.851397
0.924938 0.918938 0.854745
0.283026 0.076000 0.428564
0.343517 0.076000 0.482105
0.408714 0.077908 0.539769
0.477220 0.088871 0.600329
0.547644 0.100008 0.662567
0.618609 0.111200 0.725056
0.688750 0.122328 0.782848
0.762124 0.131936 0.822579
0.841395 0.137431 0.826038
0.300536 0.155062 0.445608
0.361507 0.165597 0.499557
0.426916 0.176515 0.557394
0.495374 0.187695 0.617899
0.565503 0.199019 0.679866
0.635936 0.210371 0.741264
0.705319 0.221633 0.797025
0.777189 0.231224 0.834008
0.853158 0.236894 0.837293
0.317973 0.260383 0.462546
0.379372 0.271044 0.516857
0.444943 0.282058 0.574821
0.513307 0.293305 0.635232
0.583098 0.304670 0.696889
0.652960 0.316034 0.756792
0.721547 0.327283 0.810551
0.791572 0.336711 0.844855
0.864368 0.341394 0.848147
0.335327 0.370059 0.479365
0.397101 0.380703 0.533992
0.462785 0.391672 0.592042
0.531010 0.402846 0.652317
0.600422 0.414111 0.713601
0.669204 0.423869 0.771322
0.736763 0.433359 0.823188
0.804845 0.441075 0.856205
0.875434 0.445188 0.859567
0.352584 0.481283 0.496055
0.414298 0.491440 0.550627
0.478779 0.500874 0.607663
0.546126 0.510575 0.667209
0.615005 0.520427 0.727805
0.684076 0.530317 0.784536
0.751280 0.540127 0.835287
0.817756 0.548138 0.867402
0.886202 0.552547 0.870669
0.365037 0.588736 0.508629
0.426543 0.598107 0.563056
0.492036 0.607836 0.620977
0.560182 0.617806 0.681225
0.629642 0.627905 0.741767
0.699061 0.638014 0.797534
0.765552 0.648018 0.847124
0.830394 0.656193 0.878276
0.896661 0.660774 0.881445
0.376355 0.694250 0.520244
0.439042 0.703808 0.575704
0.505511 0.713698 0.634481
0.574423 0.723740 0.695399
0.644423 0.733741 0.755551
0.714148 0.743585 0.810299
0.779562 0.753160 0.858687
0.842748 0.760860 0.888818
0.906805 0.765159 0.891886
0.387948 0.791512 0.532095
0.451784 0.799971 0.588563
0.519197 0.808569 0.648166
0.588836 0.817197 0.709716
0.659337 0.825747 0.769140
0.729263 0.834120 0.822817
0.793296 0.842222 0.869962
0.854804 0.848681 0.899020
0.916625 0.852256 0.901986
0.399806 0.869937 0.544176
0.464761 0.877066 0.601622
0.533084 0.884278 0.662021
0.603412 0.891479 0.723983
0.674372 0.898577 0.782516
0.744159 0.905490 0.835072
0.806739 0.912139 0.880940
0.866507 0.917197 0.908652
0.925826 0.919826 0.911255
