design/lut/jc-grade-air.cube
TITLE "JC Alvarez — air"
LUT_3D_SIZE 9
DOMAIN_MIN 0 0 0
DOMAIN_MAX 1 1 1
0.118339 0.109216 0.106980
0.204624 0.114592 0.112200
0.255251 0.116092 0.136597
0.293970 0.116149 0.168118
0.333302 0.116101 0.200119
0.372769 0.116024 0.232224
0.411897 0.115992 0.264062
0.450217 0.116080 0.295263
0.487265 0.116362 0.325464
0.136574 0.208469 0.124514
0.222907 0.213839 0.129713
0.273026 0.215299 0.154247
0.311581 0.215366 0.185634
0.350671 0.215336 0.217440
0.389823 0.215284 0.249293
0.428566 0.215285 0.280823
0.466437 0.215412 0.311666
0.502975 0.215738 0.341460
0.154734 0.311594 0.141975
0.241076 0.316875 0.147150
0.290695 0.318215 0.171797
0.329072 0.318208 0.203039
0.367907 0.318114 0.234639
0.406731 0.318007 0.266229
0.445079 0.317958 0.297443
0.482491 0.318043 0.327920
0.518511 0.318331 0.357301
0.172813 0.416795 0.159354
0.259123 0.421908 0.164503
0.308251 0.423052 0.189240
0.346436 0.422897 0.220325
0.385003 0.422663 0.251709
0.423488 0.422423 0.283027
0.461431 0.422250 0.313916
0.498076 0.421897 0.343689
0.531894 0.420063 0.370735
0.190804 0.522329 0.176645
0.277042 0.527200 0.181767
0.325687 0.528081 0.206569
0.363666 0.527707 0.237486
0.400717 0.526488 0.267358
0.436773 0.524557 0.296166
0.472586 0.522688 0.324789
0.507692 0.520957 0.352861
0.541618 0.519438 0.380013
0.208698 0.626511 0.193841
0.292324 0.630228 0.196407
0.337964 0.629816 0.218699
0.373586 0.628181 0.247174
0.409820 0.626472 0.276135
0.446204 0.624761 0.305220
0.482272 0.623122 0.334062
0.517554 0.621630 0.362293
0.551575 0.620359 0.389538
0.216137 0.726165 0.201819
0.300751 0.729931 0.204154
0.346507 0.729614 0.227062
0.382583 0.728132 0.255913
0.419204 0.726580 0.285198
0.455905 0.725030 0.314551
0.492215 0.723556 0.343603
0.527660 0.722234 0.371981
0.561760 0.721142 0.399308
0.223522 0.814885 0.209784
0.309474 0.818063 0.212212
0.355348 0.817817 0.235726
0.391869 0.816655 0.264945
0.428867 0.815441 0.294546
0.465873 0.814234 0.324158
0.502412 0.813095 0.353409
0.538005 0.812089 0.381923
0.572169 0.811277 0.409319
0.231220 0.883952 0.218060
0.318491 0.886468 0.220579
0.364486 0.886235 0.244687
0.401441 0.885311 0.274267
0.438806 0.884350 0.304175
0.476105 0.883398 0.334037
0.512860 0.882505 0.363476
0.548587 0.881720 0.392115
0.582799 0.881095 0.419567
0.120183 0.111043 0.189213
0.206475 0.116416 0.194457
0.296920 0.121783 0.199692
0.345917 0.122839 0.226262
0.385236 0.122793 0.258256
0.424679 0.122719 0.290345
0.463775 0.122691 0.322159
0.502055 0.122784 0.353330
0.539054 0.123071 0.383492
0.138411 0.210294 0.206817
0.224747 0.215661 0.212029
0.315010 0.221018 0.217230
0.363543 0.222054 0.243798
0.402612 0.222024 0.275587
0.441732 0.221974 0.307415
0.480435 0.221977 0.338913
0.518257 0.222106 0.369716
0.554739 0.222436 0.399464
0.156563 0.313389 0.224309
0.242903 0.318666 0.229485
0.332946 0.323928 0.234651
0.381025 0.324864 0.261194
0.419830 0.324768 0.292769
0.458615 0.324660 0.324326
0.496915 0.324612 0.355499
0.534270 0.324697 0.385927
0.570226 0.324988 0.415254
0.174634 0.418533 0.241680
0.260938 0.423640 0.246820
0.350724 0.428730 0.251949
0.398355 0.429491 0.278445
0.436885 0.429254 0.309796
0.475323 0.429012 0.341071
0.513209 0.428837 0.371912
0.549282 0.427819 0.401066
0.583345 0.426015 0.428387
0.192615 0.523986 0.258926
0.278844 0.528850 0.264028
0.368338 0.533694 0.269117
0.415529 0.534213 0.295546
0.451955 0.532514 0.324791
0.488278 0.530608 0.353889
0.524350 0.528767 0.382796
0.559706 0.527064 0.411145
0.593874 0.525574 0.438567
0.209765 0.627843 0.275483
0.293161 0.631457 0.278111
0.380496 0.635089 0.280765
0.425364 0.634347 0.305221
0.461869 0.632662 0.334476
0.498516 0.630976 0.363847
0.534838 0.629363 0.392969
0.570366 0.627898 0.421472
0.604623 0.626655 0.448982
0.216868 0.727445 0.284428
0.301618 0.731207 0.287143
0.390155 0.734957 0.289885
0.435165 0.734335 0.314861
0.472053 0.732823 0.344435
0.509013 0.731314 0.374070
0.545573 0.729881 0.403397
0.581259 0.728600 0.432043
0.615590 0.727546 0.459629
0.224285 0.815967 0.293667
0.310371 0.819138 0.296470
0.400090 0.822291 0.299299
0.445244 0.821808 0.324781
0.482505 0.820628 0.354666
0.519765 0.819456 0.384556
0.556550 0.818353 0.414078
0.592379 0.817381 0.442854
0.626769 0.816602 0.470504
0.232014 0.884809 0.303199
0.319417 0.887318 0.306089
0.410297 0.889802 0.309004
0.455599 0.889394 0.334979
0.493221 0.888463 0.365166
0.530770 0.887542 0.395301
0.567766 0.886679 0.425006
0.603724 0.885924 0.453902
0.638157 0.885326 0.481604
0.140951 0.109070 0.236732
0.208325 0.118239 0.280864
0.298753 0.123604 0.286058
0.392032 0.128962 0.291238
0.439636 0.129724 0.319165
0.479018 0.129650 0.351195
0.518043 0.129622 0.382942
0.556244 0.129716 0.414038
0.593155 0.130005 0.444119
0.158968 0.208360 0.254611
0.226585 0.217481 0.298283
0.316827 0.222835 0.303433
0.409705 0.228178 0.308568
0.456889 0.228938 0.336360
0.495940 0.228886 0.368121
0.534565 0.228887 0.399544
0.572300 0.229016 0.430265
0.608687 0.229345 0.459923
0.176888 0.311470 0.272387
0.244730 0.320454 0.315552
0.334748 0.325712 0.320655
0.427191 0.330956 0.325744
0.473962 0.331636 0.353382
0.512670 0.331523 0.384863
0.550884 0.331472 0.415953
0.588146 0.331554 0.446291
0.624000 0.331843 0.475521
0.194703 0.416607 0.290053
0.262751 0.425371 0.332663
0.352510 0.430454 0.337718
0.444484 0.435521 0.342759
0.490849 0.436045 0.370223
0.529203 0.435797 0.401416
0.566997 0.435618 0.432165
0.602643 0.433952 0.460866
0.636926 0.432176 0.488431
0.212407 0.522031 0.307603
0.280644 0.530497 0.349612
0.370107 0.535335 0.354618
0.461179 0.539867 0.359197
0.505339 0.538750 0.384635
0.541903 0.536868 0.413995
0.578208 0.535051 0.443156
0.613787 0.533373 0.471752
0.648169 0.531910 0.499413
0.228363 0.625477 0.323462
0.294001 0.632688 0.363244
0.381458 0.636326 0.366240
0.471648 0.639982 0.369260
0.515975 0.639054 0.395128
0.552858 0.637390 0.424756
0.589408 0.635800 0.454127
0.625154 0.634359 0.482872
0.659620 0.633142 0.510615
0.236400 0.724983 0.331700
0.302488 0.732482 0.373419
0.391146 0.736228 0.376496
0.482372 0.739961 0.379598
0.526868 0.739179 0.405882
0.564059 0.737708 0.435768
0.600842 0.736314 0.465339
0.636741 0.735071 0.494221
0.671276 0.734054 0.522036
0.244739 0.813841 0.340236
0.311271 0.820211 0.383868
0.401108 0.823357 0.387026
0.493348 0.826483 0.390209
0.538017 0.825883 0.416893
0.575503 0.824744 0.447028
0.612505 0.823674 0.476788
0.648543 0.822734 0.505796
0.683131 0.821985 0.533669
0.253378 0.883036 0.349068
0.320347 0.888164 0.394589
0.411342 0.890640 0.397828
0.504571 0.893092 0.401090
0.549416 0.892604 0.428157
0.587186 0.891712 0.458533
0.624394 0.890878 0.488471
0.660555 0.890150 0.517592
0.695180 0.889576 0.545511
0.169219 0.106000 0.271881
0.231171 0.115847 0.327079
0.300584 0.125424 0.375363
0.393824 0.130780 0.380439
0.488626 0.136130 0.385498
0.535076 0.136746 0.413977
0.573993 0.136716 0.445615
0.612077 0.136807 0.476596
0.648865 0.137094 0.506554
0.187128 0.204900 0.289625
0.249089 0.215153 0.344825
0.318643 0.224650 0.392374
0.411479 0.229990 0.397395
0.505673 0.235318 0.402400
0.551743 0.235951 0.430620
0.590254 0.235948 0.461927
0.627866 0.236072 0.492525
0.664123 0.236397 0.522054
0.204928 0.308001 0.307253
0.266870 0.318164 0.362430
0.336549 0.327495 0.409200
0.428945 0.332733 0.414165
0.522500 0.337958 0.419113
0.568199 0.338528 0.447057
0.606292 0.338470 0.478024
0.643424 0.338546 0.508232
0.679141 0.338829 0.537325
0.222613 0.413104 0.324758
0.284508 0.423096 0.379886
0.354294 0.432177 0.425835
0.446219 0.437238 0.430743
0.539105 0.442281 0.435633
0.584438 0.442713 0.463283
0.621880 0.442187 0.493666
0.657479 0.440231 0.522323
0.691953 0.438480 0.550101
0.240177 0.518472 0.342134
0.301996 0.528218 0.397189
0.371874 0.536973 0.442275
0.462224 0.541025 0.446256
0.553144 0.544447 0.449517
0.596964 0.543269 0.475714
0.633473 0.541474 0.505098
0.669248 0.539819 0.533909
0.703815 0.538379 0.561777
0.255131 0.621473 0.357021
0.314686 0.629939 0.409896
0.382424 0.637566 0.454002
0.472719 0.641228 0.457317
0.564525 0.644908 0.460654
0.608541 0.643936 0.487171
0.645290 0.642366 0.516759
0.681225 0.640947 0.545713
0.715871 0.639753 0.573658
0.263490 0.720995 0.365658
0.324013 0.729683 0.419394
0.392139 0.737497 0.465242
0.483469 0.741226 0.468631
0.576135 0.744942 0.472043
0.620349 0.744141 0.498863
0.657325 0.742783 0.528645
0.693408 0.741575 0.557730
0.728117 0.740592 0.585740
0.272145 0.810558 0.374583
0.333623 0.817830 0.429170
0.402129 0.824421 0.476732
0.494470 0.827540 0.480195
0.587969 0.830639 0.483681
0.632385 0.830039 0.510786
0.669575 0.828999 0.540751
0.705790 0.828088 0.569955
0.740426 0.827367 0.598018
0.281092 0.880427 0.383796
0.343512 0.886210 0.439222
0.412390 0.891476 0.488469
0.505718 0.893919 0.492006
0.600022 0.896337 0.495563
0.644645 0.895861 0.522936
0.682034 0.895053 0.553074
0.718367 0.894350 0.582385
0.752674 0.893769 0.610551
0.198062 0.106000 0.307755
0.259971 0.112260 0.362898
0.324733 0.122764 0.420554
0.395615 0.132598 0.471378
0.490357 0.137945 0.476274
0.585387 0.143285 0.481150
0.630920 0.143904 0.509386
0.668853 0.143989 0.540212
0.705482 0.144270 0.570009
0.215804 0.201334 0.325292
0.277717 0.211593 0.380430
0.342325 0.222076 0.437942
0.413251 0.231801 0.487772
0.507381 0.237125 0.492604
0.601609 0.242440 0.497416
0.646803 0.243091 0.525277
0.684258 0.243207 0.555714
0.720350 0.243526 0.585074
0.233428 0.304438 0.342699
0.295316 0.314607 0.397808
0.359743 0.324981 0.455154
0.430698 0.334509 0.503949
0.524187 0.339729 0.508715
0.617584 0.344934 0.513462
0.662445 0.345538 0.540933
0.699414 0.345606 0.570973
0.734929 0.345880 0.599891
0.250928 0.409518 0.359972
0.312762 0.419515 0.415027
0.376982 0.429702 0.472182
0.447951 0.438952 0.519905
0.540769 0.443989 0.524605
0.633309 0.449008 0.529284
0.677337 0.448524 0.555824
0.713106 0.446590 0.584669
0.747423 0.444861 0.612626
0.268297 0.514841 0.377105
0.330050 0.524591 0.432081
0.394038 0.534515 0.489024
0.463272 0.542185 0.534615
0.554282 0.545614 0.538128
0.645751 0.549063 0.541661
0.689460 0.547969 0.567850
0.725399 0.546334 0.596842
0.759238 0.544915 0.624883
0.282288 0.617395 0.391070
0.342014 0.625860 0.444125
0.404473 0.634576 0.499590
0.473793 0.642475 0.546513
0.565687 0.646161 0.550094
0.657857 0.649865 0.553695
0.701790 0.648995 0.580086
0.737814 0.647594 0.609215
0.770934 0.646419 0.637326
0.290921 0.716935 0.400043
0.351611 0.725661 0.453956
0.414927 0.734508 0.510185
0.484568 0.742489 0.558639
0.577320 0.746201 0.562287
0.670160 0.749898 0.565954
0.714323 0.749219 0.592529
0.750136 0.748043 0.621782
0.782494 0.747089 0.649951
0.299841 0.807199 0.409296
0.361483 0.814536 0.464055
0.425642 0.821906 0.521034
0.495594 0.828595 0.570989
0.589176 0.831687 0.574702
0.682656 0.834758 0.578435
0.727053 0.834271 0.605173
0.762333 0.833387 0.634539
0.793902 0.832690 0.662753
0.309046 0.877756 0.418825
0.371627 0.883606 0.474419
0.436613 0.889437 0.532135
0.506867 0.894743 0.583558
0.601251 0.897152 0.587336
0.695341 0.899537 0.591132
0.739868 0.899161 0.618014
0.774388 0.898481 0.647480
0.805205 0.897861 0.675831
0.227135 0.106000 0.343920
0.288984 0.108628 0.398986
0.353670 0.119143 0.456550
0.420299 0.129819 0.515824
0.492085 0.139759 0.567597
0.587035 0.145097 0.572254
0.681013 0.150427 0.576889
0.725870 0.151193 0.604099
0.761295 0.151466 0.633698
0.244656 0.197731 0.361179
0.306503 0.208001 0.416235
0.371029 0.218492 0.473650
0.437348 0.229129 0.532643
0.509088 0.238931 0.583176
0.603233 0.244242 0.587760
0.696226 0.249541 0.592323
0.740657 0.250355 0.619050
0.774596 0.250663 0.648206
0.262049 0.300849 0.378298
0.323866 0.311026 0.433319
0.388206 0.321408 0.490562
0.454192 0.331920 0.549252
0.525871 0.341498 0.598511
0.619183 0.346699 0.603021
0.711167 0.351884 0.607509
0.754791 0.352666 0.633740
0.787274 0.352929 0.662447
0.279310 0.405917 0.395272
0.341069 0.415922 0.450233
0.405197 0.426115 0.507281
0.470825 0.436421 0.565648
0.542430 0.445696 0.613596
0.634882 0.450709 0.618032
0.725269 0.454134 0.621827
0.767389 0.452961 0.647134
0.798499 0.451251 0.675235
0.296431 0.511204 0.412095
0.358104 0.520961 0.466972
0.421573 0.530558 0.523411
0.485304 0.539136 0.580016
0.555423 0.546783 0.626888
0.646964 0.550240 0.630620
0.737658 0.553717 0.634369
0.779021 0.552851 0.659773
0.809384 0.551450 0.687950
0.309502 0.613307 0.425190
0.369384 0.621775 0.478406
0.431987 0.630493 0.534021
0.496474 0.639389 0.591299
0.566851 0.647417 0.639512
0.659090 0.651127 0.643303
0.749939 0.654854 0.647112
0.790509 0.654232 0.672592
0.820099 0.653074 0.700833
0.318357 0.712875 0.434435
0.379200 0.721614 0.488504
0.442656 0.730528 0.544878
0.507881 0.739454 0.602814
0.578507 0.747458 0.652334
0.671413 0.751150 0.656183
0.762081 0.754828 0.660049
0.801836 0.754408 0.685586
0.830626 0.753481 0.713877
0.327490 0.803820 0.443948
0.389281 0.811223 0.498859
0.453576 0.818662 0.555979
0.519523 0.826066 0.614558
0.590385 0.832732 0.665350
0.683928 0.835797 0.669255
0.774067 0.838840 0.673177
0.812986 0.838576 0.698747
0.840950 0.837901 0.726948
0.336900 0.875070 0.453726
0.399625 0.880986 0.509468
0.464744 0.886886 0.567321
0.531394 0.892714 0.626526
0.602482 0.897965 0.678553
0.696632 0.900341 0.682514
0.785880 0.902691 0.686490
0.823942 0.902499 0.712072
0.851062 0.901835 0.739877
0.256095 0.106000 0.379942
0.317868 0.106000 0.434911
0.382461 0.115549 0.492363
0.448982 0.126237 0.551511
0.516546 0.137010 0.611577
0.588681 0.146908 0.662725
0.682561 0.152236 0.667087
0.772353 0.157556 0.671425
0.811268 0.158615 0.696838
0.273341 0.194161 0.396857
0.335108 0.204443 0.451811
0.399536 0.214946 0.509109
0.465743 0.225593 0.567971
0.532850 0.236309 0.627625
0.604854 0.246043 0.677304
0.697746 0.251338 0.681586
0.785037 0.256622 0.685844
0.822590 0.257741 0.710673
0.290453 0.297301 0.413623
0.352184 0.307490 0.468537
0.416422 0.317883 0.525658
0.482290 0.328404 0.584213
0.548920 0.338978 0.643436
0.620779 0.348461 0.691614
0.712660 0.353642 0.695815
0.797105 0.358807 0.699992
0.833337 0.359909 0.724151
0.307424 0.402367 0.430235
0.369092 0.412383 0.485083
0.433114 0.422585 0.542004
0.498620 0.432900 0.600231
0.564751 0.443253 0.659006
0.636236 0.452044 0.705591
0.726519 0.455212 0.709431
0.808190 0.458403 0.713287
0.843358 0.457584 0.736708
0.324249 0.507629 0.446686
0.385826 0.517396 0.501445
0.448611 0.526479 0.557248
0.512462 0.535061 0.613976
0.577460 0.543761 0.671717
0.648179 0.551418 0.718560
0.738904 0.554902 0.722414
0.818816 0.558406 0.726254
0.853160 0.557916 0.749070
0.336441 0.609278 0.458963
0.396463 0.617751 0.512318
0.459194 0.626473 0.568063
0.523797 0.635374 0.625459
0.589424 0.644379 0.683761
0.660325 0.652391 0.731470
0.751172 0.656124 0.735277
0.829248 0.659874 0.739069
0.862746 0.659648 0.761249
0.345463 0.708885 0.468410
0.406442 0.717628 0.522614
0.470022 0.726592 0.579114
0.535359 0.735588 0.637163
0.601598 0.744518 0.696009
0.672668 0.752401 0.744216
0.763299 0.756074 0.747971
0.839470 0.759732 0.751709
0.872102 0.759704 0.773228
0.354754 0.800477 0.478113
0.416677 0.807949 0.533155
0.481092 0.815457 0.590396
0.547145 0.822931 0.649082
0.613976 0.830304 0.708455
0.685202 0.836832 0.756781
0.775268 0.839868 0.760478
0.849468 0.842882 0.764157
0.881214 0.842949 0.784993
0.364312 0.872413 0.488070
0.427165 0.878398 0.543937
0.492398 0.884367 0.601905
0.559151 0.890264 0.661214
0.626553 0.896035 0.721064
0.697924 0.901142 0.769147
0.787063 0.903483 0.772782
0.859221 0.905760 0.776391
0.889971 0.905652 0.796419
0.284597 0.106000 0.415388
0.346280 0.106000 0.470241
0.410766 0.112052 0.527562
0.477163 0.122754 0.586566
0.544589 0.133540 0.646474
0.612167 0.144334 0.706513
0.684106 0.154043 0.753986
0.773662 0.159361 0.757688
0.847065 0.164671 0.761336
0.301521 0.190691 0.431898
0.363192 0.200989 0.486731
0.427508 0.211506 0.543893
0.493587 0.222166 0.602607
0.560552 0.232894 0.662098
0.627537 0.243614 0.721568
0.699264 0.253134 0.766229
0.786283 0.258414 0.769754
0.856459 0.263682 0.773227
0.318303 0.293863 0.448250
0.379933 0.304067 0.503038
0.444055 0.314473 0.560018
0.509791 0.325006 0.618420
0.576275 0.335591 0.677477
0.642647 0.346153 0.736019
0.714150 0.355398 0.777884
0.798290 0.360558 0.781238
0.865356 0.365311 0.784560
0.334936 0.398936 0.464438
0.396500 0.408965 0.519157
0.460400 0.419180 0.575933
0.525771 0.429506 0.634002
0.591751 0.439869 0.692606
0.657100 0.449170 0.749499
0.727770 0.456293 0.789159
0.809271 0.459491 0.792510
0.874254 0.462712 0.795842
0.351417 0.504181 0.480459
0.412885 0.513960 0.535084
0.475063 0.522520 0.590345
0.539018 0.531110 0.647175
0.604105 0.539817 0.705005
0.669479 0.548568 0.760974
0.740148 0.556090 0.800356
0.819879 0.559601 0.803642
0.882916 0.563132 0.806909
0.362770 0.605373 0.491966
0.422915 0.613855 0.545440
0.485757 0.622586 0.601293
0.550459 0.631494 0.658786
0.616172 0.640505 0.717169
0.682042 0.649546 0.772320
0.752403 0.657396 0.811332
0.830289 0.661152 0.814550
0.891330 0.664925 0.817747
0.371902 0.705030 0.501543
0.432999 0.713782 0.555861
0.496687 0.722770 0.612463
0.562117 0.731837 0.670604
0.628436 0.740838 0.729341
0.694781 0.749696 0.783519
0.764514 0.757318 0.822073
0.840489 0.760971 0.825218
0.899486 0.764608 0.828341
0.381293 0.797230 0.511364
0.443330 0.804772 0.566514
0.507846 0.812350 0.623852
0.573989 0.819893 0.682625
0.640895 0.827337 0.741407
0.707692 0.834618 0.794556
0.776467 0.840894 0.832563
0.850464 0.843901 0.835632
0.907374 0.846885 0.838676
0.390940 0.869834 0.521425
0.453902 0.875887 0.577395
0.519233 0.881925 0.635455
0.586070 0.887891 0.694843
0.653542 0.893731 0.753348
0.720769 0.899398 0.805412
0.788243 0.904272 0.842791
0.860178 0.906477 0.845684
0.914755 0.908568 0.848465
0.312301 0.106000 0.449827
0.373879 0.106000 0.504546
0.438243 0.108720 0.561720
0.504504 0.119439 0.620562
0.571777 0.130241 0.680294
0.639189 0.141050 0.739573
0.705875 0.151791 0.792811
0.774964 0.161166 0.829127
0.848037 0.166473 0.831869
0.328855 0.187389 0.465873
0.390417 0.197706 0.520568
0.454607 0.208240 0.577578
0.520545 0.218916 0.636125
0.587354 0.229658 0.695437
0.654170 0.240392 0.753310
0.720133 0.251044 0.804418
0.787522 0.260204 0.838176
0.857378 0.265468 0.840770
0.345261 0.290602 0.481753
0.406778 0.300823 0.536399
0.470770 0.311245 0.593223
0.536361 0.321793 0.651454
0.602685 0.332391 0.710328
0.668884 0.342966 0.766409
0.734085 0.353445 0.815439
0.799469 0.362307 0.846734
0.866265 0.366284 0.849379
0.361514 0.395690 0.497464
0.422959 0.405735 0.552035
0.486725 0.415965 0.608650
0.551946 0.426305 0.666545
0.617764 0.436681 0.724875
0.682800 0.445329 0.778529
0.746970 0.453714 0.825628
0.810350 0.460583 0.855964
0.875139 0.463811 0.858712
0.377607 0.500926 0.512998
0.438515 0.510336 0.567100
0.500595 0.518749 0.622281
0.564635 0.527350 0.679190
0.629795 0.536068 0.736648
0.695228 0.544829 0.789312
0.759195 0.553558 0.835337
0.820939 0.560798 0.865112
0.883776 0.564336 0.867780
0.388156 0.601661 0.523779
0.448405 0.610155 0.577348
0.511341 0.618898 0.633286
0.576122 0.627816 0.690853
0.641903 0.636837 0.748230
0.707826 0.645888 0.799941
0.771254 0.654893 0.844844
0.831329 0.662431 0.873987
0.892165 0.666211 0.876571
0.397337 0.701379 0.533410
0.458535 0.710143 0.587818
0.522310 0.719143 0.644500
0.587816 0.728272 0.702709
0.654197 0.737343 0.759696
0.720589 0.746270 0.810400
0.783131 0.754984 0.854134
0.841507 0.762208 0.882577
0.900295 0.765840 0.885073
0.406766 0.794142 0.543270
0.468898 0.801753 0.598505
0.533498 0.809400 0.655918
0.599711 0.817012 0.714752
0.666674 0.824524 0.771030
0.733495 0.831874 0.820673
0.794810 0.839003 0.863193
0.851458 0.844917 0.890870
0.908155 0.847893 0.893277
0.416439 0.867384 0.553356
0.479492 0.873505 0.609406
0.544902 0.879610 0.667534
0.611804 0.885643 0.726853
0.679327 0.891550 0.782216
0.746310 0.897283 0.830745
0.806276 0.902798 0.872008
0.861131 0.907191 0.898639
0.915455 0.909270 0.900702
