design/lut/jc-grade-band.cube
TITLE "JC Alvarez — band"
LUT_3D_SIZE 33
DOMAIN_MIN 0 0 0
DOMAIN_MAX 1 1 1
0.088430 0.139183 0.166949
0.107075 0.140426 0.168119
0.126364 0.141670 0.169290
0.146261 0.142916 0.170463
0.166729 0.144162 0.171636
0.187732 0.145410 0.172811
0.204008 0.146186 0.176249
0.213169 0.146278 0.182967
0.222493 0.146346 0.189800
0.231965 0.146394 0.196738
0.241572 0.146424 0.203772
0.251299 0.146437 0.210891
0.261133 0.146435 0.218085
0.271061 0.146421 0.225346
0.281068 0.146397 0.232663
0.291140 0.146365 0.240027
0.301265 0.146326 0.247428
0.311428 0.146282 0.254856
0.321616 0.146237 0.262302
0.331815 0.146191 0.269756
0.342012 0.146146 0.277208
0.352192 0.146106 0.284649
0.362343 0.146071 0.292070
0.372450 0.146043 0.299460
0.382501 0.146025 0.306811
0.392482 0.146019 0.314112
0.402379 0.146027 0.321354
0.412179 0.146050 0.328528
0.421869 0.146090 0.335624
0.431435 0.146150 0.342633
0.440863 0.146231 0.349545
0.450142 0.146336 0.356351
0.459256 0.146467 0.363042
0.092948 0.159626 0.170890
0.111692 0.160900 0.172064
0.131074 0.162175 0.173239
0.151056 0.163451 0.174415
0.171601 0.164728 0.175593
0.192674 0.166006 0.176772
0.208657 0.166780 0.180367
0.217841 0.166898 0.187102
0.227185 0.166994 0.193950
0.236675 0.167069 0.200902
0.246296 0.167127 0.207946
0.256035 0.167168 0.215074
0.265879 0.167195 0.222276
0.275812 0.167209 0.229542
0.285823 0.167214 0.236863
0.295896 0.167210 0.244228
0.306019 0.167201 0.251628
0.316178 0.167187 0.259054
0.326359 0.167171 0.266495
0.336548 0.167155 0.273943
0.346732 0.167141 0.281387
0.356897 0.167131 0.288819
0.367030 0.167126 0.296228
0.377118 0.167130 0.303604
0.387146 0.167143 0.310939
0.397102 0.167168 0.318224
0.406971 0.167207 0.325447
0.416741 0.167262 0.332601
0.426398 0.167334 0.339674
0.435929 0.167426 0.346659
0.445321 0.167540 0.353546
0.454559 0.167677 0.360325
0.463632 0.167840 0.366986
0.097480 0.180800 0.174844
0.116323 0.182102 0.176022
0.135796 0.183404 0.177201
0.155861 0.184708 0.178381
0.176482 0.186012 0.179562
0.197622 0.187318 0.180745
0.213316 0.188087 0.184495
0.222524 0.188229 0.191247
0.231887 0.188350 0.198110
0.241394 0.188450 0.205074
0.251029 0.188533 0.212129
0.260779 0.188599 0.219266
0.270631 0.188651 0.226475
0.280571 0.188692 0.233746
0.290584 0.188723 0.241069
0.300658 0.188745 0.248435
0.310778 0.188762 0.255834
0.320932 0.188775 0.263257
0.331104 0.188786 0.270694
0.341283 0.188797 0.278135
0.351454 0.188811 0.285571
0.361604 0.188828 0.292992
0.371719 0.188852 0.300389
0.381786 0.188883 0.307751
0.391791 0.188925 0.315071
0.401721 0.188978 0.322338
0.411563 0.189046 0.329542
0.421302 0.189129 0.336675
0.430926 0.189231 0.343726
0.440422 0.189352 0.350687
0.449776 0.189495 0.357547
0.458974 0.189662 0.364298
0.468004 0.189855 0.370931
0.102027 0.202653 0.178811
0.120967 0.203980 0.179993
0.140530 0.205307 0.181176
0.160676 0.206635 0.182360
0.181371 0.207964 0.183545
0.202577 0.209294 0.184731
0.217987 0.210057 0.188633
0.227216 0.210221 0.195402
0.236598 0.210363 0.202279
0.246121 0.210485 0.209255
0.255770 0.210590 0.216321
0.265531 0.210679 0.223466
0.275390 0.210754 0.230681
0.285335 0.210817 0.237956
0.295351 0.210871 0.245282
0.305424 0.210918 0.252648
0.315541 0.210958 0.260046
0.325689 0.210995 0.267465
0.335854 0.211030 0.274897
0.346022 0.211066 0.282331
0.356179 0.211104 0.289758
0.366313 0.211146 0.297168
0.376409 0.211195 0.304553
0.386455 0.211252 0.311901
0.396436 0.211319 0.319205
0.406340 0.211398 0.326454
0.416153 0.211492 0.333638
0.425861 0.211601 0.340750
0.435452 0.211729 0.347778
0.444912 0.211877 0.354714
0.454228 0.212047 0.361548
0.463385 0.212241 0.368272
0.472373 0.212461 0.374874
0.106588 0.225133 0.182791
0.125624 0.226482 0.183977
0.145274 0.227831 0.185163
0.165501 0.229181 0.186351
0.186268 0.230532 0.187540
0.207538 0.231883 0.188730
0.222667 0.232637 0.192782
0.231918 0.232820 0.199566
0.241319 0.232981 0.206457
0.250857 0.233122 0.213445
0.260518 0.233246 0.220520
0.270289 0.233355 0.227673
0.280156 0.233450 0.234894
0.290105 0.233534 0.242173
0.300123 0.233609 0.249500
0.310195 0.233676 0.256867
0.320309 0.233737 0.264263
0.330450 0.233795 0.271679
0.340606 0.233852 0.279105
0.350762 0.233910 0.286531
0.360906 0.233970 0.293949
0.371023 0.234034 0.301348
0.381100 0.234105 0.308720
0.391124 0.234184 0.316054
0.401081 0.234274 0.323341
0.410958 0.234377 0.330571
0.420742 0.234494 0.337736
0.430419 0.234627 0.344826
0.439976 0.234778 0.351831
0.449400 0.234950 0.358742
0.458676 0.235144 0.365550
0.467793 0.235362 0.372244
0.476737 0.235607 0.378817
0.111163 0.248188 0.186784
0.130293 0.249556 0.187973
0.150029 0.250925 0.189163
0.170334 0.252294 0.190354
0.191172 0.253664 0.191547
0.212506 0.255034 0.192740
0.227358 0.255776 0.196940
0.236629 0.255974 0.203739
0.246048 0.256152 0.210643
0.255601 0.256310 0.217643
0.265274 0.256451 0.224727
0.275055 0.256577 0.231887
0.284928 0.256689 0.239114
0.294881 0.256791 0.246396
0.304900 0.256883 0.253725
0.314971 0.256968 0.261091
0.325080 0.257048 0.268485
0.335215 0.257125 0.275897
0.345361 0.257201 0.283317
0.355505 0.257277 0.290735
0.365634 0.257356 0.298143
0.375734 0.257440 0.305531
0.385791 0.257531 0.312889
0.395793 0.257630 0.320208
0.405726 0.257740 0.327478
0.415576 0.257863 0.334691
0.425330 0.258000 0.341835
0.434975 0.258154 0.348903
0.444497 0.258327 0.355884
0.453884 0.258520 0.362770
0.463122 0.258735 0.369550
0.472197 0.258975 0.376217
0.481097 0.259241 0.382759
0.115752 0.271766 0.190788
0.134975 0.273151 0.191981
0.154795 0.274536 0.193175
0.175177 0.275922 0.194370
0.196083 0.277308 0.195566
0.217478 0.278694 0.196763
0.232058 0.279422 0.201107
0.241349 0.279634 0.207921
0.250785 0.279825 0.214838
0.260352 0.279997 0.221848
0.270037 0.280153 0.228942
0.279827 0.280293 0.236109
0.289706 0.280420 0.243340
0.299662 0.280536 0.250625
0.309681 0.280644 0.257955
0.319750 0.280744 0.265321
0.329855 0.280840 0.272712
0.339982 0.280933 0.280119
0.350118 0.281024 0.287532
0.360250 0.281117 0.294943
0.370363 0.281213 0.302341
0.380446 0.281314 0.309717
0.390483 0.281421 0.317061
0.400462 0.281538 0.324365
0.410369 0.281666 0.331618
0.420192 0.281806 0.338811
0.429916 0.281961 0.345935
0.439528 0.282133 0.352980
0.449016 0.282324 0.359937
0.458365 0.282536 0.366797
0.467563 0.282770 0.373551
0.476597 0.283029 0.380188
0.485453 0.283314 0.386700
0.120354 0.295817 0.194805
0.139667 0.297216 0.196001
0.159570 0.298615 0.197199
0.180027 0.300014 0.198397
0.201001 0.301413 0.199596
0.222456 0.302813 0.200796
0.236767 0.303525 0.205283
0.246077 0.303748 0.212111
0.255530 0.303950 0.219041
0.265111 0.304133 0.226061
0.274807 0.304300 0.233163
0.284605 0.304452 0.240337
0.294489 0.304591 0.247572
0.304448 0.304720 0.254860
0.314467 0.304840 0.262191
0.324534 0.304953 0.269555
0.334633 0.305062 0.276943
0.344752 0.305168 0.284345
0.354878 0.305273 0.291752
0.364996 0.305380 0.299153
0.375094 0.305489 0.306541
0.385158 0.305604 0.313905
0.395174 0.305726 0.321235
0.405130 0.305858 0.328523
0.415012 0.306000 0.335758
0.424806 0.306156 0.342932
0.434499 0.306326 0.350035
0.444079 0.306514 0.357058
0.453531 0.306720 0.363991
0.462843 0.306948 0.370824
0.472001 0.307198 0.377550
0.480992 0.307473 0.384158
0.489804 0.307775 0.390639
0.124969 0.320289 0.198833
0.144371 0.321699 0.200033
0.164356 0.323109 0.201234
0.184886 0.324520 0.202435
0.205926 0.325930 0.203638
0.227439 0.327340 0.204841
0.241485 0.328034 0.209467
0.250814 0.328265 0.216310
0.260283 0.328475 0.223251
0.269877 0.328667 0.230282
0.279584 0.328843 0.237391
0.289388 0.329004 0.244571
0.299278 0.329153 0.251810
0.309239 0.329291 0.259101
0.319257 0.329421 0.266432
0.329320 0.329544 0.273794
0.339414 0.329664 0.281178
0.349525 0.329780 0.288575
0.359639 0.329896 0.295974
0.369744 0.330014 0.303367
0.379825 0.330135 0.310744
0.389870 0.330262 0.318095
0.399866 0.330396 0.325411
0.409798 0.330539 0.332682
0.419653 0.330694 0.339900
0.429418 0.330862 0.347054
0.439081 0.331045 0.354136
0.448627 0.331246 0.361135
0.458043 0.331465 0.368043
0.467317 0.331706 0.374851
0.476435 0.331970 0.381548
0.485383 0.332258 0.388126
0.494149 0.332574 0.394576
0.129597 0.345133 0.202873
0.149086 0.346551 0.204076
0.169150 0.347970 0.205280
0.189752 0.349388 0.206484
0.210857 0.350806 0.207690
0.232427 0.352224 0.208897
0.246212 0.352898 0.213660
0.255559 0.353135 0.220516
0.265043 0.353351 0.227469
0.274650 0.353549 0.234509
0.284366 0.353731 0.241626
0.294178 0.353899 0.248811
0.304071 0.354054 0.256054
0.314034 0.354200 0.263346
0.324051 0.354337 0.270677
0.334110 0.354468 0.278037
0.344197 0.354595 0.285418
0.354299 0.354720 0.292808
0.364402 0.354844 0.300200
0.374492 0.354970 0.307583
0.384557 0.355100 0.314949
0.394583 0.355236 0.322287
0.404556 0.355379 0.329588
0.414464 0.355532 0.336843
0.424292 0.355697 0.344042
0.434029 0.355874 0.351176
0.443660 0.356068 0.358236
0.453172 0.356279 0.365212
0.462552 0.356509 0.372095
0.471787 0.356761 0.378876
0.480863 0.357035 0.385545
0.489769 0.357335 0.392093
0.498489 0.357662 0.398511
0.134237 0.370297 0.206923
0.153812 0.371721 0.208129
0.173954 0.373145 0.209337
0.194626 0.374569 0.210545
0.215793 0.375993 0.211753
0.237419 0.377416 0.212963
0.250948 0.378068 0.217861
0.260312 0.378307 0.224730
0.269810 0.378527 0.231694
0.279429 0.378728 0.238743
0.289154 0.378914 0.245867
0.298972 0.379086 0.253057
0.308869 0.379246 0.260304
0.318833 0.379396 0.267597
0.328848 0.379538 0.274927
0.338903 0.379674 0.282285
0.348983 0.379806 0.289660
0.359075 0.379936 0.297045
0.369165 0.380067 0.304429
0.379241 0.380199 0.311802
0.389289 0.380335 0.319156
0.399295 0.380477 0.326480
0.409246 0.380627 0.333766
0.419129 0.380787 0.341004
0.428930 0.380959 0.348185
0.438637 0.381144 0.355299
0.448235 0.381345 0.362336
0.457713 0.381564 0.369289
0.467056 0.381802 0.376146
0.476252 0.382062 0.382900
0.485288 0.382345 0.389540
0.494149 0.382654 0.396058
0.502824 0.382990 0.402444
0.138889 0.395731 0.210985
0.158548 0.397159 0.212194
0.178766 0.398586 0.213404
0.199507 0.400013 0.214615
0.220735 0.401439 0.215827
0.242414 0.402866 0.217040
0.255691 0.403493 0.222070
0.265072 0.403733 0.228952
0.274584 0.403953 0.235926
0.284214 0.404155 0.242983
0.293948 0.404342 0.250114
0.303771 0.404515 0.257309
0.313672 0.404677 0.264558
0.323635 0.404829 0.271852
0.333649 0.404974 0.279181
0.343698 0.405112 0.286536
0.353771 0.405247 0.293907
0.363852 0.405381 0.301285
0.373930 0.405514 0.308660
0.383991 0.405650 0.316023
0.394020 0.405790 0.323365
0.404006 0.405936 0.330675
0.413934 0.406091 0.337946
0.423792 0.406255 0.345166
0.433565 0.406431 0.352328
0.443242 0.406622 0.359421
0.452808 0.406828 0.366436
0.462251 0.407052 0.373364
0.471557 0.407296 0.380196
0.480713 0.407561 0.386922
0.489707 0.407850 0.393533
0.498437 0.408067 0.399933
0.506756 0.408046 0.405971
0.143553 0.421386 0.215056
0.163294 0.422815 0.216268
0.183587 0.424243 0.217481
0.204395 0.425670 0.218696
0.225683 0.427097 0.219910
0.247414 0.428523 0.221126
0.260442 0.429124 0.226287
0.269839 0.429361 0.233180
0.279365 0.429580 0.240164
0.289005 0.429781 0.247230
0.298746 0.429966 0.254367
0.308575 0.430139 0.261565
0.318478 0.430300 0.268817
0.328441 0.430451 0.276111
0.338452 0.430596 0.283439
0.348496 0.430734 0.290790
0.358560 0.430870 0.298156
0.368631 0.431004 0.305527
0.378695 0.431138 0.312893
0.388740 0.431275 0.320246
0.398751 0.431416 0.327575
0.408716 0.431564 0.334871
0.418621 0.431720 0.342126
0.428453 0.431886 0.349328
0.438198 0.432065 0.356471
0.447844 0.432258 0.363542
0.457377 0.432467 0.370535
0.466785 0.432693 0.377439
0.475837 0.432724 0.384030
0.484628 0.432652 0.390402
0.493268 0.432604 0.396668
0.501745 0.432583 0.402819
0.510045 0.432589 0.408845
0.148227 0.447213 0.219138
0.168050 0.448639 0.220353
0.188416 0.450065 0.221569
0.209290 0.451490 0.222786
0.230635 0.452915 0.224004
0.252417 0.454339 0.225222
0.265200 0.454911 0.230510
0.274613 0.455144 0.237415
0.284151 0.455358 0.244409
0.293801 0.455555 0.251482
0.303550 0.455737 0.258624
0.313383 0.455906 0.265827
0.323288 0.456064 0.273080
0.333250 0.456213 0.280374
0.343257 0.456354 0.287700
0.353295 0.456491 0.295048
0.363351 0.456624 0.302408
0.373410 0.456756 0.309771
0.383461 0.456889 0.317129
0.393489 0.457025 0.324470
0.403481 0.457165 0.331786
0.413425 0.457312 0.339068
0.423306 0.457467 0.346306
0.433111 0.457633 0.353491
0.442828 0.457811 0.360613
0.452083 0.457685 0.367312
0.461240 0.457576 0.373943
0.470284 0.457484 0.380494
0.479202 0.457414 0.386957
0.487982 0.457365 0.393323
0.496609 0.457341 0.399581
0.505070 0.457344 0.405722
0.513351 0.457374 0.411737
0.152913 0.473162 0.223229
0.172815 0.474584 0.224447
0.193252 0.476005 0.225666
0.214190 0.477425 0.226886
0.235592 0.478845 0.228106
0.257423 0.480264 0.229327
0.269965 0.480805 0.234740
0.279393 0.481032 0.241656
0.288943 0.481239 0.248659
0.298603 0.481430 0.255740
0.308358 0.481606 0.262887
0.318195 0.481769 0.270093
0.328101 0.481921 0.277348
0.338062 0.482065 0.284641
0.348065 0.482201 0.291965
0.358096 0.482333 0.299308
0.368143 0.482462 0.306663
0.378190 0.482590 0.314018
0.388227 0.482718 0.321366
0.398238 0.482850 0.328696
0.408211 0.482987 0.335999
0.417990 0.483022 0.343130
0.427469 0.482878 0.349987
0.436886 0.482745 0.356802
0.446229 0.482624 0.363564
0.455484 0.482518 0.370265
0.464637 0.482428 0.376895
0.473676 0.482358 0.383444
0.482586 0.482308 0.389903
0.491354 0.482281 0.396262
0.499967 0.482278 0.402512
0.508411 0.482302 0.408643
0.516672 0.482355 0.414646
0.157609 0.499183 0.227330
0.177588 0.500598 0.228551
0.198096 0.502013 0.229772
0.219096 0.503426 0.230995
0.240553 0.504838 0.232218
0.262431 0.506250 0.233442
0.274736 0.506759 0.238977
0.284179 0.506976 0.245904
0.293741 0.507174 0.252916
0.303409 0.507356 0.260002
0.313170 0.507524 0.267155
0.323011 0.507679 0.274364
0.332917 0.507823 0.281619
0.342877 0.507959 0.288912
0.352875 0.508088 0.296233
0.362899 0.508212 0.303572
0.372935 0.508334 0.310919
0.382971 0.508455 0.318267
0.392692 0.508378 0.325322
0.402288 0.508229 0.332262
0.411861 0.508086 0.339187
0.421397 0.507949 0.346086
0.430883 0.507822 0.352950
0.440305 0.507706 0.359770
0.449650 0.507602 0.366535
0.458904 0.507514 0.373237
0.468054 0.507443 0.379866
0.477086 0.507391 0.386413
0.485987 0.507359 0.392867
0.494743 0.507351 0.399219
0.503342 0.507368 0.405461
0.511768 0.507411 0.411581
0.520009 0.507484 0.417571
0.162316 0.525229 0.231440
0.182371 0.526635 0.232663
0.202947 0.528040 0.233887
0.224008 0.529444 0.235112
0.245518 0.530847 0.236338
0.267442 0.532248 0.237565
0.279514 0.532723 0.243220
0.288970 0.532928 0.250157
0.298543 0.533115 0.257177
0.308220 0.533286 0.264270
0.317986 0.533442 0.271427
0.327830 0.533587 0.278638
0.337736 0.533721 0.285894
0.347693 0.533847 0.293186
0.357645 0.533943 0.300466
0.367228 0.533806 0.307396
0.376838 0.533666 0.314347
0.386461 0.533527 0.321307
0.396085 0.533388 0.328269
0.405696 0.533253 0.335222
0.415281 0.533124 0.342156
0.424827 0.533002 0.349064
0.434319 0.532889 0.355934
0.443745 0.532788 0.362758
0.453091 0.532699 0.369527
0.462344 0.532627 0.376229
0.471489 0.532571 0.382857
0.480515 0.532535 0.389400
0.489406 0.532520 0.395849
0.498150 0.532528 0.402195
0.506733 0.532562 0.408427
0.515141 0.532622 0.414536
0.523361 0.532712 0.420513
0.167032 0.551252 0.235559
0.187162 0.552646 0.236785
0.207804 0.554039 0.238011
0.228925 0.555430 0.239239
0.250487 0.556821 0.240467
0.272456 0.558211 0.241696
0.284298 0.558648 0.247469
0.293767 0.558840 0.254416
0.303351 0.559013 0.261444
0.313035 0.559170 0.268543
0.322806 0.559314 0.275704
0.332440 0.559341 0.282723
0.341893 0.559232 0.289562
0.351411 0.559116 0.296448
0.360980 0.558994 0.303370
0.370587 0.558868 0.310320
0.380219 0.558739 0.317287
0.389861 0.558610 0.324263
0.399502 0.558483 0.331238
0.409127 0.558360 0.338203
0.418724 0.558242 0.345147
0.428278 0.558132 0.352063
0.437776 0.558031 0.358939
0.447206 0.557943 0.365767
0.456552 0.557867 0.372538
0.465803 0.557808 0.379241
0.474944 0.557765 0.385867
0.483962 0.557743 0.392406
0.492843 0.557742 0.398850
0.501574 0.557764 0.405188
0.510141 0.557812 0.411410
0.518530 0.557888 0.417508
0.526728 0.557993 0.423471
0.171758 0.577202 0.239686
0.191960 0.578582 0.240914
0.212668 0.579961 0.242144
0.233847 0.581338 0.243374
0.255459 0.582714 0.244604
0.277471 0.584089 0.245836
0.289088 0.584488 0.251724
0.298570 0.584663 0.258680
0.307763 0.584651 0.265354
0.316983 0.584585 0.272028
0.326304 0.584506 0.278775
0.335714 0.584415 0.285585
0.345199 0.584314 0.292449
0.354745 0.584206 0.299356
0.364340 0.584091 0.306299
0.373971 0.583973 0.313267
0.383624 0.583853 0.320251
0.393285 0.583733 0.327242
0.402942 0.583615 0.334230
0.412581 0.583500 0.341205
0.422188 0.583392 0.348159
0.431750 0.583292 0.355082
0.441254 0.583201 0.361964
0.450686 0.583122 0.368796
0.460033 0.583058 0.375568
0.469282 0.583009 0.382271
0.478417 0.582978 0.388895
0.487427 0.582966 0.395431
0.496297 0.582977 0.401868
0.505015 0.583011 0.408198
0.513565 0.583072 0.414411
0.521935 0.583160 0.420496
0.530111 0.583278 0.426445
0.176493 0.603033 0.243822
0.196767 0.604396 0.245053
0.217538 0.605758 0.246284
0.238773 0.607119 0.247516
0.260340 0.608444 0.248664
0.281901 0.609618 0.249437
0.292793 0.609791 0.255003
0.301812 0.609762 0.261537
0.310957 0.609716 0.268160
0.320215 0.609655 0.274863
0.329572 0.609581 0.281637
0.339014 0.609495 0.288472
0.348530 0.609399 0.295359
0.358105 0.609296 0.302288
0.367726 0.609187 0.309251
0.377380 0.609074 0.316237
0.387053 0.608960 0.323237
0.396732 0.608846 0.330242
0.406405 0.608734 0.337243
0.416056 0.608627 0.344229
0.425674 0.608526 0.351192
0.435244 0.608433 0.358122
0.444753 0.608350 0.365010
0.454188 0.608279 0.371845
0.463534 0.608222 0.378619
0.472779 0.608182 0.385321
0.481909 0.608159 0.391942
0.490910 0.608157 0.398474
0.499769 0.608177 0.404905
0.508472 0.608221 0.411226
0.517005 0.608291 0.417428
0.525355 0.608389 0.423501
0.533508 0.608518 0.429436
0.181237 0.628696 0.247965
0.201270 0.629949 0.248945
0.221566 0.631128 0.249719
0.242355 0.632307 0.250496
0.263601 0.633487 0.251274
0.285271 0.634668 0.252056
0.295932 0.634817 0.257773
0.304994 0.634790 0.264339
0.314179 0.634746 0.270992
0.323474 0.634687 0.277723
0.332866 0.634615 0.284523
0.342341 0.634531 0.291383
0.351887 0.634438 0.298293
0.361489 0.634338 0.305244
0.371136 0.634232 0.312225
0.380812 0.634123 0.319229
0.390506 0.634012 0.326246
0.400203 0.633902 0.333265
0.409890 0.633794 0.340278
0.419554 0.633691 0.347275
0.429182 0.633595 0.354247
0.438759 0.633507 0.361183
0.448272 0.633429 0.368075
0.457709 0.633363 0.374914
0.467054 0.633312 0.381688
0.476295 0.633278 0.388389
0.485419 0.633262 0.395008
0.494411 0.633266 0.401534
0.503257 0.633293 0.407959
0.511945 0.633344 0.414271
0.520461 0.633421 0.420462
0.528790 0.633527 0.426522
0.536919 0.633664 0.432442
0.184300 0.653722 0.250779
0.204201 0.654905 0.251559
0.224622 0.656088 0.252341
0.245529 0.657271 0.253125
0.266889 0.658456 0.253912
0.288667 0.659641 0.254701
0.299100 0.659764 0.260569
0.308204 0.659736 0.267166
0.317428 0.659692 0.273849
0.326760 0.659632 0.280608
0.336187 0.659559 0.287434
0.345694 0.659475 0.294318
0.355269 0.659383 0.301251
0.364899 0.659283 0.308222
0.374570 0.659178 0.315224
0.384269 0.659070 0.322245
0.393982 0.658960 0.329277
0.403696 0.658852 0.336310
0.413398 0.658746 0.343335
0.423074 0.658645 0.350342
0.432711 0.658550 0.357321
0.442294 0.658464 0.364264
0.451812 0.658389 0.371161
0.461249 0.658327 0.378002
0.470593 0.658279 0.384777
0.479830 0.658248 0.391477
0.488947 0.658236 0.398092
0.497929 0.658244 0.404613
0.506763 0.658275 0.411030
0.515435 0.658331 0.417333
0.523932 0.658414 0.423513
0.532240 0.658525 0.429560
0.540345 0.658667 0.435463
0.187131 0.678559 0.253411
0.207161 0.679744 0.254199
0.227706 0.680929 0.254989
0.248732 0.682115 0.255782
0.270204 0.683301 0.256577
0.292088 0.684487 0.257374
0.302296 0.684583 0.263391
0.311441 0.684552 0.270019
0.320705 0.684504 0.276731
0.330073 0.684441 0.283517
0.339534 0.684366 0.290369
0.349073 0.684280 0.297278
0.358677 0.684185 0.304232
0.368334 0.684083 0.311225
0.378029 0.683976 0.318244
0.387750 0.683866 0.325283
0.397482 0.683756 0.332330
0.407213 0.683646 0.339376
0.416928 0.683539 0.346412
0.426616 0.683438 0.353429
0.436261 0.683343 0.360417
0.445851 0.683257 0.367366
0.455371 0.683182 0.374266
0.464810 0.683121 0.381109
0.474151 0.683074 0.387884
0.483384 0.683044 0.394583
0.492492 0.683033 0.401194
0.501464 0.683043 0.407709
0.510284 0.683076 0.414118
0.518941 0.683134 0.420412
0.527419 0.683218 0.426580
0.535704 0.683333 0.432613
0.543785 0.683478 0.438501
0.189991 0.703234 0.256071
0.210151 0.704418 0.256867
0.230819 0.705603 0.257665
0.251962 0.706788 0.258466
0.273546 0.707973 0.259269
0.295534 0.709159 0.260074
0.305521 0.709224 0.266238
0.314706 0.709187 0.272897
0.324008 0.709134 0.279637
0.333413 0.709066 0.286451
0.342907 0.708985 0.293329
0.352477 0.708894 0.300261
0.362111 0.708794 0.307237
0.371793 0.708688 0.314250
0.381512 0.708577 0.321288
0.391254 0.708463 0.328343
0.401005 0.708349 0.335405
0.410752 0.708236 0.342464
0.420481 0.708126 0.349512
0.430179 0.708021 0.356538
0.439832 0.707924 0.363533
0.449428 0.707835 0.370487
0.458951 0.707758 0.377391
0.468389 0.707695 0.384236
0.477728 0.707646 0.391011
0.486955 0.707615 0.397707
0.496055 0.707602 0.404314
0.505016 0.707611 0.410823
0.513823 0.707644 0.417224
0.522462 0.707701 0.423507
0.530920 0.707786 0.429663
0.539184 0.707901 0.435681
0.547238 0.708046 0.441553
0.192882 0.727693 0.258758
0.213170 0.728870 0.259562
0.233960 0.730046 0.260368
0.255220 0.731220 0.261177
0.276913 0.732393 0.261988
0.299006 0.733564 0.262802
0.308773 0.733596 0.269111
0.317999 0.733552 0.275799
0.327339 0.733490 0.282569
0.336779 0.733415 0.289409
0.346306 0.733328 0.296312
0.355907 0.733230 0.303267
0.365569 0.733125 0.310266
0.375277 0.733012 0.317298
0.385019 0.732896 0.324354
0.394782 0.732776 0.331425
0.404551 0.732657 0.338502
0.414313 0.732539 0.345574
0.424055 0.732424 0.352632
0.433763 0.732315 0.359667
0.443424 0.732213 0.366669
0.453025 0.732120 0.373628
0.462550 0.732039 0.380536
0.471988 0.731971 0.387381
0.481324 0.731919 0.394156
0.490544 0.731884 0.400849
0.499636 0.731868 0.407452
0.508585 0.731874 0.413954
0.517377 0.731903 0.420346
0.525999 0.731957 0.426619
0.534437 0.732039 0.432762
0.542677 0.732150 0.438765
0.550705 0.732292 0.444620
0.195804 0.751465 0.261472
0.216218 0.752601 0.262284
0.237130 0.753737 0.263098
0.258504 0.754870 0.263915
0.280307 0.756002 0.264734
0.302503 0.757132 0.265555
0.312052 0.757131 0.272009
0.321318 0.757077 0.278727
0.330696 0.757008 0.285525
0.340171 0.756925 0.292392
0.349731 0.756830 0.299319
0.359363 0.756726 0.306297
0.369052 0.756614 0.313317
0.378785 0.756495 0.320369
0.388550 0.756373 0.327443
0.398333 0.756249 0.334530
0.408119 0.756124 0.341620
0.417897 0.756001 0.348704
0.427651 0.755882 0.355773
0.437369 0.755768 0.362816
0.447037 0.755662 0.369825
0.456642 0.755565 0.376789
0.466169 0.755479 0.383699
0.475605 0.755406 0.390546
0.484937 0.755349 0.397319
0.494151 0.755309 0.404009
0.503233 0.755287 0.410607
0.512170 0.755287 0.417102
0.520947 0.755310 0.423485
0.529551 0.755357 0.429746
0.537968 0.755431 0.435876
0.546184 0.755535 0.441865
0.554186 0.755668 0.447702
0.198755 0.774228 0.264213
0.219295 0.775323 0.265033
0.240327 0.776416 0.265855
0.261816 0.777507 0.266680
0.283727 0.778597 0.267507
0.306025 0.779685 0.268336
0.315359 0.779649 0.274932
0.324665 0.779584 0.281679
0.334079 0.779505 0.288505
0.343590 0.779412 0.295398
0.353182 0.779308 0.302350
0.362843 0.779196 0.309351
0.372559 0.779075 0.316391
0.382318 0.778949 0.323462
0.392105 0.778820 0.330553
0.401907 0.778688 0.337656
0.411711 0.778557 0.344760
0.421502 0.778427 0.351856
0.431269 0.778301 0.358935
0.440996 0.778181 0.365986
0.450670 0.778068 0.373001
0.460279 0.777964 0.379969
0.469807 0.777872 0.386882
0.479242 0.777792 0.393729
0.488569 0.777728 0.400500
0.497776 0.777680 0.407187
0.506848 0.777651 0.413779
0.515771 0.777643 0.420267
