design/lut/jc-grade-deep.cube
TITLE "JC Alvarez — deep"
LUT_3D_SIZE 9
DOMAIN_MIN 0 0 0
DOMAIN_MAX 1 1 1
0.048383 0.050270 0.054092
0.125941 0.055874 0.059543
0.186004 0.058831 0.078278
0.225872 0.059147 0.110261
0.267640 0.059208 0.143721
0.310268 0.059175 0.177852
0.352722 0.059208 0.211856
0.393976 0.059469 0.244939
0.433010 0.060115 0.276313
0.067703 0.141935 0.072578
0.147309 0.148216 0.078152
0.206517 0.151618 0.098079
0.246759 0.152541 0.130375
0.288669 0.153229 0.163968
0.331213 0.153843 0.198058
0.373366 0.154543 0.231852
0.414107 0.155487 0.264560
0.452424 0.156833 0.295401
0.087431 0.246040 0.091464
0.168937 0.252745 0.097150
0.227316 0.256355 0.118180
0.267873 0.257641 0.150742
0.309869 0.258713 0.184423
0.352277 0.259731 0.218429
0.394079 0.260854 0.251972
0.434260 0.262240 0.284267
0.471813 0.264045 0.314538
0.107533 0.358321 0.110716
0.190791 0.365208 0.116505
0.248366 0.368800 0.138548
0.289182 0.370215 0.171330
0.331210 0.371438 0.205056
0.373430 0.372628 0.238936
0.414831 0.373942 0.272187
0.454194 0.375312 0.303802
0.489753 0.375934 0.332139
0.127974 0.474609 0.130300
0.212841 0.481443 0.136181
0.269637 0.484802 0.159152
0.310654 0.486122 0.192109
0.351791 0.486724 0.224948
0.392320 0.486816 0.257129
0.432081 0.487059 0.288730
0.470054 0.487610 0.318959
0.505213 0.488630 0.347025
0.148721 0.590817 0.150184
0.233285 0.596773 0.154415
0.287571 0.599015 0.176467
0.327251 0.599356 0.208009
0.367977 0.599551 0.240370
0.408733 0.599759 0.272767
0.448501 0.600139 0.304411
0.486252 0.600852 0.334507
0.520953 0.602058 0.362257
0.162534 0.701859 0.164113
0.249193 0.707657 0.168307
0.303224 0.709616 0.191531
0.343513 0.709808 0.223582
0.384635 0.709876 0.256288
0.425570 0.709977 0.288861
0.465291 0.710270 0.320506
0.502764 0.710915 0.350424
0.536949 0.712070 0.377812
0.176723 0.801762 0.178438
0.265634 0.806720 0.182813
0.319425 0.808044 0.207147
0.360276 0.807880 0.239669
0.401745 0.807621 0.272681
0.442808 0.807410 0.305388
0.482428 0.807392 0.336992
0.519567 0.807710 0.366688
0.553177 0.808509 0.393667
0.191525 0.883265 0.193363
0.282586 0.887293 0.197913
0.336153 0.887898 0.223294
0.377518 0.887254 0.256250
0.419286 0.886538 0.289528
0.460423 0.885881 0.322329
0.499889 0.885413 0.353848
0.536636 0.885266 0.383276
0.569611 0.885574 0.409798
0.050314 0.052168 0.125918
0.128085 0.057785 0.131964
0.216253 0.063440 0.138035
0.273361 0.065416 0.162461
0.315492 0.065521 0.196318
0.358451 0.065535 0.230821
0.401208 0.065618 0.265171
0.442735 0.065930 0.298575
0.482014 0.066630 0.330246
0.069676 0.144066 0.146356
0.149481 0.150355 0.152483
0.239044 0.156666 0.158632
0.295405 0.159137 0.183854
0.337646 0.159863 0.217812
0.380492 0.160517 0.252241
0.422917 0.161260 0.286349
0.463901 0.162249 0.319347
0.502433 0.163642 0.350453
0.089444 0.248316 0.167054
0.171133 0.255024 0.173253
0.261949 0.261740 0.179470
0.317587 0.264471 0.205403
0.359884 0.265574 0.239417
0.402564 0.266626 0.273731
0.444608 0.267785 0.307556
0.485002 0.269209 0.340109
0.522742 0.271055 0.370614
0.109582 0.360661 0.187981
0.193009 0.367545 0.194242
0.284938 0.374424 0.200518
0.339878 0.377189 0.227078
0.382176 0.378437 0.261104
0.424639 0.379655 0.295260
0.466252 0.380999 0.328763
0.505434 0.381931 0.360210
0.541362 0.382612 0.388970
0.130055 0.476932 0.209105
0.215076 0.483760 0.215418
0.307980 0.490571 0.221745
0.362246 0.493155 0.248848
0.403207 0.493439 0.281542
0.444165 0.493576 0.314194
0.484329 0.493866 0.346242
0.522676 0.494468 0.376896
0.558181 0.495542 0.405362
0.150317 0.592891 0.230008
0.234867 0.598771 0.234680
0.327305 0.604663 0.239399
0.379621 0.606207 0.265665
0.420782 0.606440 0.298497
0.461946 0.606688 0.331342
0.502093 0.607111 0.363410
0.540196 0.607869 0.393907
0.575219 0.609123 0.422033
0.163938 0.703832 0.245912
0.250829 0.709618 0.250742
0.345089 0.715370 0.255617
0.397234 0.716670 0.282728
0.438769 0.716769 0.315881
0.480089 0.716904 0.348878
0.520167 0.717231 0.380924
0.557968 0.717911 0.411219
0.592451 0.719101 0.438958
0.178190 0.803451 0.262341
0.267322 0.808395 0.267323
0.363297 0.813296 0.272349
0.415287 0.814066 0.300237
0.457146 0.813832 0.333673
0.498570 0.813649 0.366780
0.538524 0.813658 0.398761
0.575967 0.814004 0.428809
0.609851 0.814831 0.456114
0.193053 0.884638 0.279275
0.284325 0.888650 0.284404
0.381907 0.892613 0.289574
0.433757 0.892760 0.318172
0.475891 0.892066 0.351849
0.517366 0.891432 0.385026
0.557141 0.890988 0.416897
0.594168 0.890866 0.446652
0.627393 0.891195 0.473475
0.065123 0.051517 0.181366
0.130233 0.059702 0.213888
0.218548 0.065369 0.220372
0.314429 0.071073 0.226868
0.369038 0.072386 0.255212
0.412222 0.072436 0.289968
0.455174 0.072559 0.324546
0.496869 0.072912 0.358154
0.536287 0.073656 0.390004
0.085391 0.143473 0.201438
0.151656 0.152496 0.235747
0.241351 0.158814 0.242269
0.337992 0.165154 0.248801
0.391960 0.167012 0.277557
0.435002 0.167696 0.312208
0.477593 0.168471 0.346513
0.518716 0.169495 0.379684
0.557358 0.170925 0.410939
0.105979 0.247711 0.221801
0.173332 0.257303 0.257725
0.264266 0.264022 0.264276
0.361533 0.270748 0.270834
0.414883 0.272915 0.299920
0.457729 0.273990 0.334425
0.499910 0.275176 0.368417
0.540414 0.276628 0.401114
0.578237 0.278504 0.431738
0.126853 0.359979 0.242425
0.195228 0.369882 0.279790
0.287262 0.376759 0.286361
0.385021 0.383630 0.292937
0.437776 0.385881 0.322274
0.480376 0.387116 0.356592
0.522098 0.388480 0.390231
0.561124 0.388981 0.421536
0.597331 0.389712 0.450623
0.147981 0.476109 0.263275
0.217313 0.486075 0.301913
0.310308 0.492880 0.308497
0.408141 0.499463 0.314793
0.459041 0.500580 0.343020
0.500340 0.500754 0.376045
0.540818 0.501083 0.408443
0.579450 0.501727 0.439423
0.615211 0.502847 0.468191
0.168186 0.591607 0.283238
0.236453 0.600771 0.321870
0.329081 0.606666 0.327105
0.426909 0.612571 0.332378
0.477707 0.613725 0.361179
0.519190 0.614004 0.394373
0.559627 0.614461 0.426766
0.597990 0.615256 0.457564
0.633245 0.616551 0.485966
0.183168 0.702276 0.298247
0.252470 0.711575 0.339632
0.346909 0.717316 0.344993
0.446010 0.723022 0.350392
0.496722 0.723974 0.379697
0.538336 0.724133 0.413018
0.578680 0.724486 0.445364
0.616717 0.725192 0.475935
0.651407 0.726406 0.503925
0.198721 0.801741 0.313799
0.269016 0.810064 0.357813
0.365158 0.814950 0.363295
0.465420 0.819793 0.368812
0.516062 0.820292 0.398550
0.557756 0.820128 0.431956
0.597951 0.820157 0.464212
0.635605 0.820523 0.494509
0.669671 0.821368 0.522039
0.214824 0.882763 0.329875
0.286069 0.890001 0.376391
0.383807 0.893949 0.381987
0.485113 0.897848 0.387616
0.535702 0.897790 0.417715
0.577423 0.897172 0.451165
0.617414 0.896745 0.483284
0.654627 0.896639 0.513263
0.688008 0.896983 0.540285
0.093689 0.048140 0.216291
0.150486 0.058029 0.266319
0.220844 0.067302 0.309684
0.316808 0.073018 0.316415
0.417527 0.078769 0.323146
0.470096 0.079736 0.353651
0.513139 0.079887 0.388342
0.554896 0.080272 0.422038
0.594349 0.081049 0.453953
0.114238 0.140277 0.236700
0.172439 0.150946 0.287946
0.243660 0.160965 0.332327
0.340370 0.167312 0.339056
0.441234 0.173679 0.345782
0.493265 0.175238 0.376326
0.535920 0.176035 0.410714
0.577078 0.177084 0.443945
0.615728 0.178541 0.475236
0.135066 0.244618 0.257351
0.194563 0.255808 0.309720
0.266585 0.266305 0.354953
0.363907 0.273033 0.361671
0.464787 0.279767 0.368384
0.516303 0.281683 0.398890
0.558520 0.282884 0.432936
0.599032 0.284355 0.465663
0.636835 0.286252 0.496295
0.156139 0.356912 0.278211
0.216828 0.368372 0.331613
0.289587 0.379093 0.377532
0.387388 0.385962 0.384231
0.488158 0.392823 0.390923
0.539182 0.394871 0.421316
0.580751 0.396005 0.454814
0.619816 0.396323 0.486182
0.656213 0.397095 0.515494
0.177425 0.472998 0.299250
0.239202 0.484488 0.353593
0.312637 0.495187 0.400039
0.410020 0.501426 0.406100
0.509650 0.507222 0.411666
0.559396 0.508211 0.441080
0.600095 0.508571 0.473727
0.638922 0.509248 0.504932
0.674846 0.510404 0.533899
0.197150 0.588124 0.318809
0.258380 0.598736 0.372550
0.330861 0.608670 0.419307
0.428823 0.614579 0.424943
0.529276 0.620497 0.430608
0.579006 0.621569 0.460248
0.619641 0.622051 0.492865
0.658173 0.622874 0.523861
0.693565 0.624200 0.552437
0.212560 0.698703 0.334331
0.275444 0.709341 0.389518
0.348732 0.719258 0.438380
0.447956 0.724951 0.444110
0.549115 0.730609 0.449866
0.598846 0.731521 0.479658
0.639361 0.731890 0.512201
0.677542 0.732612 0.542944
0.712306 0.733843 0.571081
0.228506 0.798372 0.350355
0.292973 0.807794 0.406925
0.367023 0.816600 0.457760
0.467395 0.821427 0.463576
0.569141 0.826211 0.469417
0.618889 0.826717 0.499286
0.659231 0.826758 0.531711
0.697002 0.827135 0.562154
0.730791 0.827990 0.589804
0.244968 0.879532 0.366861
0.310944 0.887670 0.424749
0.385711 0.895278 0.477422
0.487116 0.899161 0.483318
0.589325 0.902995 0.489237
0.639109 0.902982 0.519105
0.679221 0.902565 0.551368
0.716443 0.902468 0.581465
0.748974 0.902792 0.608617
0.123774 0.048000 0.253098
0.180747 0.054376 0.303289
0.244858 0.064929 0.359670
0.319187 0.074967 0.410422
0.419926 0.080730 0.417216
0.522633 0.086526 0.423999
0.573621 0.087461 0.454921
0.615340 0.087868 0.488594
0.654727 0.088669 0.520462
0.144437 0.136816 0.273638
0.202791 0.147501 0.325023
0.267838 0.158778 0.382212
0.342748 0.169472 0.433231
0.443619 0.175846 0.439984
0.545873 0.182239 0.446724
0.596426 0.183811 0.477324
0.637519 0.184875 0.510504
0.676077 0.186350 0.541720
0.165339 0.241290 0.294371
0.224969 0.252492 0.346857
0.290849 0.264234 0.404764
0.366280 0.275320 0.455894
0.467155 0.282055 0.462598
0.568835 0.288796 0.469287
0.618973 0.290771 0.499494
0.659394 0.292251 0.532142
0.697080 0.294159 0.562672
0.186447 0.353643 0.315265
0.247247 0.365112 0.368762
0.313862 0.377070 0.427299
0.389754 0.388293 0.478384
0.490506 0.395151 0.485032
0.591493 0.402002 0.491662
0.640871 0.403470 0.521030
0.680061 0.403818 0.552545
0.716472 0.404622 0.581980
0.207730 0.469716 0.336291
0.269597 0.481211 0.390707
0.336848 0.493148 0.449789
0.411902 0.503392 0.499954
0.511621 0.509195 0.505759
0.611669 0.515018 0.511583
0.660706 0.516188 0.540485
0.699632 0.516890 0.571811
0.735136 0.518073 0.600873
0.226883 0.584492 0.355332
0.288352 0.595107 0.409307
0.355240 0.606192 0.467984
0.430739 0.616588 0.519560
0.531270 0.622508 0.525430
0.631562 0.628437 0.531319
0.680671 0.629740 0.560087
0.719157 0.630582 0.591177
0.753474 0.631929 0.619820
0.242567 0.695007 0.371178
0.305674 0.705671 0.426581
0.373834 0.716658 0.486369
0.449905 0.726877 0.539379
0.551129 0.732522 0.545308
0.651541 0.738131 0.551252
0.700739 0.739304 0.579808
0.738371 0.740033 0.610617
0.771456 0.741269 0.638793
0.258753 0.794905 0.387483
0.323425 0.804364 0.444250
0.392779 0.814055 0.505080
0.469374 0.823057 0.559385
0.571171 0.827825 0.565365
0.671576 0.832549 0.571358
0.720738 0.833334 0.599622
0.757236 0.833714 0.630103
0.789056 0.834570 0.657763
0.275420 0.876234 0.404226
0.341583 0.884405 0.462292
0.412053 0.892746 0.524096
0.489122 0.900468 0.579553
0.591371 0.904286 0.585575
0.691640 0.908054 0.591609
0.740404 0.908334 0.619501
0.775726 0.908238 0.649606
0.806284 0.908506 0.676756
0.154655 0.048000 0.290891
0.211754 0.050579 0.341184
0.275943 0.061157 0.397624
0.345289 0.072212 0.458536
0.422325 0.082695 0.513244
0.524991 0.088503 0.519922
0.626856 0.094344 0.526578
0.676725 0.095559 0.556191
0.715874 0.096374 0.587904
0.175270 0.133232 0.311360
0.233728 0.143943 0.362825
0.298832 0.155241 0.420050
0.368660 0.166964 0.481370
0.446003 0.178015 0.535620
0.548204 0.184415 0.542221
0.649039 0.190832 0.548797
0.698572 0.192728 0.577741
0.736412 0.194211 0.608776
0.196085 0.237871 0.331975
0.255798 0.249094 0.384519
0.321715 0.260854 0.442441
0.391927 0.272987 0.504086
0.469521 0.284344 0.557728
0.571137 0.291086 0.564244
0.670826 0.297833 0.570734
0.719914 0.300175 0.598939
0.756139 0.302086 0.629261
0.217068 0.350312 0.352706
0.277932 0.361798 0.406238
0.344562 0.373771 0.464770
0.415065 0.386069 0.526656
0.492852 0.397479 0.579543
0.593763 0.404326 0.585968
0.691777 0.410054 0.591922
0.739763 0.411326 0.619020
0.774360 0.412154 0.648472
0.238189 0.466401 0.373524
0.300100 0.477911 0.427954
0.367045 0.489622 0.486734
0.436659 0.500821 0.547781
0.513594 0.511170 0.599956
0.613672 0.517000 0.605858
0.711316 0.522850 0.611770
0.758607 0.524513 0.638444
0.792049 0.525714 0.667495
0.256682 0.580848 0.391936
0.318343 0.591476 0.446087
0.385384 0.602571 0.504905
0.455954 0.613974 0.566785
0.533266 0.624521 0.619848
0.633576 0.630452 0.625779
0.730540 0.636391 0.631717
0.777086 0.638237 0.657886
0.809338 0.639596 0.686489
0.272485 0.691330 0.407912
0.335767 0.702015 0.463472
0.404060 0.713048 0.523381
0.475506 0.724222 0.586023
0.553144 0.734431 0.639828
0.653561 0.740027 0.645780
0.749358 0.745585 0.651737
0.795171 0.747316 0.677318
0.826204 0.748550 0.705379
0.288753 0.791469 0.424303
0.353581 0.800971 0.481207
0.423052 0.810704 0.542138
0.495290 0.820516 0.605470
0.573204 0.829434 0.659869
0.673601 0.834142 0.665834
0.767744 0.838805 0.671802
0.812839 0.840137 0.696710
0.842625 0.840987 0.723880
0.305463 0.872985 0.441085
0.371765 0.881196 0.499268
0.442333 0.889576 0.561153
0.515281 0.897989 0.625101
0.593418 0.905571 0.679944
0.693666 0.909322 0.685913
0.785674 0.913024 0.691882
0.830067 0.913838 0.715836
0.858564 0.914038 0.741925
0.185612 0.048000 0.328777
0.242788 0.048000 0.379113
0.307006 0.057394 0.435552
0.376336 0.068479 0.496421
0.448856 0.079873 0.560054
0.527346 0.090483 0.615316
0.629112 0.096335 0.621705
0.727060 0.102218 0.628062
0.774030 0.104024 0.654656
0.206019 0.129669 0.348978
0.264534 0.140413 0.400463
0.329647 0.151742 0.457667
0.399438 0.163492 0.518924
0.471999 0.175500 0.582580
0.550533 0.186592 0.636679
0.651257 0.193015 0.642957
0.746954 0.199455 0.649200
0.792757 0.201983 0.674787
0.226590 0.234500 0.369280
0.286339 0.245754 0.421824
0.352246 0.257540 0.479703
0.422402 0.269697 0.541264
0.494913 0.282063 0.604864
0.573435 0.293377 0.657659
0.673003 0.300124 0.663819
0.765976 0.306875 0.669942
0.810662 0.309892 0.694458
0.247294 0.347059 0.389656
0.308173 0.358572 0.443166
0.374774 0.370569 0.501634
0.445201 0.382886 0.563417
0.517572 0.395364 0.626881
0.595871 0.406392 0.678188
0.693753 0.411943 0.684012
0.783783 0.417524 0.689837
0.827558 0.419549 0.713206
0.268100 0.463193 0.410075
0.330007 0.474727 0.464463
0.396494 0.486088 0.522803
0.466190 0.497306 0.583915
0.537899 0.508716 0.646772
0.615677 0.518985 0.697780
0.713275 0.524841 0.703575
0.800880 0.530717 0.709336
0.843999 0.533186 0.731505
0.285844 0.577334 0.427746
0.347649 0.587984 0.482014
0.414793 0.599098 0.540913
0.485426 0.610518 0.602837
0.557685 0.622084 0.666171
0.635590 0.632468 0.717137
0.732458 0.638409 0.722814
0.817507 0.644356 0.728453
0.859985 0.647061 0.749355
0.301605 0.687812 0.443654
0.365012 0.698518 0.499311
0.433391 0.709602 0.559280
0.504880 0.720827 0.621946
0.577604 0.732026 0.685682
0.655582 0.741918 0.736086
0.751234 0.747463 0.741636
0.833644 0.752970 0.747147
0.875497 0.755551 0.766734
0.317792 0.788193 0.459929
0.382728 0.797745 0.516910
0.452265 0.807527 0.577881
0.524528 0.817385 0.641215
0.597629 0.827173 0.705232
0.675626 0.835731 0.754601
0.769575 0.840378 0.760017
0.849274 0.844979 0.765393
0.890519 0.847119 0.783622
0.334383 0.869903 0.476547
0.400773 0.878160 0.534787
0.471388 0.886585 0.596690
0.544341 0.895040 0.660620
0.617732 0.903392 0.724518
0.695691 0.910585 0.772658
0.787458 0.914270 0.777934
0.864370 0.917871 0.783156
0.904927 0.919282 0.799890
0.215926 0.048000 0.365865
0.273132 0.048000 0.416184
0.337333 0.053781 0.472565
0.406598 0.064907 0.533334
0.479008 0.076337 0.596827
0.552659 0.087910 0.661390
0.631365 0.098329 0.713670
0.729109 0.104223 0.719483
0.814696 0.110147 0.725221
0.235970 0.126267 0.385605
0.294496 0.137054 0.437054
0.359571 0.148422 0.494178
0.429279 0.160208 0.555315
0.501712 0.172248 0.618811
0.574977 0.184381 0.683024
0.653470 0.195200 0.732928
0.748914 0.201646 0.738490
0.830879 0.208107 0.743979
0.256144 0.231320 0.405406
0.315884 0.242613 0.457891
0.381734 0.254435 0.515672
0.451788 0.266624 0.577093
0.524152 0.279019 0.640513
0.596946 0.291458 0.704264
0.675175 0.302417 0.751346
0.767849 0.309168 0.756661
0.846233 0.315644 0.761910
0.276417 0.344025 0.425238
0.337268 0.355574 0.478670
0.403793 0.367602 0.537019
0.474100 0.379948 0.598643
0.546306 0.392452 0.661908
0.618252 0.404227 0.724536
0.695728 0.413835 0.769038
0.785530 0.419426 0.774217
0.861082 0.425048 0.779356
0.296759 0.460233 0.445073
0.358618 0.471799 0.499363
0.424663 0.482811 0.557284
0.494392 0.494058 0.618400
0.566091 0.505494 0.681223
0.637897 0.516960 0.743012
0.715229 0.526835 0.786299
0.802581 0.532716 0.791340
0.875420 0.538616 0.796338
0.313661 0.574089 0.461888
0.375561 0.584770 0.516212
0.442759 0.595913 0.575130
0.513405 0.607359 0.637037
0.585635 0.618949 0.700305
0.657572 0.630522 0.761144
0.734373 0.640428 0.803088
0.819159 0.646377 0.807984
0.889232 0.652332 0.812837
0.329216 0.684595 0.477524
0.392699 0.695329 0.533217
0.461114 0.706462 0.593184
0.532597 0.717744 0.655811
0.605271 0.728997 0.719198
0.677248 0.740064 0.778906
0.753105 0.749338 0.819385
0.835245 0.754831 0.824132
0.902505 0.760285 0.828834
0.345157 0.785209 0.493477
0.410150 0.794816 0.550473
0.479703 0.804652 0.611421
0.551939 0.814562 0.674695
0.624970 0.824399 0.737771
0.696896 0.834020 0.796272
0.771401 0.841946 0.835173
0.850823 0.846531 0.839766
0.915230 0.851070 0.844312
0.361460 0.867108 0.509723
0.427888 0.875416 0.567956
0.498500 0.883890 0.629815
0.571405 0.892391 0.693662
0.644705 0.900787 0.755995
0.716405 0.908951 0.813219
0.789237 0.915511 0.850438
0.865847 0.919035 0.854786
0.927178 0.922422 0.859004
0.244879 0.048000 0.401263
0.302070 0.048000 0.451511
0.366207 0.050461 0.507777
0.435362 0.061635 0.568390
0.507618 0.073111 0.631686
0.581069 0.084725 0.696014
0.653824 0.096316 0.757765
0.731148 0.106232 0.800161
0.816368 0.112166 0.804901
0.264411 0.123169 0.420357
0.322901 0.134007 0.471713
0.387894 0.145423 0.528703
0.457473 0.157253 0.589664
0.529733 0.169335 0.652945
0.602781 0.181505 0.716688
0.674738 0.193605 0.776509
0.750865 0.203838 0.815818
0.832466 0.210304 0.820315
0.284039 0.228471 0.439471
0.343724 0.239811 0.491844
0.409473 0.251677 0.549470
0.479380 0.263907 0.610697
0.551554 0.276339 0.673883
0.624113 0.288812 0.736563
0.695191 0.301167 0.794442
0.769712 0.311461 0.830664
0.847755 0.317395 0.835062
0.303734 0.341350 0.458578
0.364511 0.352942 0.511878
0.430917 0.365011 0.570053
0.501059 0.377394 0.631463
0.573057 0.389931 0.694477
0.644645 0.401270 0.755349
0.714681 0.412349 0.811316
0.787272 0.421332 0.845581
0.862553 0.426964 0.849954
0.323466 0.457658 0.477649
0.384920 0.468991 0.531524
0.450849 0.479931 0.589303
0.520559 0.491216 0.650360
0.592198 0.502688 0.712941
0.663900 0.514186 0.772783
0.733354 0.525552 0.827485
0.804276 0.534718 0.860110
0.876838 0.540624 0.864328
0.339427 0.571253 0.493485
0.401371 0.581976 0.547802
0.468573 0.593157 0.606677
0.539182 0.604639 0.668503
0.611330 0.616261 0.731042
0.683143 0.627865 0.789844
0.751585 0.639288 0.843220
0.820805 0.648399 0.874112
0.890596 0.654355 0.878171
0.354608 0.681818 0.508640
0.418116 0.692591 0.564304
0.486515 0.703773 0.624207
0.557939 0.715116 0.686731
0.630512 0.726428 0.748821
0.702343 0.737549 0.806507
0.769350 0.748327 0.858502
0.836841 0.756688 0.887576
0.903815 0.762128 0.891472
0.370132 0.782649 0.524059
0.435130 0.792317 0.581006
0.504647 0.802211 0.641868
0.576805 0.812176 0.704975
0.649713 0.822065 0.766249
0.721318 0.831735 0.822751
0.786628 0.841049 0.873314
0.852367 0.848078 0.900490
0.916484 0.852601 0.904221
0.385975 0.864723 0.539720
0.452389 0.873084 0.597882
0.522944 0.881610 0.659632
0.595750 0.890161 0.722964
0.668906 0.898604 0.783302
0.739850 0.906811 0.838555
0.803400 0.914660 0.887640
0.867317 0.920191 0.912639
0.928323 0.923558 0.915962
