design/lut/jc-grade-cool.cube
TITLE "JC Alvarez — cool"
LUT_3D_SIZE 5
DOMAIN_MIN 0 0 0
DOMAIN_MAX 1 1 1
0.063974 0.079822 0.095646
0.246384 0.083343 0.101156
0.336898 0.078000 0.172095
0.428527 0.078000 0.243901
0.505159 0.078000 0.304081
0.077677 0.274559 0.108052
0.259916 0.278311 0.114260
0.350024 0.269038 0.184888
0.440510 0.259699 0.255810
0.515417 0.252791 0.314657
0.091429 0.513146 0.120507
0.273441 0.516394 0.127369
0.362365 0.506400 0.196895
0.449490 0.495213 0.264501
0.521270 0.486452 0.320218
0.098585 0.746387 0.127498
0.278355 0.748125 0.131946
0.366073 0.738340 0.200025
0.453723 0.728247 0.268057
0.525148 0.720308 0.323516
0.098876 0.866312 0.128832
0.281106 0.866820 0.134378
0.370045 0.862639 0.203421
0.458179 0.858150 0.271847
0.529194 0.854493 0.327007
0.066832 0.080850 0.272531
0.251747 0.085034 0.279598
0.451502 0.085838 0.298963
0.543246 0.078000 0.370935
0.619926 0.078000 0.431227
0.080602 0.275701 0.286068
0.266706 0.280263 0.293238
0.465363 0.281420 0.312575
0.555936 0.272116 0.383632
0.630864 0.265252 0.442560
0.094380 0.514157 0.299602
0.281572 0.518347 0.306787
0.477790 0.518224 0.324755
0.565805 0.507116 0.393331
0.638385 0.498447 0.449947
0.101139 0.746779 0.306495
0.287429 0.749688 0.313337
0.484326 0.749311 0.331017
0.572856 0.739656 0.400008
0.645068 0.732084 0.456355
0.103131 0.866313 0.308888
0.292333 0.867471 0.319201
0.491104 0.867166 0.337521
0.580107 0.863091 0.406896
0.651898 0.859765 0.462933
0.136620 0.078000 0.358966
0.268343 0.083364 0.473953
0.485116 0.090255 0.508321
0.685330 0.090876 0.528306
0.756024 0.083426 0.588240
0.150085 0.263636 0.372122
0.282656 0.278841 0.487840
0.498953 0.285953 0.520860
0.697311 0.287023 0.540220
0.764297 0.280163 0.598769
0.163525 0.502034 0.385235
0.296845 0.516927 0.501597
0.510938 0.522150 0.532166
0.707271 0.521447 0.550183
0.771089 0.512844 0.607395
0.169599 0.735336 0.391634
0.302894 0.747904 0.507851
0.518722 0.752965 0.540857
0.715867 0.752687 0.558957
0.777599 0.745504 0.615884
0.172525 0.861492 0.395181
0.309043 0.866640 0.514208
0.526705 0.868597 0.549743
0.724389 0.868370 0.567895
0.784014 0.865370 0.624553
0.207751 0.078000 0.447071
0.339305 0.078000 0.561813
0.502415 0.088426 0.703996
0.719889 0.095484 0.738517
0.845810 0.098427 0.745620
0.220334 0.251418 0.459129
0.352720 0.266680 0.574585
0.515020 0.284480 0.716055
0.729817 0.291627 0.747353
0.849298 0.295093 0.753281
0.232871 0.489868 0.471116
0.365403 0.504351 0.586696
0.525898 0.520155 0.726508
0.738279 0.525395 0.756061
0.852930 0.527204 0.761400
0.237965 0.723470 0.476657
0.371691 0.736532 0.593288
0.534375 0.751226 0.734707
0.746107 0.756215 0.764705
0.856355 0.758196 0.769347
0.241258 0.856264 0.480652
0.378195 0.861905 0.600080
0.543018 0.867835 0.742848
0.753789 0.869690 0.773150
0.859512 0.870277 0.776992
0.267752 0.078000 0.521333
0.398998 0.078000 0.635659
0.561633 0.078280 0.772397
0.724681 0.096006 0.863071
0.850257 0.100720 0.867181
0.278995 0.241499 0.531723
0.411060 0.256845 0.646750
0.572874 0.274714 0.780900
0.732940 0.292590 0.866650
0.852735 0.296587 0.869301
0.290180 0.480089 0.542028
0.421868 0.494055 0.656802
0.582499 0.509901 0.788154
0.740858 0.525820 0.870109
0.855691 0.528673 0.872651
0.293912 0.713603 0.546232
0.427866 0.727104 0.663026
0.590667 0.742294 0.794387
0.748606 0.756692 0.873411
0.858459 0.759438 0.875770
0.296887 0.851774 0.549824
0.434037 0.857827 0.669396
0.598960 0.864227 0.800513
0.756173 0.869835 0.876507
0.860938 0.870605 0.878462
