design/lut/jc-grade-standard.cube
TITLE "JC Alvarez — standard"
LUT_3D_SIZE 33
DOMAIN_MIN 0 0 0
DOMAIN_MAX 1 1 1
0.084929 0.078811 0.078599
0.105117 0.080170 0.079920
0.125841 0.081530 0.081241
0.147069 0.082890 0.082563
0.168770 0.084250 0.083885
0.190911 0.085611 0.085208
0.204470 0.086102 0.090838
0.214012 0.086168 0.098573
0.223686 0.086214 0.106411
0.233479 0.086242 0.114343
0.243381 0.086253 0.122360
0.253379 0.086249 0.130452
0.263461 0.086233 0.138610
0.273616 0.086206 0.146825
0.283832 0.086169 0.155087
0.294097 0.086125 0.163388
0.304398 0.086076 0.171718
0.314726 0.086023 0.180068
0.325067 0.085969 0.188428
0.335410 0.085914 0.196791
0.345744 0.085862 0.205146
0.356057 0.085813 0.213485
0.366336 0.085770 0.221798
0.376572 0.085735 0.230076
0.386751 0.085708 0.238311
0.396863 0.085693 0.246494
0.406896 0.085690 0.254614
0.416839 0.085703 0.262664
0.426680 0.085731 0.270635
0.436407 0.085778 0.278516
0.446010 0.085845 0.286301
0.455476 0.085934 0.293979
0.464795 0.086047 0.301542
0.089555 0.102240 0.083045
0.109804 0.103618 0.084367
0.130583 0.104997 0.085690
0.151860 0.106376 0.087013
0.173602 0.107755 0.088337
0.195780 0.109134 0.089661
0.209122 0.109620 0.095411
0.218674 0.109703 0.103154
0.228355 0.109767 0.110999
0.238155 0.109812 0.118936
0.248060 0.109841 0.126955
0.258059 0.109855 0.135048
0.268140 0.109857 0.143206
0.278292 0.109848 0.151419
0.288503 0.109830 0.159677
0.298760 0.109805 0.167973
0.309052 0.109775 0.176295
0.319368 0.109741 0.184637
0.329696 0.109706 0.192987
0.340024 0.109671 0.201338
0.350340 0.109639 0.209679
0.360633 0.109610 0.218003
0.370892 0.109587 0.226300
0.381104 0.109572 0.234560
0.391258 0.109566 0.242776
0.401343 0.109571 0.250937
0.411347 0.109590 0.259035
0.421259 0.109623 0.267062
0.431067 0.109673 0.275007
0.440760 0.109741 0.282862
0.450327 0.109829 0.290619
0.459755 0.109940 0.298267
0.469034 0.110074 0.305800
0.094187 0.126283 0.087495
0.114496 0.127678 0.088819
0.135328 0.129073 0.090143
0.156652 0.130469 0.091468
0.178436 0.131864 0.092793
0.200648 0.133260 0.094119
0.213776 0.133739 0.099986
0.223338 0.133837 0.107738
0.233027 0.133915 0.115589
0.242831 0.133975 0.123530
0.252739 0.134019 0.131552
0.262739 0.134049 0.139646
0.272819 0.134067 0.147803
0.282967 0.134074 0.156013
0.293172 0.134072 0.164267
0.303422 0.134064 0.172557
0.313704 0.134050 0.180872
0.324009 0.134034 0.189205
0.334322 0.134016 0.197544
0.344634 0.133998 0.205883
0.354933 0.133983 0.214211
0.365206 0.133972 0.222519
0.375443 0.133967 0.230799
0.385631 0.133970 0.239042
0.395760 0.133982 0.247237
0.405817 0.134006 0.255377
0.415792 0.134043 0.263453
0.425673 0.134095 0.271455
0.435448 0.134163 0.279375
0.445107 0.134251 0.287203
0.454637 0.134358 0.294932
0.464027 0.134488 0.302551
0.473267 0.134642 0.310052
0.098824 0.150895 0.091951
0.119191 0.152304 0.093276
0.140075 0.153713 0.094602
0.161445 0.155122 0.095928
0.183269 0.156532 0.097255
0.205516 0.157942 0.098582
0.218432 0.158411 0.104565
0.228003 0.158521 0.112324
0.237699 0.158612 0.120180
0.247508 0.158685 0.128125
0.257419 0.158743 0.136150
0.267419 0.158786 0.144245
0.277497 0.158817 0.152400
0.287642 0.158838 0.160608
0.297841 0.158850 0.168857
0.308082 0.158856 0.177141
0.318354 0.158857 0.185449
0.328646 0.158855 0.193771
0.338946 0.158852 0.202100
0.349241 0.158849 0.210426
0.359522 0.158849 0.218740
0.369775 0.158853 0.227033
0.379989 0.158864 0.235296
0.390154 0.158882 0.243520
0.400257 0.158911 0.251696
0.410286 0.158951 0.259814
0.420232 0.159004 0.267867
0.430081 0.159072 0.275845
0.439823 0.159157 0.283739
0.449447 0.159262 0.291540
0.458940 0.159386 0.299240
0.468292 0.159533 0.306829
0.477492 0.159704 0.314300
0.103465 0.176027 0.096411
0.123890 0.177448 0.097738
0.144826 0.178869 0.099065
0.166240 0.180291 0.100393
0.188103 0.181712 0.101721
0.210382 0.183133 0.103049
0.223091 0.183591 0.109146
0.232670 0.183711 0.116912
0.242373 0.183813 0.124774
0.252186 0.183897 0.132723
0.262099 0.183965 0.140749
0.272099 0.184019 0.148844
0.282175 0.184061 0.156998
0.292315 0.184094 0.165202
0.302507 0.184118 0.173447
0.312740 0.184135 0.181724
0.323002 0.184149 0.190024
0.333281 0.184159 0.198337
0.343566 0.184168 0.206655
0.353845 0.184178 0.214968
0.364107 0.184191 0.223268
0.374339 0.184209 0.231545
0.384531 0.184233 0.239790
0.394671 0.184265 0.247995
0.404748 0.184307 0.256151
0.414750 0.184360 0.264247
0.424665 0.184427 0.272277
0.434483 0.184510 0.280230
0.444192 0.184610 0.288098
0.453780 0.184728 0.295872
0.463236 0.184868 0.303543
0.472550 0.185029 0.311103
0.481709 0.185215 0.318542
0.108112 0.201634 0.100876
0.128592 0.203065 0.102204
0.149578 0.204496 0.103533
0.171036 0.205927 0.104862
0.192937 0.207357 0.106191
0.215247 0.208788 0.107521
0.227751 0.209233 0.113730
0.237339 0.209361 0.121502
0.247047 0.209471 0.129369
0.256865 0.209563 0.137321
0.266779 0.209640 0.145349
0.276779 0.209703 0.153443
0.286852 0.209754 0.161596
0.296987 0.209796 0.169796
0.307172 0.209829 0.178036
0.317396 0.209857 0.186306
0.327647 0.209880 0.194598
0.337913 0.209900 0.202901
0.348183 0.209920 0.211207
0.358445 0.209940 0.219507
0.368688 0.209964 0.227792
0.378899 0.209992 0.236053
0.389069 0.210027 0.244281
0.399184 0.210071 0.252467
0.409234 0.210124 0.260602
0.419208 0.210189 0.268677
0.429093 0.210268 0.276683
0.438879 0.210363 0.284611
0.448554 0.210475 0.292453
0.458106 0.210606 0.300200
0.467525 0.210757 0.307842
0.476800 0.210932 0.315371
0.485918 0.211131 0.322778
0.112762 0.227671 0.105346
0.133298 0.229110 0.106675
0.154332 0.230548 0.108005
0.175833 0.231986 0.109335
0.197770 0.233424 0.110665
0.220111 0.234861 0.111996
0.232413 0.235290 0.118315
0.242008 0.235425 0.126094
0.251722 0.235540 0.133965
0.261543 0.235639 0.141920
0.271459 0.235722 0.149949
0.281457 0.235792 0.158043
0.291528 0.235850 0.166193
0.301658 0.235899 0.174390
0.311836 0.235939 0.182625
0.322050 0.235974 0.190888
0.332290 0.236005 0.199170
0.342542 0.236033 0.207463
0.352797 0.236061 0.215758
0.363041 0.236090 0.224044
0.373265 0.236122 0.232314
0.383455 0.236159 0.240559
0.393601 0.236203 0.248769
0.403692 0.236255 0.256935
0.413715 0.236318 0.265049
0.423659 0.236393 0.273102
0.433514 0.236481 0.281084
0.443268 0.236586 0.288988
0.452908 0.236708 0.296803
0.462425 0.236849 0.304522
0.471807 0.237011 0.312135
0.481042 0.237196 0.319633
0.490120 0.237405 0.327008
0.117418 0.254092 0.109819
0.138007 0.255536 0.111150
0.159088 0.256979 0.112481
0.180631 0.258422 0.113812
0.202603 0.259864 0.115144
0.224974 0.261307 0.116476
0.237076 0.261719 0.122902
0.246679 0.261857 0.130687
0.256398 0.261976 0.138563
0.266222 0.262079 0.146520
0.276138 0.262166 0.154550
0.286135 0.262240 0.162643
0.296202 0.262303 0.170791
0.306326 0.262357 0.178983
0.316497 0.262403 0.187212
0.326701 0.262443 0.195468
0.336929 0.262479 0.203741
0.347168 0.262513 0.212023
0.357407 0.262547 0.220306
0.367634 0.262582 0.228579
0.377837 0.262621 0.236834
0.388006 0.262665 0.245061
0.398129 0.262715 0.253253
0.408194 0.262774 0.261400
0.418190 0.262844 0.269493
0.428105 0.262926 0.277523
0.437929 0.263022 0.285481
0.447650 0.263134 0.293359
0.457256 0.263264 0.301148
0.466737 0.263413 0.308838
0.476081 0.263583 0.316422
0.485276 0.263776 0.323890
0.494313 0.263994 0.331233
0.122077 0.280852 0.114297
0.142718 0.282298 0.115629
0.163846 0.283744 0.116961
0.185429 0.285190 0.118293
0.207435 0.286635 0.119626
0.229834 0.288080 0.120959
0.241740 0.288474 0.127491
0.251350 0.288613 0.135281
0.261074 0.288734 0.143161
0.270900 0.288838 0.151120
0.280816 0.288928 0.159151
0.290812 0.289004 0.167243
0.300875 0.289070 0.175387
0.310993 0.289126 0.183576
0.321155 0.289175 0.191798
0.331350 0.289218 0.200046
0.341566 0.289258 0.208310
0.351790 0.289296 0.216582
0.362013 0.289333 0.224851
0.372222 0.289373 0.233110
0.382405 0.289415 0.241350
0.392552 0.289464 0.249561
0.402651 0.289519 0.257734
0.412690 0.289583 0.265861
0.422658 0.289658 0.273932
0.432545 0.289745 0.281940
0.442337 0.289846 0.289874
0.452025 0.289964 0.297726
0.461597 0.290099 0.305488
0.471041 0.290254 0.313150
0.480347 0.290430 0.320704
0.489503 0.290629 0.328140
0.498497 0.290854 0.335451
0.126739 0.307905 0.118778
0.147432 0.309352 0.120111
0.168606 0.310799 0.121444
0.190227 0.312245 0.122778
0.212267 0.313691 0.124111
0.234693 0.315136 0.125445
0.246405 0.315509 0.132081
0.256021 0.315648 0.139877
0.265749 0.315768 0.147760
0.275578 0.315872 0.155721
0.285494 0.315962 0.163752
0.295487 0.316039 0.171842
0.305546 0.316105 0.179984
0.315658 0.316162 0.188167
0.325812 0.316211 0.196383
0.335996 0.316256 0.204623
0.346199 0.316297 0.212877
0.356409 0.316336 0.221137
0.366615 0.316376 0.229394
0.376805 0.316417 0.237639
0.386968 0.316462 0.245863
0.397093 0.316512 0.254056
0.407167 0.316570 0.262211
0.417180 0.316637 0.270317
0.427121 0.316714 0.278367
0.436978 0.316805 0.286351
0.446739 0.316909 0.294261
0.456393 0.317030 0.302088
0.465930 0.317169 0.309822
0.475338 0.317328 0.317455
0.484605 0.317508 0.324979
0.493721 0.317711 0.332385
0.502674 0.317940 0.339663
0.131406 0.335208 0.123263
0.152149 0.336654 0.124597
0.173366 0.338099 0.125931
0.195026 0.339543 0.127265
0.217097 0.340987 0.128600
0.239549 0.342431 0.129935
0.251071 0.342782 0.136673
0.260693 0.342917 0.144473
0.270425 0.343035 0.152359
0.280255 0.343137 0.160322
0.290171 0.343224 0.168352
0.300161 0.343299 0.176441
0.310215 0.343364 0.184579
0.320320 0.343419 0.192757
0.330465 0.343468 0.200966
0.340638 0.343512 0.209198
0.350828 0.343552 0.217442
0.361023 0.343590 0.225691
0.371212 0.343629 0.233935
0.381384 0.343671 0.242165
0.391526 0.343716 0.250372
0.401628 0.343766 0.258548
0.411678 0.343824 0.266684
0.421665 0.343892 0.274770
0.431577 0.343970 0.282798
0.441404 0.344062 0.290759
0.451133 0.344168 0.298643
0.460754 0.344290 0.306444
0.470256 0.344430 0.314151
0.479626 0.344591 0.321755
0.488855 0.344773 0.329249
0.497930 0.344978 0.336623
0.506841 0.345209 0.343869
0.136075 0.362715 0.127751
0.156867 0.364157 0.129086
0.178127 0.365599 0.130421
0.199824 0.367040 0.131756
0.221926 0.368480 0.133092
0.244403 0.369920 0.134427
0.255737 0.370247 0.141265
0.265365 0.370377 0.149070
0.275100 0.370491 0.156959
0.284931 0.370588 0.164923
0.294846 0.370671 0.172953
0.304834 0.370742 0.181039
0.314882 0.370803 0.189173
0.324980 0.370855 0.197345
0.335116 0.370901 0.205548
0.345277 0.370941 0.213770
0.355454 0.370979 0.222004
0.365634 0.371015 0.230241
0.375806 0.371051 0.238472
0.385958 0.371090 0.246687
0.396079 0.371133 0.254878
0.406158 0.371182 0.263036
0.416183 0.371239 0.271152
0.426143 0.371305 0.279218
0.436027 0.371382 0.287223
0.445823 0.371473 0.295161
0.455520 0.371578 0.303021
0.465108 0.371699 0.310795
0.474573 0.371839 0.318474
0.483907 0.371999 0.326049
0.493096 0.372181 0.333513
0.502026 0.372260 0.340738
0.510521 0.372023 0.347528
0.140748 0.390383 0.132242
0.161588 0.391820 0.133578
0.182889 0.393256 0.134914
0.204622 0.394691 0.136250
0.226754 0.396125 0.137586
0.249254 0.397559 0.138923
0.260403 0.397860 0.145858
0.270036 0.397984 0.153667
0.279774 0.398091 0.161559
0.289606 0.398182 0.169523
0.299520 0.398259 0.177552
0.309504 0.398324 0.185636
0.319547 0.398379 0.193766
0.329637 0.398426 0.201932
0.339763 0.398466 0.210127
0.349913 0.398501 0.218341
0.360076 0.398534 0.226564
0.370240 0.398566 0.234789
0.380394 0.398598 0.243006
0.390527 0.398633 0.251206
0.400627 0.398672 0.259380
0.410682 0.398717 0.267520
0.420682 0.398770 0.275617
0.430615 0.398833 0.283661
0.440470 0.398907 0.291644
0.450236 0.398994 0.299558
0.459900 0.399096 0.307392
0.469453 0.399216 0.315140
0.478623 0.399074 0.322504
0.487524 0.398793 0.329612
0.496299 0.398533 0.336621
0.504935 0.398298 0.343523
0.513422 0.398087 0.350309
0.145423 0.418168 0.136736
0.166310 0.419597 0.138073
0.187652 0.421026 0.139409
0.209419 0.422453 0.140746
0.231579 0.423879 0.142083
0.254103 0.425305 0.143420
0.265070 0.425579 0.150452
0.274707 0.425694 0.158265
0.284448 0.425792 0.166158
0.294280 0.425874 0.174123
0.304192 0.425943 0.182151
0.314172 0.426001 0.190231
0.324209 0.426048 0.198357
0.334291 0.426087 0.206517
0.344407 0.426120 0.214704
0.354545 0.426149 0.222908
0.364694 0.426175 0.231121
0.374842 0.426200 0.239333
0.384978 0.426226 0.247536
0.395091 0.426255 0.255721
0.405169 0.426288 0.263878
0.415201 0.426327 0.272000
0.425175 0.426375 0.280076
0.435081 0.426432 0.288099
0.444906 0.426501 0.296060
0.454205 0.426173 0.303478
0.463422 0.425860 0.310833
0.472544 0.425563 0.318114
0.481560 0.425285 0.325313
0.490460 0.425028 0.332421
0.499230 0.424793 0.339429
0.507860 0.424581 0.346327
0.516338 0.424396 0.353107
0.150102 0.446027 0.141233
0.171033 0.447446 0.142570
0.192415 0.448865 0.143907
0.214215 0.450282 0.145245
0.236403 0.451699 0.146582
0.258948 0.453114 0.147920
0.269736 0.453359 0.155046
0.279378 0.453463 0.162862
0.289121 0.453551 0.170757
0.298953 0.453623 0.178722
0.308862 0.453682 0.186748
0.318838 0.453730 0.194826
0.328869 0.453767 0.202946
0.338942 0.453797 0.211100
0.349048 0.453821 0.219279
0.359173 0.453841 0.227474
0.369307 0.453858 0.235675
0.379439 0.453875 0.243875
0.389557 0.453892 0.252063
0.399649 0.453913 0.260232
0.409705 0.453938 0.268372
0.419541 0.453831 0.276293
0.429031 0.453489 0.283861
0.438471 0.453157 0.291391
0.447850 0.452837 0.298872
0.457155 0.452530 0.306297
0.466375 0.452238 0.313656
0.475499 0.451963 0.320940
0.484516 0.451707 0.328141
0.493412 0.451472 0.335249
0.502178 0.451259 0.342254
0.510801 0.451070 0.349149
0.519270 0.450907 0.355924
0.154782 0.473916 0.145732
0.175758 0.475324 0.147070
0.197178 0.476731 0.148407
0.219010 0.478136 0.149746
0.241225 0.479541 0.151084
0.263790 0.480944 0.152422
0.274402 0.481159 0.159640
0.284048 0.481250 0.167459
0.293792 0.481325 0.175356
0.303623 0.481385 0.183321
0.313530 0.481432 0.191344
0.323501 0.481468 0.199418
0.333525 0.481494 0.207533
0.343590 0.481513 0.215681
0.353684 0.481526 0.223851
0.363797 0.481535 0.232036
0.373917 0.481541 0.240226
0.384031 0.481547 0.248412
0.393767 0.481298 0.256207
0.403358 0.480956 0.263854
0.412930 0.480618 0.271487
0.422474 0.480286 0.279098
0.431976 0.479963 0.286677
0.441426 0.479650 0.294215
0.450812 0.479349 0.301705
0.460123 0.479061 0.309136
0.469347 0.478788 0.316499
0.478472 0.478533 0.323786
0.487488 0.478297 0.330988
0.496382 0.478082 0.338095
0.505143 0.477889 0.345098
0.513758 0.477722 0.351988
0.522217 0.477580 0.358757
0.159465 0.501793 0.150233
0.180484 0.503187 0.151571
0.201941 0.504580 0.152910
0.223804 0.505972 0.154248
0.246044 0.507363 0.155587
0.268629 0.508752 0.156926
0.279067 0.508934 0.164234
0.288716 0.509011 0.172056
0.298462 0.509072 0.179954
0.308292 0.509118 0.187918
0.318196 0.509151 0.195939
0.328162 0.509173 0.204009
0.338179 0.509186 0.212119
0.348234 0.509191 0.220259
0.358268 0.509162 0.228370
0.367842 0.508834 0.236003
0.377442 0.508504 0.243657
0.387056 0.508173 0.251323
0.396673 0.507844 0.258991
0.406281 0.507518 0.266653
0.415869 0.507196 0.274300
0.425426 0.506881 0.281923
0.434940 0.506575 0.289513
0.444400 0.506278 0.297061
0.453793 0.505994 0.304557
0.463109 0.505724 0.311994
0.472337 0.505469 0.319361
0.481463 0.505232 0.326651
0.490478 0.505014 0.333853
0.499368 0.504817 0.340959
0.508123 0.504643 0.347960
0.516731 0.504495 0.354846
0.525180 0.504372 0.361608
0.164149 0.529615 0.154736
0.185211 0.530994 0.156075
0.206703 0.532371 0.157414
0.228597 0.533747 0.158753
0.250861 0.535122 0.160092
0.273464 0.536495 0.161432
0.283732 0.536644 0.168828
0.293384 0.536704 0.176652
0.303130 0.536749 0.184550
0.312959 0.536779 0.192513
0.322859 0.536796 0.200532
0.332563 0.536668 0.208338
0.342023 0.536371 0.215882
0.351541 0.536067 0.223473
0.361106 0.535756 0.231100
0.370705 0.535442 0.238755
0.380328 0.535125 0.246428
0.389963 0.534808 0.254112
0.399599 0.534493 0.261797
0.409225 0.534181 0.269474
0.418828 0.533874 0.277134
0.428398 0.533573 0.284769
0.437923 0.533282 0.292369
0.447392 0.533001 0.299926
0.456793 0.532732 0.307430
0.466114 0.532477 0.314872
0.475344 0.532238 0.322243
0.484471 0.532017 0.329535
0.493484 0.531815 0.336737
0.502371 0.531635 0.343842
0.511120 0.531478 0.350839
0.519720 0.531347 0.357720
0.528158 0.531242 0.364476
0.168836 0.557340 0.159241
0.189938 0.558701 0.160580
0.211465 0.560061 0.161919
0.233388 0.561419 0.163259
0.255674 0.562776 0.164599
0.278295 0.564132 0.165939
0.288395 0.564245 0.173421
0.298049 0.564288 0.181247
0.307312 0.564096 0.188661
0.316568 0.563842 0.196046
0.325913 0.563576 0.203501
0.335337 0.563298 0.211019
0.344828 0.563012 0.218589
0.354374 0.562718 0.226203
0.363965 0.562419 0.233852
0.373589 0.562116 0.241528
0.383235 0.561811 0.249221
0.392891 0.561506 0.256923
0.402546 0.561203 0.264624
0.412189 0.560903 0.272316
0.421807 0.560608 0.279990
0.431390 0.560321 0.287636
0.440926 0.560042 0.295246
0.450404 0.559774 0.302811
0.459811 0.559519 0.310322
0.469137 0.559278 0.317769
0.478369 0.559053 0.325144
0.487496 0.558846 0.332437
0.496507 0.558659 0.339640
0.505390 0.558494 0.346742
0.514133 0.558352 0.353736
0.522724 0.558235 0.360612
0.531151 0.558146 0.367361
0.173524 0.584925 0.163747
0.194665 0.586267 0.165087
0.216226 0.587608 0.166426
0.238177 0.588947 0.167766
0.260371 0.590240 0.168992
0.282413 0.591341 0.169713
0.291734 0.591179 0.176695
0.300816 0.590963 0.183945
0.310009 0.590732 0.191281
0.319300 0.590486 0.198696
0.328679 0.590229 0.206179
0.338135 0.589960 0.213723
0.347655 0.589683 0.221318
0.357230 0.589398 0.228956
0.366847 0.589108 0.236628
0.376496 0.588815 0.244324
0.386164 0.588520 0.252036
0.395841 0.588225 0.259755
0.405514 0.587931 0.267473
0.415173 0.587642 0.275179
0.424806 0.587358 0.282866
0.434402 0.587081 0.290524
0.443948 0.586814 0.298143
0.453434 0.586557 0.305716
0.462847 0.586313 0.313233
0.472177 0.586084 0.320685
0.481412 0.585871 0.328063
0.490539 0.585677 0.335358
0.499547 0.585502 0.342560
0.508425 0.585350 0.349661
0.517161 0.585221 0.356651
0.525743 0.585118 0.363522
0.534159 0.585042 0.370263
0.178213 0.612330 0.168254
0.199017 0.613534 0.169254
0.219959 0.614643 0.169976
0.241330 0.615753 0.170700
0.263101 0.616864 0.171427
0.285242 0.617976 0.172155
0.294379 0.617798 0.179278
0.303500 0.617588 0.186559
0.312729 0.617363 0.193926
0.322055 0.617124 0.201370
0.331468 0.616873 0.208881
0.340955 0.616611 0.216451
0.350505 0.616341 0.224071
0.360108 0.616063 0.231732
0.369751 0.615781 0.239425
0.379424 0.615495 0.247142
0.389114 0.615208 0.254873
0.398811 0.614921 0.262610
0.408503 0.614636 0.270343
0.418178 0.614355 0.278063
0.427825 0.614080 0.285763
0.437432 0.613812 0.293431
0.446989 0.613553 0.301061
0.456483 0.613306 0.308642
0.465902 0.613072 0.316165
0.475236 0.612853 0.323621
0.484472 0.612650 0.331002
0.493598 0.612466 0.338298
0.502604 0.612302 0.345499
0.511477 0.612160 0.352598
0.520205 0.612043 0.359584
0.528778 0.611951 0.366448
0.537182 0.611887 0.373182
0.180852 0.638973 0.170965
0.201451 0.640090 0.171692
0.222504 0.641209 0.172421
0.243981 0.642328 0.173153
0.265854 0.643448 0.173887
0.288007 0.644561 0.174664
0.297048 0.644373 0.181884
0.306207 0.644168 0.189198
0.315473 0.643947 0.196595
0.324834 0.643712 0.204067
0.334280 0.643466 0.211606
0.343798 0.643209 0.219201
0.353378 0.642943 0.226846
0.363008 0.642671 0.234530
0.372677 0.642394 0.242245
0.382373 0.642114 0.249982
0.392085 0.641833 0.257732
0.401802 0.641552 0.265485
0.411511 0.641273 0.273234
0.421202 0.640999 0.280969
0.430863 0.640730 0.288680
0.440483 0.640469 0.296360
0.450049 0.640218 0.303998
0.459550 0.639978 0.311586
0.468975 0.639752 0.319115
0.478312 0.639540 0.326576
0.487549 0.639346 0.333959
0.496674 0.639170 0.341256
0.505677 0.639015 0.348456
0.514544 0.638882 0.355552
0.523265 0.638774 0.362533
0.531827 0.638691 0.369391
0.540219 0.638637 0.376117
0.183197 0.665444 0.173420
0.203910 0.666569 0.174154
0.225073 0.667695 0.174891
0.246656 0.668822 0.175631
0.268630 0.669949 0.176372
0.290661 0.671048 0.177262
0.299741 0.670862 0.184515
0.308938 0.670659 0.191860
0.318241 0.670440 0.199287
0.327636 0.670208 0.206788
0.337115 0.669964 0.214354
0.346664 0.669710 0.221975
0.356273 0.669448 0.229644
0.365930 0.669179 0.237351
0.375624 0.668905 0.245087
0.385344 0.668629 0.252844
0.395077 0.668351 0.260612
0.404813 0.668075 0.268382
0.414540 0.667800 0.276146
0.424247 0.667530 0.283895
0.433921 0.667266 0.291618
0.443552 0.667011 0.299308
0.453127 0.666765 0.306956
0.462636 0.666530 0.314551
0.472066 0.666309 0.322085
0.481406 0.666104 0.329550
0.490643 0.665915 0.336935
0.499768 0.665746 0.344232
0.508766 0.665597 0.351431
0.517628 0.665472 0.358524
0.526340 0.665370 0.365500
0.534892 0.665295 0.372352
0.543271 0.665249 0.379069
0.185567 0.691799 0.175900
0.206394 0.692929 0.176643
0.227667 0.694060 0.177387
0.249355 0.695192 0.178134
0.271430 0.696324 0.178883
0.293338 0.697407 0.179885
0.302459 0.697221 0.187170
0.311693 0.697018 0.194546
0.321032 0.696800 0.202003
0.330462 0.696568 0.209532
0.339972 0.696325 0.217125
0.349552 0.696072 0.224772
0.359190 0.695810 0.232465
0.368874 0.695543 0.240194
0.378593 0.695271 0.247952
0.388336 0.694996 0.255728
0.398090 0.694720 0.263514
0.407846 0.694445 0.271301
0.417590 0.694173 0.279080
0.427311 0.693906 0.286841
0.436999 0.693645 0.294577
0.446640 0.693392 0.302277
0.456225 0.693149 0.309933
0.465740 0.692918 0.317535
0.475175 0.692701 0.325075
0.484517 0.692499 0.332543
0.493755 0.692315 0.339930
0.502877 0.692150 0.347227
0.511872 0.692006 0.354424
0.520727 0.691885 0.361513
0.529431 0.691789 0.368485
0.537972 0.691719 0.375329
0.546337 0.691678 0.382037
0.187964 0.717980 0.178406
0.208904 0.719107 0.179156
0.230285 0.720232 0.179908
0.252078 0.721357 0.180662
0.274252 0.722480 0.181419
0.296040 0.723531 0.182531
0.305200 0.723346 0.189849
0.314472 0.723143 0.197256
0.323846 0.722926 0.204743
0.333310 0.722696 0.212300
0.342853 0.722454 0.219919
0.352463 0.722202 0.227592
0.362129 0.721943 0.235308
0.371840 0.721678 0.243060
0.381584 0.721408 0.250838
0.391349 0.721135 0.258634
0.401124 0.720862 0.266438
0.410898 0.720590 0.274241
0.420659 0.720320 0.282034
0.430395 0.720056 0.289809
0.440096 0.719797 0.297556
0.449748 0.719547 0.305266
0.459341 0.719307 0.312930
0.468862 0.719079 0.320538
0.478301 0.718865 0.328083
0.487646 0.718667 0.335554
0.496883 0.718486 0.342942
0.506003 0.718324 0.350239
0.514993 0.718183 0.357435
0.523842 0.718066 0.364520
0.532536 0.717973 0.371486
0.541066 0.717907 0.378323
0.549418 0.717870 0.385022
0.190385 0.743361 0.180937
0.211438 0.744449 0.181695
0.232927 0.745535 0.182454
0.254824 0.746620 0.183216
0.277098 0.747703 0.183980
0.298766 0.748698 0.185202
0.307965 0.748515 0.192553
0.317275 0.748316 0.199990
0.326684 0.748103 0.207506
0.336182 0.747878 0.215091
0.345756 0.747641 0.222736
0.355396 0.747396 0.230434
0.365091 0.747143 0.238174
0.374828 0.746884 0.245948
0.384596 0.746621 0.253747
0.394383 0.746356 0.261561
0.404179 0.746090 0.269382
0.413971 0.745826 0.277202
0.423749 0.745564 0.285009
0.433499 0.745308 0.292797
0.443212 0.745057 0.300555
0.452874 0.744815 0.308274
0.462475 0.744583 0.315946
0.472003 0.744362 0.323561
0.481445 0.744155 0.331110
0.490791 0.743963 0.338584
0.500029 0.743789 0.345974
0.509146 0.743633 0.353270
0.518131 0.743498 0.360463
0.526972 0.743385 0.367544
0.535657 0.743297 0.374504
0.544175 0.743234 0.381333
0.552513 0.743200 0.388023
0.192832 0.767587 0.183493
0.213997 0.768634 0.184258
0.235594 0.769679 0.185025
0.257593 0.770723 0.185794
0.279966 0.771765 0.186565
0.301516 0.772703 0.187898
0.310754 0.772521 0.195280
0.320100 0.772324 0.202747
0.329545 0.772113 0.210292
0.339076 0.771891 0.217905
0.348682 0.771658 0.225577
0.358352 0.771417 0.233299
0.368074 0.771168 0.241062
0.377837 0.770914 0.248858
0.387629 0.770657 0.256677
0.397438 0.770397 0.264510
0.407254 0.770137 0.272349
0.417065 0.769879 0.280183
0.426858 0.769623 0.288005
0.436622 0.769372 0.295805
0.446347 0.769128 0.303574
0.456019 0.768891 0.311303
0.465628 0.768665 0.318982
0.475161 0.768450 0.326603
0.484607 0.768248 0.334156
0.493954 0.768061 0.341633
0.503191 0.767890 0.349023
