design/lut/jc-grade-air.cube
TITLE "JC Alvarez — air"
LUT_3D_SIZE 5
DOMAIN_MIN 0 0 0
DOMAIN_MAX 1 1 1
0.118339 0.109216 0.106980
0.255251 0.116092 0.136597
0.333302 0.116101 0.200119
0.411897 0.115992 0.264062
0.487265 0.116362 0.325464
0.154734 0.311594 0.141975
0.290695 0.318215 0.171797
0.367907 0.318114 0.234639
0.445079 0.317958 0.297443
0.518511 0.318331 0.357301
0.190804 0.522329 0.176645
0.325687 0.528081 0.206569
0.400717 0.526488 0.267358
0.472586 0.522688 0.324789
0.541618 0.519438 0.380013
0.216137 0.726165 0.201819
0.346507 0.729614 0.227062
0.419204 0.726580 0.285198
0.492215 0.723556 0.343603
0.561760 0.721142 0.399308
0.231220 0.883952 0.218060
0.364486 0.886235 0.244687
0.438806 0.884350 0.304175
0.512860 0.882505 0.363476
0.582799 0.881095 0.419567
0.140951 0.109070 0.236732
0.298753 0.123604 0.286058
0.439636 0.129724 0.319165
0.518043 0.129622 0.382942
0.593155 0.130005 0.444119
0.176888 0.311470 0.272387
0.334748 0.325712 0.320655
0.473962 0.331636 0.353382
0.550884 0.331472 0.415953
0.624000 0.331843 0.475521
0.212407 0.522031 0.307603
0.370107 0.535335 0.354618
0.505339 0.538750 0.384635
0.578208 0.535051 0.443156
0.648169 0.531910 0.499413
0.236400 0.724983 0.331700
0.391146 0.736228 0.376496
0.526868 0.739179 0.405882
0.600842 0.736314 0.465339
0.671276 0.734054 0.522036
0.253378 0.883036 0.349068
0.411342 0.890640 0.397828
0.549416 0.892604 0.428157
0.624394 0.890878 0.488471
0.695180 0.889576 0.545511
0.198062 0.106000 0.307755
0.324733 0.122764 0.420554
0.490357 0.137945 0.476274
0.630920 0.143904 0.509386
0.705482 0.144270 0.570009
0.233428 0.304438 0.342699
0.359743 0.324981 0.455154
0.524187 0.339729 0.508715
0.662445 0.345538 0.540933
0.734929 0.345880 0.599891
0.268297 0.514841 0.377105
0.394038 0.534515 0.489024
0.554282 0.545614 0.538128
0.689460 0.547969 0.567850
0.759238 0.544915 0.624883
0.290921 0.716935 0.400043
0.414927 0.734508 0.510185
0.577320 0.746201 0.562287
0.714323 0.749219 0.592529
0.782494 0.747089 0.649951
0.309046 0.877756 0.418825
0.436613 0.889437 0.532135
0.601251 0.897152 0.587336
0.739868 0.899161 0.618014
0.805205 0.897861 0.675831
0.256095 0.106000 0.379942
0.382461 0.115549 0.492363
0.516546 0.137010 0.611577
0.682561 0.152236 0.667087
0.811268 0.158615 0.696838
0.290453 0.297301 0.413623
0.416422 0.317883 0.525658
0.548920 0.338978 0.643436
0.712660 0.353642 0.695815
0.833337 0.359909 0.724151
0.324249 0.507629 0.446686
0.448611 0.526479 0.557248
0.577460 0.543761 0.671717
0.738904 0.554902 0.722414
0.853160 0.557916 0.749070
0.345463 0.708885 0.468410
0.470022 0.726592 0.579114
0.601598 0.744518 0.696009
0.763299 0.756074 0.747971
0.872102 0.759704 0.773228
0.364312 0.872413 0.488070
0.492398 0.884367 0.601905
0.626553 0.896035 0.721064
0.787063 0.903483 0.772782
0.889971 0.905652 0.796419
0.312301 0.106000 0.449827
0.438243 0.108720 0.561720
0.571777 0.130241 0.680294
0.705875 0.151791 0.792811
0.848037 0.166473 0.831869
0.345261 0.290602 0.481753
0.470770 0.311245 0.593223
0.602685 0.332391 0.710328
0.734085 0.353445 0.815439
0.866265 0.366284 0.849379
0.377607 0.500926 0.512998
0.500595 0.518749 0.622281
0.629795 0.536068 0.736648
0.759195 0.553558 0.835337
0.883776 0.564336 0.867780
0.397337 0.701379 0.533410
0.522310 0.719143 0.644500
0.654197 0.737343 0.759696
0.783131 0.754984 0.854134
0.900295 0.765840 0.885073
0.416439 0.867384 0.553356
0.544902 0.879610 0.667534
0.679327 0.891550 0.782216
0.806276 0.902798 0.872008
0.915455 0.909270 0.900702
