design/lut/jc-grade-cool-deep.cube
TITLE "JC Alvarez — cool-deep"
LUT_3D_SIZE 9
DOMAIN_MIN 0 0 0
DOMAIN_MAX 1 1 1
0.035714 0.047591 0.061442
0.116644 0.049667 0.063431
0.217851 0.051749 0.065425
0.264612 0.047232 0.100228
0.312536 0.046000 0.138151
0.360992 0.046000 0.176492
0.407609 0.046000 0.213394
0.450029 0.046000 0.247014
0.485904 0.046000 0.275513
0.042950 0.133974 0.068155
0.124985 0.136388 0.070163
0.226831 0.138804 0.072177
0.272336 0.134478 0.107697
0.320191 0.129681 0.145570
0.368430 0.124828 0.183745
0.414694 0.120289 0.220375
0.456633 0.116434 0.253622
0.491910 0.113633 0.281657
0.050251 0.241492 0.074932
0.133355 0.244091 0.076959
0.234910 0.246604 0.079421
0.280086 0.242409 0.115201
0.327862 0.237806 0.153015
0.375877 0.233165 0.191018
0.421780 0.228857 0.227369
0.463232 0.225251 0.260239
0.497905 0.222713 0.287805
0.057614 0.362866 0.081771
0.141753 0.365509 0.083815
0.242621 0.367941 0.086902
0.287862 0.363778 0.122736
0.335549 0.359227 0.160485
0.383329 0.354660 0.198308
0.428863 0.350444 0.234374
0.469676 0.346784 0.266697
0.502919 0.343344 0.292836
0.065036 0.490931 0.088668
0.150177 0.493486 0.090729
0.250365 0.495709 0.094421
0.295661 0.491447 0.130301
0.342611 0.486462 0.167314
0.389102 0.481135 0.203821
0.433423 0.476157 0.238632
0.473221 0.471898 0.269906
0.506128 0.468733 0.295790
0.072515 0.618632 0.095622
0.157234 0.620662 0.096388
0.255452 0.622194 0.099286
0.299677 0.617321 0.134023
0.346275 0.612079 0.170619
0.392906 0.606837 0.207243
0.437215 0.601965 0.242053
0.476836 0.597837 0.273196
0.509393 0.594826 0.298815
0.074327 0.736710 0.097847
0.160491 0.738479 0.098482
0.258534 0.739698 0.102147
0.303167 0.735244 0.137211
0.350041 0.730411 0.174031
0.396802 0.725529 0.210764
0.441087 0.720951 0.245563
0.480520 0.717045 0.276567
0.512716 0.714195 0.301911
0.076066 0.819968 0.100030
0.163862 0.821132 0.100703
0.261731 0.821807 0.105124
0.306767 0.818469 0.140511
0.353907 0.814846 0.177547
0.400789 0.811179 0.214383
0.445039 0.807726 0.249162
0.484273 0.804765 0.280018
0.516093 0.802587 0.305076
0.077932 0.867620 0.102338
0.167346 0.868272 0.103049
0.265045 0.868532 0.108218
0.310475 0.866100 0.143922
0.357873 0.863452 0.181167
0.404866 0.860751 0.218099
0.449071 0.858181 0.252850
0.488093 0.855946 0.283548
0.519525 0.854265 0.308310
0.036442 0.048295 0.139992
0.117485 0.050373 0.142308
0.218757 0.052457 0.144626
0.314708 0.052690 0.156170
0.362823 0.047574 0.194310
0.411453 0.046000 0.232853
0.458229 0.046000 0.269945
0.500793 0.046000 0.303743
0.536799 0.046000 0.332408
0.043684 0.134793 0.147793
0.125828 0.137208 0.150118
0.227737 0.139625 0.152446
0.323092 0.140111 0.164379
0.371131 0.135336 0.202461
0.419538 0.130505 0.240831
0.465954 0.125991 0.277643
0.508030 0.122164 0.311061
0.543431 0.119390 0.339255
0.050991 0.242374 0.155625
0.134202 0.244974 0.157959
0.236715 0.247573 0.160295
0.331483 0.248166 0.172598
0.379435 0.243581 0.210614
0.427610 0.238962 0.248805
0.473658 0.234678 0.285331
0.515241 0.231097 0.318363
0.550031 0.228585 0.346081
0.058360 0.363764 0.163485
0.142602 0.366407 0.165826
0.245689 0.369046 0.168170
0.339877 0.369607 0.180827
0.387734 0.365075 0.218769
0.435668 0.360527 0.256772
0.481340 0.356333 0.293006
0.522028 0.352359 0.325205
0.555535 0.348955 0.351652
0.065788 0.491799 0.171370
0.151029 0.494353 0.173719
0.254658 0.496901 0.176069
0.348274 0.497302 0.189062
0.395082 0.492113 0.225952
0.441884 0.486815 0.262803
0.486501 0.481868 0.297947
0.526577 0.477643 0.329538
0.559744 0.474514 0.355726
0.072872 0.619348 0.178988
0.157557 0.621338 0.180066
0.260685 0.623332 0.181153
0.352830 0.623078 0.193433
0.399753 0.617861 0.230383
0.446692 0.612647 0.267348
0.491292 0.607806 0.302486
0.531188 0.603711 0.333944
0.564002 0.600735 0.359863
0.074497 0.737312 0.182653
0.160826 0.739078 0.183764
0.265295 0.740836 0.184885
0.357323 0.740489 0.197741
0.404517 0.735752 0.234911
0.451583 0.730968 0.271983
0.496156 0.726486 0.307106
0.535861 0.722668 0.338421
0.568309 0.719893 0.364061
0.076249 0.820364 0.186431
0.164208 0.821525 0.187576
0.270003 0.822677 0.188731
0.361916 0.822256 0.202152
0.409374 0.818726 0.239535
0.456557 0.815152 0.276706
0.501092 0.811789 0.311806
0.540594 0.808910 0.342969
0.572663 0.806799 0.368320
0.078128 0.867842 0.190322
0.167704 0.868492 0.191501
0.274809 0.869135 0.192689
0.366610 0.868669 0.206665
0.414322 0.866113 0.244254
0.461613 0.863504 0.281516
0.506099 0.861022 0.316585
0.545385 0.858866 0.347587
0.577063 0.857248 0.372637
0.037170 0.049000 0.238383
0.118326 0.051080 0.240893
0.219664 0.053166 0.243402
0.334865 0.055257 0.245911
0.425188 0.054221 0.263984
0.473910 0.049047 0.302637
0.520761 0.046000 0.339827
0.563387 0.046000 0.373709
0.599440 0.046000 0.402449
0.044419 0.135613 0.246825
0.126672 0.138028 0.249334
0.228643 0.140446 0.251843
0.344039 0.142867 0.254352
0.433871 0.142130 0.272555
0.482363 0.137315 0.311028
0.528848 0.132818 0.347931
0.570980 0.129009 0.381427
0.606422 0.126256 0.409688
0.051732 0.243257 0.255265
0.135048 0.245857 0.257774
0.237621 0.248456 0.260282
0.353183 0.251055 0.262790
0.442531 0.250470 0.281108
0.490784 0.245864 0.319394
0.536895 0.241595 0.356004
0.578527 0.238032 0.389108
0.613353 0.235539 0.416887
0.059107 0.364662 0.263703
0.143452 0.367303 0.266211
0.246595 0.369942 0.268718
0.362295 0.372578 0.271224
0.451167 0.372007 0.289640
0.499173 0.367472 0.327732
0.544901 0.363293 0.364043
0.585492 0.359007 0.396148
0.619208 0.355635 0.422841
0.066627 0.492650 0.271961
0.151880 0.495219 0.274642
0.255563 0.497766 0.277147
0.371160 0.500177 0.279441
0.458645 0.498836 0.297003
0.505704 0.493561 0.334138
0.550562 0.488640 0.369552
0.590861 0.484444 0.401400
0.624233 0.481346 0.427830
0.073541 0.619921 0.278927
0.157882 0.622015 0.281444
0.261146 0.624010 0.282922
0.376711 0.626008 0.284410
0.464139 0.624697 0.302354
0.511331 0.619506 0.339599
0.556168 0.614690 0.375003
0.596284 0.610622 0.406714
0.629299 0.607677 0.432871
0.076195 0.737639 0.281826
0.161162 0.739676 0.286453
0.265766 0.741431 0.287961
0.382342 0.743177 0.289477
0.469716 0.741930 0.307791
0.517031 0.737253 0.345139
0.561838 0.732872 0.380524
0.601757 0.729146 0.412088
0.634403 0.726447 0.437962
0.078967 0.820434 0.284840
0.164556 0.821918 0.291559
0.270484 0.823067 0.293096
0.388053 0.824206 0.294641
0.475376 0.823168 0.313314
0.522805 0.819697 0.350756
0.567569 0.816432 0.386115
0.607281 0.813639 0.417522
0.639544 0.811598 0.443102
0.081857 0.867757 0.287969
0.168064 0.868711 0.296763
0.275299 0.869351 0.298328
0.393842 0.869984 0.299902
0.481117 0.869120 0.318920
0.528650 0.866614 0.356449
0.573361 0.864229 0.391773
0.612854 0.862159 0.423014
0.644720 0.860609 0.448289
0.070326 0.046000 0.284176
0.127993 0.050026 0.335096
0.220570 0.053876 0.355751
0.335792 0.055969 0.358322
0.458545 0.058068 0.360891
0.544620 0.056508 0.381658
0.591469 0.051645 0.418857
0.634078 0.047455 0.452737
0.670100 0.046000 0.481464
0.078025 0.129873 0.291925
0.136456 0.137065 0.343514
0.229550 0.141268 0.364391
0.344964 0.143690 0.366953
0.467496 0.146113 0.369513
0.553179 0.144896 0.390169
0.599656 0.140408 0.427075
0.641765 0.136611 0.460562
0.677171 0.133871 0.488804
0.085760 0.237498 0.299701
0.144930 0.244936 0.351938
0.238527 0.249338 0.373001
0.354105 0.251937 0.375554
0.476392 0.254535 0.378105
0.561689 0.253513 0.398635
0.607786 0.249252 0.435241
0.649389 0.245698 0.468331
0.684173 0.243218 0.496084
0.093529 0.358839 0.307504
0.153414 0.366381 0.360368
0.247501 0.370838 0.381580
0.363213 0.373472 0.384123
0.485230 0.376104 0.386664
0.570149 0.375139 0.407054
0.615757 0.370795 0.443247
0.656397 0.366374 0.475419
0.690245 0.363028 0.502293
0.101330 0.486742 0.315331
0.161905 0.494254 0.368800
0.256468 0.498629 0.390125
0.371717 0.500821 0.392240
0.492831 0.502723 0.394006
0.576886 0.501019 0.413711
0.621925 0.496118 0.449329
0.662389 0.491945 0.481368
0.695798 0.488872 0.507974
0.107827 0.613787 0.321930
0.167875 0.620763 0.374848
0.261608 0.624688 0.396427
0.377275 0.626687 0.398209
0.499067 0.628689 0.399999
0.583133 0.627057 0.419865
0.628147 0.622260 0.455469
0.668422 0.618214 0.487366
0.701303 0.615293 0.513693
0.110792 0.732024 0.325216
0.171996 0.738401 0.379152
0.266238 0.742025 0.402452
0.382915 0.743768 0.404258
0.505361 0.745503 0.406071
0.589442 0.744016 0.426085
0.634421 0.739739 0.461666
0.674495 0.736105 0.493411
0.706758 0.733480 0.519450
0.113870 0.816323 0.328610
0.176220 0.820865 0.383555
0.270966 0.823455 0.408556
0.388634 0.824591 0.410385
0.511713 0.825719 0.412222
0.595812 0.824538 0.432370
0.640744 0.821374 0.467919
0.680607 0.818670 0.499502
0.712158 0.816699 0.525243
0.117060 0.864885 0.332112
0.180548 0.867884 0.388058
0.275791 0.869567 0.414738
0.394431 0.870197 0.416590
0.518121 0.870819 0.418450
0.602242 0.869879 0.438717
0.647116 0.867597 0.474226
0.686754 0.865615 0.505638
0.717530 0.864119 0.531105
0.107169 0.046000 0.330239
0.164899 0.046000 0.381208
0.236689 0.051550 0.444520
0.336720 0.056681 0.478196
0.459451 0.058782 0.480706
0.583415 0.060889 0.483211
0.666623 0.059547 0.502863
0.708525 0.055363 0.536659
0.740979 0.052223 0.565290
0.114817 0.123499 0.337921
0.173305 0.130702 0.389554
0.245529 0.139082 0.453246
0.345888 0.144512 0.486620
0.468397 0.146937 0.489114
0.591753 0.149364 0.491602
0.674662 0.148405 0.510917
0.715586 0.144612 0.544314
0.746876 0.141878 0.572455
0.122493 0.231198 0.345622
0.181715 0.238647 0.397898
0.254351 0.247244 0.461949
0.355026 0.252819 0.494989
0.477287 0.255417 0.497466
0.600013 0.258015 0.499938
0.682630 0.257290 0.518903
0.722441 0.253740 0.551896
0.752589 0.251264 0.579544
0.130195 0.352569 0.353339
0.190128 0.360121 0.406237
0.263153 0.368790 0.470628
0.364131 0.374366 0.503301
0.486119 0.376997 0.505761
0.608193 0.379625 0.508216
0.690304 0.378510 0.526609
0.728701 0.374106 0.558905
0.757697 0.370780 0.585888
0.137921 0.480457 0.361071
0.198540 0.487978 0.414569
0.271934 0.496587 0.479281
0.372274 0.501467 0.511125
0.493458 0.503370 0.513089
0.614932 0.505278 0.515059
0.696773 0.503946 0.533154
0.734376 0.499789 0.565312
0.762576 0.496735 0.592022
0.143945 0.607288 0.367233
0.204169 0.614263 0.420328
0.277241 0.622339 0.484703
0.377841 0.627367 0.517753
0.499699 0.629370 0.519735
0.621470 0.631376 0.521722
0.703178 0.630158 0.539742
0.739978 0.626128 0.571752
0.767379 0.623226 0.598179
0.147118 0.725998 0.370777
0.208495 0.732483 0.424886
0.282507 0.739816 0.490088
0.383489 0.744358 0.524440
0.506000 0.746090 0.526439
0.628042 0.747812 0.528443
0.709515 0.746737 0.546372
0.745505 0.743193 0.578226
0.772106 0.740637 0.604358
0.150397 0.811900 0.374420
0.212917 0.816550 0.429535
0.287860 0.821763 0.495556
0.389215 0.824975 0.531184
0.512357 0.826100 0.533200
0.634647 0.827215 0.535220
0.715781 0.826356 0.553043
0.750953 0.823740 0.584730
0.776753 0.821835 0.610557
0.153781 0.861772 0.378163
0.217437 0.864878 0.434276
0.293298 0.868326 0.501105
0.395020 0.870409 0.537984
0.518771 0.871029 0.540016
0.641282 0.871641 0.542052
0.721973 0.870940 0.559753
0.756321 0.869046 0.591263
0.781346 0.867589 0.616824
0.144564 0.046000 0.376995
0.202323 0.046000 0.427971
0.274108 0.046000 0.491259
0.355502 0.053831 0.562983
0.460357 0.059497 0.601898
0.584261 0.061605 0.604231
0.702801 0.063719 0.606557
0.773375 0.063335 0.621311
0.799279 0.060195 0.649769
0.152047 0.117037 0.384468
0.210559 0.124257 0.436103
0.282774 0.132653 0.499766
0.364292 0.141847 0.571595
0.469297 0.147761 0.609718
0.592591 0.150189 0.612028
0.709804 0.152619 0.614331
0.778798 0.152654 0.628538
0.803681 0.149919 0.656501
0.159551 0.224834 0.391951
0.218793 0.232300 0.444224
0.291415 0.240911 0.508242
0.373036 0.250291 0.580160
0.478181 0.256300 0.617461
0.600842 0.258897 0.619747
0.716590 0.261494 0.622027
0.784034 0.261800 0.635677
0.807919 0.259322 0.663141
0.167074 0.346255 0.399442
0.227022 0.353824 0.452332
0.300030 0.362506 0.516686
0.381735 0.371930 0.588675
0.487008 0.377890 0.625125
0.609015 0.380517 0.627388
0.722997 0.382348 0.629468
0.788936 0.381847 0.642486
0.811942 0.378534 0.669503
0.174614 0.474151 0.406939
0.235244 0.481688 0.460425
0.308397 0.490152 0.524898
0.389411 0.498804 0.596255
0.494085 0.504017 0.632269
0.615591 0.505928 0.634327
0.728788 0.507843 0.636387
0.793606 0.507621 0.649095
0.815859 0.504579 0.675833
0.180114 0.600779 0.412599
0.240481 0.607760 0.465831
0.313674 0.615840 0.530321
0.395409 0.624654 0.602312
0.500333 0.630051 0.639202
0.622132 0.632058 0.641270
0.734488 0.634069 0.643340
0.798182 0.634007 0.655721
0.819685 0.631116 0.682169
0.183384 0.719882 0.416262
0.244901 0.726481 0.470503
0.319031 0.733943 0.535818
0.401474 0.741880 0.608431
0.506639 0.746676 0.646169
0.628708 0.748395 0.648246
0.740096 0.750106 0.650326
0.802663 0.750080 0.662362
0.823418 0.747588 0.688510
0.186753 0.807395 0.420015
0.249411 0.812158 0.475259
0.324468 0.817498 0.541388
0.407603 0.823122 0.614611
0.513002 0.826480 0.653168
0.635315 0.827592 0.655255
0.745609 0.828695 0.657344
0.807046 0.828611 0.669017
0.827056 0.826767 0.694854
0.190220 0.858578 0.423858
0.254009 0.861793 0.480096
0.329981 0.865366 0.547030
0.413797 0.869081 0.620851
0.519421 0.871238 0.660198
0.641953 0.871847 0.662293
0.751025 0.872450 0.664391
0.811330 0.872289 0.675683
0.830589 0.870867 0.701194
0.180701 0.046000 0.422171
0.238455 0.046000 0.473112
0.310204 0.046000 0.536337
0.391529 0.047540 0.607969
0.478036 0.056865 0.684149
0.585105 0.062323 0.720332
0.703518 0.064438 0.722306
0.792900 0.066559 0.724262
0.842495 0.067867 0.730053
0.187911 0.110848 0.429300
0.246415 0.118092 0.480896
0.318589 0.126509 0.544492
0.400035 0.135722 0.616226
0.486374 0.145357 0.692255
0.593427 0.151014 0.726902
0.710499 0.153445 0.728816
0.797115 0.155878 0.730712
0.845479 0.157638 0.735717
0.195137 0.218764 0.436432
0.254367 0.226253 0.488662
0.326945 0.234884 0.552609
0.408490 0.244282 0.624428
0.494643 0.254075 0.700290
0.601671 0.259779 0.733270
0.717263 0.262376 0.735124
0.801166 0.264972 0.736961
0.848328 0.267036 0.741197
0.202376 0.340257 0.443565
0.262308 0.347847 0.496408
0.335267 0.356549 0.560687
0.416893 0.365991 0.632572
0.502843 0.375800 0.708250
0.609740 0.381226 0.739450
0.723586 0.382927 0.741307
0.805115 0.384635 0.743155
0.851254 0.385935 0.746856
0.209627 0.468181 0.450697
0.270237 0.475739 0.504132
0.343046 0.483973 0.568280
0.424127 0.492634 0.639692
0.509666 0.501681 0.714933
0.616249 0.506577 0.745661
0.729368 0.508495 0.747487
0.808986 0.510417 0.749304
0.854094 0.512045 0.752428
0.214550 0.594617 0.455790
0.275025 0.601610 0.509113
0.348305 0.609701 0.573676
0.430102 0.618524 0.645718
0.516111 0.627710 0.721192
0.622795 0.632741 0.751767
0.735059 0.634752 0.753562
0.812760 0.636766 0.755347
0.856836 0.638604 0.757897
0.217799 0.714019 0.459423
0.279421 0.720732 0.513753
0.353635 0.728323 0.579137
0.436135 0.736396 0.651796
0.522599 0.744582 0.727389
0.629373 0.748977 0.757767
0.740657 0.750685 0.759530
0.816436 0.752384 0.761284
0.859481 0.754027 0.763260
0.221139 0.803064 0.463137
0.283899 0.807937 0.518465
0.359035 0.813403 0.584659
0.442225 0.819160 0.657924
0.529128 0.824933 0.733520
0.635984 0.827967 0.763660
0.746160 0.829067 0.765390
0.820014 0.830158 0.767111
0.861716 0.831239 0.768822
0.224570 0.855483 0.466930
0.288457 0.858805 0.523249
0.364504 0.862499 0.590243
0.448371 0.866343 0.664102
0.535697 0.870139 0.739582
0.642625 0.872053 0.769442
0.751566 0.872653 0.771140
0.823488 0.873228 0.772815
0.863559 0.873728 0.774429
0.213768 0.046000 0.463493
0.271489 0.046000 0.514363
0.343171 0.046000 0.577487
0.424398 0.046000 0.648991
0.510777 0.051228 0.724609
0.597935 0.060649 0.790918
0.704233 0.065158 0.810367
0.793333 0.067281 0.811545
0.846967 0.069409 0.812710
0.220607 0.105291 0.470155
0.279074 0.112566 0.521676
0.351178 0.121010 0.585167
0.432521 0.130247 0.656769
0.518729 0.139904 0.731828
0.605446 0.149608 0.796446
0.711192 0.154271 0.814277
0.797531 0.156705 0.815410
0.849111 0.159141 0.816530
0.227457 0.213345 0.476813
0.286646 0.220863 0.528964
0.359149 0.229520 0.592802
0.440589 0.238942 0.664485
0.526608 0.248756 0.738837
0.612869 0.258591 0.801783
0.717934 0.263257 0.818036
0.801566 0.265853 0.819126
0.851169 0.268242 0.820237
0.234315 0.334929 0.483465
0.294201 0.342547 0.536225
0.367083 0.351275 0.600392
0.448600 0.360739 0.672138
0.534412 0.370569 0.745639
0.620070 0.379872 0.806861
0.724173 0.383506 0.821967
0.805510 0.385217 0.823224
0.853482 0.386935 0.824471
0.241179 0.462900 0.490111
0.301740 0.470485 0.543459
0.374227 0.478487 0.607307
0.455337 0.487165 0.678727
0.540879 0.496227 0.751350
0.626545 0.505305 0.811438
0.729946 0.509147 0.826157
0.809372 0.511071 0.827382
0.855713 0.513001 0.828596
0.245467 0.589158 0.494562
0.306013 0.596171 0.547931
0.379341 0.604280 0.612519
0.461164 0.613120 0.684565
0.547172 0.622320 0.756842
0.633038 0.631512 0.815927
0.735628 0.635436 0.830238
0.813136 0.637451 0.831429
0.857861 0.639469 0.832611
0.248570 0.708773 0.498009
0.310260 0.715597 0.552380
0.384518 0.723309 0.617785
0.467040 0.731510 0.690444
0.553498 0.739826 0.762263
0.639547 0.747911 0.820325
0.741217 0.751263 0.834208
0.816802 0.752959 0.835367
0.859927 0.754646 0.836516
0.251756 0.799182 0.501525
0.314579 0.804160 0.556890
0.389756 0.809740 0.623101
0.472964 0.815620 0.696361
0.559857 0.821518 0.767612
0.646070 0.827184 0.824631
0.746710 0.829439 0.838067
0.820370 0.830526 0.839193
0.861913 0.831604 0.840310
0.255022 0.852693 0.505109
0.318970 0.856113 0.561461
0.395054 0.859917 0.628467
0.478934 0.863878 0.702316
0.566246 0.867794 0.772886
0.652606 0.871490 0.828842
0.752107 0.872855 0.841816
0.823823 0.873398 0.842849
0.863728 0.873897 0.843819
0.241962 0.046000 0.498696
0.299621 0.046000 0.549459
0.371208 0.046000 0.612448
0.452310 0.046000 0.683789
0.538534 0.046586 0.756265
0.625508 0.056033 0.816091
0.708280 0.065178 0.860336
0.793764 0.068003 0.864577
0.847188 0.070133 0.865163
0.248337 0.100726 0.504774
0.306739 0.108036 0.556185
0.378745 0.116512 0.619537
0.459960 0.125780 0.690973
0.546009 0.135464 0.762343
0.632541 0.145193 0.820622
0.714233 0.154596 0.863398
0.797946 0.157532 0.866516
0.849322 0.159969 0.867074
0.254719 0.208936 0.510843
0.313839 0.216488 0.562880
0.386242 0.225177 0.626577
0.467550 0.234628 0.698090
0.553407 0.244469 0.768234
0.639480 0.254328 0.824984
0.719993 0.263837 0.866321
0.801965 0.266735 0.868359
0.851406 0.268717 0.869011
0.261105 0.330628 0.516902
0.320920 0.338280 0.569545
0.393697 0.347038 0.633566
0.475079 0.356531 0.705139
0.560727 0.366386 0.773942
0.646164 0.375373 0.829123
0.725582 0.383905 0.869170
0.805904 0.385800 0.870797
0.853711 0.387520 0.871538
0.267494 0.458664 0.522949
0.327752 0.466098 0.575990
0.400152 0.474050 0.639734
0.481252 0.482752 0.711090
0.566758 0.491837 0.778765
0.652360 0.500936 0.832981
0.731067 0.509678 0.871963
0.809756 0.511726 0.873257
0.855934 0.513657 0.873970
0.271075 0.584758 0.526669
0.331653 0.591799 0.580033
0.404991 0.599935 0.644598
0.486798 0.608799 0.716478
0.572766 0.618021 0.783490
0.658564 0.627233 0.836751
0.736452 0.636061 0.874664
0.813510 0.638136 0.875624
0.858073 0.640155 0.876310
0.273900 0.704526 0.529763
0.335618 0.711448 0.584126
0.409882 0.719268 0.649502
0.492384 0.727582 0.721822
0.578798 0.736011 0.788143
0.664773 0.744206 0.840434
0.741776 0.751840 0.877232
0.817167 0.753533 0.877899
0.860131 0.755217 0.878557
0.276798 0.796041 0.532914
0.339645 0.801110 0.588267
0.414824 0.806791 0.654444
0.498008 0.812775 0.727118
0.584851 0.818779 0.792722
0.670987 0.824548 0.844027
0.747259 0.829809 0.879443
0.820725 0.830893 0.880082
0.862109 0.831968 0.880714
0.279766 0.850425 0.536120
0.343734 0.853930 0.592454
0.419816 0.857827 0.659423
0.503667 0.861886 0.732364
0.590925 0.865900 0.797226
0.677202 0.869694 0.847530
0.752646 0.873056 0.881563
0.824157 0.873568 0.882076
0.863896 0.874064 0.882568
