design/lut/jc-grade-clean-deep.cube
TITLE "JC Alvarez — clean-deep"
LUT_3D_SIZE 33
DOMAIN_MIN 0 0 0
DOMAIN_MAX 1 1 1
0.106254 0.125894 0.141258
0.120749 0.124869 0.140100
0.137121 0.123863 0.138962
0.155261 0.122875 0.137843
0.175057 0.121907 0.136742
0.196397 0.120958 0.135661
0.219166 0.120028 0.134599
0.243247 0.119117 0.133555
0.268522 0.118225 0.132531
0.294873 0.117352 0.131527
0.322175 0.116498 0.130541
0.350308 0.115664 0.129575
0.379146 0.114849 0.128628
0.408563 0.114054 0.127700
0.438430 0.113277 0.126791
0.468620 0.112520 0.125903
0.499002 0.111783 0.125033
0.511766 0.109365 0.132549
0.522780 0.106806 0.140879
0.533727 0.104280 0.149161
0.544556 0.101795 0.157357
0.555216 0.099359 0.165425
0.565654 0.096981 0.173327
0.575817 0.094669 0.181020
0.585653 0.092431 0.188465
0.595107 0.090275 0.195619
0.604127 0.088211 0.202442
0.612657 0.086246 0.208891
0.620645 0.084389 0.214926
0.628034 0.082649 0.220503
0.634771 0.081035 0.225580
0.638268 0.079952 0.228158
0.638388 0.079421 0.228135
0.103686 0.137347 0.137440
0.117733 0.136233 0.136346
0.134267 0.135138 0.135272
0.152586 0.134060 0.134217
0.172577 0.132999 0.133180
0.194125 0.131956 0.132163
0.217114 0.130932 0.131165
0.241426 0.129925 0.130187
0.266941 0.128936 0.129228
0.293537 0.127965 0.128288
0.321092 0.127012 0.127367
0.349481 0.126077 0.126466
0.378578 0.125160 0.125584
0.408255 0.124262 0.124721
0.438384 0.123381 0.123879
0.468834 0.122519 0.123055
0.499153 0.121645 0.122404
0.510321 0.118943 0.130862
0.521472 0.116264 0.139311
0.532555 0.113618 0.147712
0.543518 0.111013 0.156025
0.554309 0.108456 0.164209
0.564875 0.105957 0.172223
0.575164 0.103523 0.180028
0.585122 0.101163 0.187581
0.594696 0.098885 0.194841
0.603831 0.096698 0.201768
0.612474 0.094610 0.208318
0.620570 0.092630 0.214450
0.628064 0.090767 0.220122
0.634901 0.089029 0.225290
0.638708 0.087789 0.228123
0.638858 0.087144 0.228136
0.101322 0.150992 0.133837
0.114905 0.149967 0.132808
0.131593 0.148958 0.131798
0.150082 0.147967 0.130807
0.170258 0.146993 0.129835
0.192004 0.146036 0.128883
0.215203 0.145097 0.127950
0.239734 0.144174 0.127037
0.265477 0.143269 0.126142
0.292308 0.142381 0.125268
0.320103 0.141511 0.124412
0.348736 0.140659 0.123577
0.378079 0.139824 0.122760
0.408004 0.139006 0.121964
0.438382 0.138206 0.121187
0.469080 0.137424 0.120430
0.497717 0.136444 0.120756
0.509019 0.133809 0.129332
0.520303 0.131199 0.137898
0.531517 0.128620 0.146414
0.542610 0.126082 0.154840
0.553528 0.123593 0.163136
0.564218 0.121160 0.171261
0.574629 0.118792 0.179173
0.584705 0.116499 0.186832
0.594395 0.114287 0.194196
0.603642 0.112166 0.201223
0.612394 0.110145 0.207872
0.620595 0.108231 0.214099
0.628191 0.106434 0.219863
0.635127 0.104762 0.225122
0.639246 0.103554 0.228211
0.639425 0.102985 0.228260
0.099163 0.166745 0.130451
0.112266 0.165810 0.129486
0.129099 0.164891 0.128541
0.147750 0.163988 0.127615
0.168102 0.163102 0.126709
0.190036 0.162232 0.125822
0.213434 0.161379 0.124954
0.238174 0.160542 0.124106
0.264133 0.159723 0.123277
0.291187 0.158920 0.122468
0.319209 0.158133 0.121679
0.348074 0.157364 0.120909
0.377652 0.156611 0.120159
0.407813 0.155876 0.119428
0.438426 0.155158 0.118718
0.469358 0.154456 0.118027
0.496431 0.153383 0.119270
0.507862 0.150818 0.127960
0.519275 0.148277 0.136640
0.530615 0.145767 0.145268
0.541832 0.143297 0.153804
0.552873 0.140876 0.162209
0.563684 0.138511 0.170440
0.574212 0.136211 0.178458
0.584403 0.133985 0.186219
0.594204 0.131841 0.193684
0.603560 0.129787 0.200809
0.612418 0.127833 0.207553
0.620721 0.125986 0.213874
0.628416 0.124255 0.219729
0.635447 0.122650 0.225076
0.639882 0.121473 0.228422
0.640090 0.120980 0.228508
0.097211 0.184514 0.127283
0.109819 0.183669 0.126384
0.126789 0.182840 0.125504
0.145592 0.182026 0.124643
0.166110 0.181228 0.123802
0.188223 0.180446 0.122980
0.211809 0.179680 0.122179
0.236746 0.178930 0.121396
0.262910 0.178196 0.120634
0.290175 0.177478 0.119891
0.318414 0.176776 0.119167
0.347498 0.176090 0.118464
0.377297 0.175420 0.117780
0.407681 0.174767 0.117116
0.438517 0.174130 0.116472
0.469671 0.173509 0.115847
0.495294 0.172355 0.117948
0.506851 0.169861 0.126749
0.518387 0.167389 0.135537
0.529850 0.164949 0.144274
0.541187 0.162548 0.152918
0.552345 0.160195 0.161428
0.563272 0.157899 0.169763
0.573914 0.155667 0.177882
0.584216 0.153508 0.185743
0.594125 0.151431 0.193305
0.603586 0.149444 0.200526
0.612546 0.147556 0.207363
0.620948 0.145776 0.213774
0.628739 0.144112 0.219718
0.635864 0.142573 0.225151
0.640616 0.141426 0.228757
0.640853 0.141007 0.228880
0.095465 0.204196 0.124335
0.107565 0.203442 0.123501
0.124664 0.202702 0.122686
0.143610 0.201978 0.121891
0.164285 0.201268 0.121116
0.186565 0.200574 0.120361
0.210330 0.199894 0.119625
0.235453 0.199230 0.118909
0.261811 0.198581 0.118212
0.289275 0.197947 0.117536
0.317717 0.197329 0.116879
0.347008 0.196726 0.116242
0.377016 0.196138 0.115625
0.407610 0.195566 0.115028
0.438656 0.195010 0.114450
0.470020 0.194469 0.113893
0.494309 0.193246 0.116790
0.505986 0.190821 0.125698
0.517641 0.188420 0.134592
0.529221 0.186048 0.143434
0.540674 0.183716 0.152181
0.551946 0.181431 0.160793
0.562985 0.179203 0.169228
0.573735 0.177038 0.177446
0.584144 0.174946 0.185404
0.594157 0.172936 0.193061
0.603720 0.171015 0.200374
0.612779 0.169193 0.207302
0.621277 0.167478 0.213802
0.629162 0.165879 0.219831
0.636376 0.164405 0.225349
0.641448 0.163286 0.229215
0.641715 0.162941 0.229376
0.093928 0.225684 0.121607
0.105506 0.225019 0.120839
0.122725 0.224368 0.120091
0.141806 0.223731 0.119362
0.162628 0.223109 0.118653
0.185066 0.222501 0.117964
0.208998 0.221907 0.117294
0.234297 0.221327 0.116645
0.260836 0.220762 0.116015
0.288487 0.220211 0.115405
0.317121 0.219675 0.114815
0.346606 0.219154 0.114245
0.376811 0.218647 0.113695
0.407602 0.218155 0.113165
0.438845 0.217677 0.112655
0.470405 0.217214 0.112165
0.493476 0.215933 0.115797
0.505268 0.213578 0.124808
0.517038 0.211245 0.133805
0.528731 0.208942 0.142748
0.540295 0.206677 0.151595
0.551676 0.204459 0.160306
0.562822 0.202297 0.168838
0.573678 0.200198 0.177151
0.584189 0.198172 0.185203
0.594303 0.196226 0.192951
0.603964 0.194371 0.200354
0.613117 0.192613 0.207370
0.621708 0.190962 0.213956
0.629683 0.189426 0.220070
0.636986 0.188015 0.225669
0.642379 0.186921 0.229798
0.642674 0.186646 0.229995
0.092599 0.248859 0.119102
0.103644 0.248282 0.118400
0.120975 0.247718 0.117718
0.140182 0.247168 0.117056
0.161140 0.246631 0.116413
0.183726 0.246107 0.115791
0.207815 0.245597 0.115188
0.233278 0.245100 0.114605
0.259988 0.244617 0.114043
0.287814 0.244147 0.113500
0.316627 0.243691 0.112977
0.346294 0.243249 0.112474
0.376683 0.242821 0.111991
0.407658 0.242406 0.111528
0.439085 0.242006 0.111085
0.470828 0.241619 0.110663
0.492796 0.240289 0.114971
0.504700 0.238001 0.124081
0.516578 0.235735 0.133177
0.528380 0.233498 0.142218
0.540050 0.231299 0.151161
0.551536 0.229147 0.159967
0.562785 0.227049 0.168593
0.573741 0.225014 0.176998
0.584351 0.223052 0.185140
0.594561 0.221169 0.192977
0.604316 0.219376 0.200467
0.613561 0.217680 0.207568
0.622242 0.216090 0.214238
0.630304 0.214616 0.220433
0.637692 0.213265 0.226113
0.643407 0.212194 0.230505
0.643731 0.211986 0.230739
0.091480 0.273599 0.116820
0.101980 0.273108 0.116184
0.119415 0.272628 0.115569
0.138738 0.272162 0.114974
0.159825 0.271707 0.114398
0.182548 0.271266 0.113843
0.206782 0.270837 0.113307
0.232399 0.270420 0.112791
0.259267 0.270016 0.112296
0.287257 0.269625 0.111820
0.316237 0.269247 0.111365
0.346074 0.268881 0.110929
0.376633 0.268528 0.110514
0.407780 0.268188 0.110119
0.439378 0.267862 0.109743
0.471291 0.267548 0.109388
0.492271 0.266179 0.114311
0.504280 0.263957 0.123518
0.516264 0.261755 0.132709
0.528168 0.259582 0.141843
0.539941 0.257447 0.150880
0.551527 0.255357 0.159777
0.562874 0.253321 0.168494
0.573926 0.251348 0.176988
0.584631 0.249446 0.185217
0.594933 0.247624 0.193140
0.604778 0.245890 0.200714
0.614112 0.244253 0.207897
0.622879 0.242722 0.214647
0.631025 0.241306 0.220922
0.638495 0.240012 0.226679
0.644533 0.238959 0.231335
0.644887 0.238815 0.231606
0.090571 0.299774 0.114762
0.100516 0.299365 0.114194
0.118047 0.298967 0.113645
0.137478 0.298581 0.113117
0.158682 0.298207 0.112609
0.181533 0.297844 0.112120
0.205903 0.297493 0.111652
0.231661 0.297153 0.111204
0.258676 0.296825 0.110776
0.286818 0.296509 0.110368
0.315953 0.296205 0.109980
0.345946 0.295912 0.109612
0.376663 0.295632 0.109264
0.407968 0.295363 0.108937
0.439724 0.295107 0.108629
0.471794 0.294862 0.108342
0.491901 0.293463 0.113819
0.504011 0.291304 0.123118
0.516094 0.289164 0.132401
0.528098 0.287052 0.141626
0.539967 0.284977 0.150752
0.551649 0.282947 0.159737
0.563089 0.280970 0.168540
0.574234 0.279055 0.177120
0.585029 0.277211 0.185433
0.595420 0.275446 0.193438
0.605351 0.273768 0.201094
0.614769 0.272187 0.208357
0.623619 0.270711 0.215185
0.631846 0.269349 0.221537
0.639396 0.268108 0.227370
0.645758 0.267071 0.232290
0.646140 0.266986 0.232598
0.089873 0.327247 0.112930
0.099254 0.326917 0.112429
0.116872 0.326598 0.111948
0.136402 0.326289 0.111487
0.157715 0.325990 0.111046
0.180683 0.325702 0.110625
0.205177 0.325425 0.110224
0.231065 0.325159 0.109843
0.258217 0.324903 0.109483
0.286498 0.324658 0.109142
0.315775 0.324424 0.108822
0.345912 0.324201 0.108522
0.376775 0.323989 0.108243
0.408225 0.323788 0.107983
0.440126 0.323597 0.107744
0.472339 0.323418 0.107525
0.491687 0.321997 0.113496
0.503893 0.319897 0.122884
0.516071 0.317815 0.132254
0.528168 0.315761 0.141566
0.540130 0.313743 0.150777
0.551903 0.311769 0.159847
0.563433 0.309847 0.168734
0.574665 0.307987 0.177395
0.585546 0.306197 0.185789
0.596021 0.304485 0.193874
0.606035 0.302860 0.201607
0.615534 0.301331 0.208947
0.624463 0.299906 0.215852
0.632768 0.298594 0.222278
0.640394 0.297404 0.228185
0.647080 0.296375 0.233369
0.647492 0.296346 0.233714
0.089387 0.355878 0.111324
0.098195 0.355623 0.110890
0.115892 0.355377 0.110477
0.135511 0.355141 0.110083
0.156923 0.354915 0.109710
0.179999 0.354698 0.109357
0.204606 0.354490 0.109024
0.230614 0.354293 0.108711
0.257890 0.354105 0.108418
0.286298 0.353927 0.108146
0.315705 0.353759 0.107893
0.345974 0.353601 0.107662
0.376969 0.353452 0.107450
0.408552 0.353314 0.107258
0.440585 0.353185 0.107087
0.472928 0.353067 0.106936
0.491630 0.351631 0.113343
0.503927 0.349586 0.122815
0.516196 0.347560 0.132269
0.528381 0.345559 0.141664
0.540431 0.343594 0.150957
0.552290 0.341672 0.160108
0.563904 0.339802 0.169075
0.575220 0.337993 0.177815
0.586182 0.336252 0.186286
0.596737 0.334590 0.194447
0.606830 0.333013 0.202256
0.616406 0.331532 0.209670
0.625412 0.330153 0.216647
0.633791 0.328887 0.223146
0.641491 0.327742 0.229124
0.648434 0.326697 0.234514
0.648838 0.326605 0.234837
0.089112 0.385521 0.109945
0.097340 0.385336 0.109579
0.115108 0.385159 0.109233
0.134808 0.384991 0.108907
0.156310 0.384832 0.108602
0.179482 0.384681 0.108317
0.204193 0.384539 0.108052
0.230310 0.384406 0.107807
0.257697 0.384281 0.107582
0.286221 0.384165 0.107378
0.315746 0.384058 0.107194
0.346134 0.383959 0.107030
0.377248 0.383870 0.106886
0.408950 0.383790 0.106763
0.441101 0.383718 0.106660
0.473562 0.383656 0.106577
0.491730 0.382212 0.113359
0.504114 0.380219 0.122912
0.516467 0.378242 0.132447
0.528737 0.376292 0.141921
0.540869 0.374375 0.151293
0.552810 0.372501 0.160521
0.564504 0.370678 0.169563
0.575899 0.368915 0.178378
0.586938 0.367220 0.186924
0.597569 0.365602 0.195158
0.607737 0.364070 0.203039
0.617387 0.362631 0.210524
0.626410 0.361232 0.217511
0.634778 0.359909 0.223986
0.642468 0.358704 0.229942
0.649426 0.357627 0.235337
0.650112 0.357547 0.235893
0.089050 0.416024 0.108794
0.096691 0.415904 0.108496
0.114522 0.415792 0.108218
0.134294 0.415687 0.107960
0.155876 0.415590 0.107723
0.179135 0.415500 0.107505
0.203939 0.415418 0.107308
0.230152 0.415344 0.107132
0.257640 0.415277 0.106975
0.286268 0.415218 0.106839
0.315898 0.415167 0.106723
0.346392 0.415123 0.106628
0.377613 0.415088 0.106552
0.409421 0.415060 0.106498
0.441678 0.415040 0.106463
0.474242 0.415028 0.106449
0.491989 0.413584 0.113546
0.504454 0.411638 0.123176
0.516888 0.409707 0.132787
0.529237 0.407801 0.142337
0.541447 0.405929 0.151783
0.553464 0.404098 0.161085
0.565234 0.402318 0.170200
0.576702 0.400596 0.179087
0.587815 0.398942 0.187703
0.598425 0.397273 0.195907
0.608576 0.395688 0.203760
0.618212 0.394196 0.211220
0.627278 0.392804 0.218244
0.635721 0.391523 0.224791
0.643485 0.390359 0.230818
0.650515 0.389323 0.236284
0.651486 0.389249 0.237074
0.089201 0.447234 0.107871
0.096249 0.447174 0.107641
0.114135 0.447121 0.107431
0.133970 0.447074 0.107242
0.155623 0.447033 0.107072
0.178959 0.446999 0.106923
0.203844 0.446972 0.106795
0.230143 0.446951 0.106686
0.257721 0.446936 0.106598
0.286440 0.446929 0.106530
0.316163 0.446928 0.106483
0.346751 0.446934 0.106455
0.378065 0.446947 0.106449
0.409967 0.446966 0.106462
0.442315 0.446993 0.106496
0.474970 0.447026 0.106550
0.492407 0.445587 0.113905
0.504948 0.443683 0.123608
0.517457 0.441794 0.133291
0.529880 0.439928 0.142912
0.542163 0.438095 0.152430
0.554215 0.436273 0.161762
0.565957 0.434447 0.170842
0.577402 0.432678 0.179695
0.588495 0.430976 0.188282
0.599181 0.429347 0.196558
0.609406 0.427802 0.204483
0.619115 0.426348 0.212014
0.628253 0.424995 0.219108
0.636767 0.423750 0.225725
0.644602 0.422623 0.231821
0.651703 0.421622 0.237355
0.652961 0.421548 0.238382
0.089565 0.478992 0.107178
0.096015 0.478987 0.107016
0.113948 0.478987 0.106874
0.133838 0.478992 0.106753
0.155551 0.479002 0.106652
0.178954 0.479018 0.106571
0.203911 0.479040 0.106510
0.230285 0.479067 0.106470
0.257940 0.479100 0.106451
0.286739 0.479138 0.106451
0.316542 0.479182 0.106472
0.347211 0.479231 0.106513
0.378607 0.479286 0.106575
0.410588 0.479347 0.106657
0.443016 0.479414 0.106759
0.475747 0.479487 0.106882
0.492985 0.478060 0.114435
0.505597 0.476193 0.124208
0.518096 0.474286 0.133877
0.530484 0.472380 0.143456
0.542735 0.470506 0.152934
0.554797 0.468671 0.162270
0.566614 0.466883 0.171421
0.578132 0.465152 0.180347
0.589297 0.463486 0.189003
0.600055 0.461893 0.197349
0.610350 0.460382 0.205343
0.620129 0.458963 0.212942
0.629336 0.457642 0.220104
0.637918 0.456429 0.226788
0.645821 0.455333 0.232951
0.652989 0.454362 0.238552
0.654535 0.454283 0.239816
0.090143 0.511139 0.106714
0.095990 0.511182 0.106620
0.113962 0.511229 0.106547
0.133898 0.511281 0.106493
0.155663 0.511337 0.106461
0.179123 0.511397 0.106448
0.204140 0.511461 0.106456
0.230579 0.511531 0.106485
0.258300 0.511604 0.106533
0.287166 0.511682 0.106602
0.317037 0.511765 0.106692
0.347775 0.511852 0.106801
0.379238 0.511944 0.106931
0.411287 0.512041 0.107082
0.443772 0.512137 0.107240
0.476490 0.512181 0.107293
0.493483 0.510701 0.114891
0.506054 0.508797 0.124618
0.518598 0.506907 0.134328
0.531058 0.505037 0.143978
0.543382 0.503198 0.153526
0.555515 0.501396 0.162932
0.567403 0.499642 0.172152
0.578990 0.497943 0.181145
0.590223 0.496308 0.189869
0.601048 0.494746 0.198281
0.611410 0.493265 0.206341
0.621254 0.491874 0.214005
0.630527 0.490581 0.221232
0.639174 0.489395 0.227981
0.647141 0.488325 0.234208
0.654375 0.487378 0.239874
0.656210 0.487287 0.241376
0.090934 0.543511 0.106479
0.096176 0.543597 0.106454
0.114179 0.543685 0.106449
0.134152 0.543777 0.106464
0.155960 0.543872 0.106500
0.179467 0.543971 0.106556
0.204534 0.544073 0.106632
0.231025 0.544178 0.106729
0.258801 0.544287 0.106846
0.287723 0.544399 0.106984
0.317650 0.544514 0.107142
0.348395 0.544608 0.107257
0.379818 0.544676 0.107317
0.411838 0.544747 0.107398
0.444315 0.544821 0.107499
0.477108 0.544900 0.107620
0.493996 0.543437 0.115371
0.506638 0.541566 0.125167
0.519251 0.539707 0.134945
0.531780 0.537868 0.144662
0.544172 0.536058 0.154277
0.556371 0.534286 0.163749
0.568324 0.532560 0.173034
0.579976 0.530888 0.182091
0.591273 0.529279 0.190879
0.602161 0.527743 0.199355
0.612585 0.526286 0.207477
0.622492 0.524918 0.215204
0.631826 0.523648 0.222493
0.640535 0.522483 0.229303
0.648564 0.521433 0.235593
0.655859 0.520505 0.241321
0.657985 0.520396 0.243062
0.091939 0.575945 0.106475
0.096574 0.576067 0.106518
0.114600 0.576191 0.106582
0.134602 0.576317 0.106665
0.156443 0.576445 0.106770
0.179986 0.576576 0.106894
0.205094 0.576709 0.107039
0.231626 0.576844 0.107204
0.259343 0.576942 0.107276
0.288194 0.577034 0.107344
0.318065 0.577128 0.107432
0.348814 0.577225 0.107541
0.380302 0.577324 0.107670
0.412387 0.577426 0.107819
0.444927 0.577530 0.107989
0.477781 0.577638 0.108179
0.494673 0.576197 0.116026
0.507380 0.574353 0.125886
0.520057 0.572521 0.135728
0.532650 0.570708 0.145509
0.545104 0.568923 0.155188
0.557365 0.567174 0.164721
0.569379 0.565471 0.174068
0.581092 0.563821 0.183186
0.592448 0.562233 0.192034
0.603395 0.560717 0.200570
0.613877 0.559279 0.208752
0.623842 0.557929 0.216538
0.633234 0.556676 0.223887
0.642001 0.555527 0.230757
0.650089 0.554492 0.237106
0.657444 0.553578 0.242895
0.659861 0.553445 0.244874
0.093158 0.608274 0.106701
0.097184 0.608426 0.106813
0.115225 0.608580 0.106944
0.135247 0.608734 0.107097
0.157085 0.608882 0.107244
0.180515 0.608998 0.107299
0.205521 0.609114 0.107374
0.231967 0.609232 0.107469
0.259711 0.609351 0.107585
0.288616 0.609472 0.107722
0.318540 0.609594 0.107879
0.349342 0.609718 0.108056
0.380882 0.609843 0.108254
0.413018 0.609970 0.108472
0.445608 0.610098 0.108711
0.478511 0.610228 0.108970
0.495512 0.608815 0.116855
0.508280 0.606994 0.126777
0.521017 0.605183 0.136679
0.533668 0.603391 0.146520
0.546180 0.601625 0.156258
0.558499 0.599895 0.165850
0.570569 0.598210 0.175255
0.582337 0.596577 0.184430
0.593748 0.595005 0.193335
0.604749 0.593503 0.201928
0.615286 0.592079 0.210166
0.625305 0.590742 0.218009
0.634752 0.589501 0.225414
0.643574 0.588363 0.232341
0.651717 0.587337 0.238748
0.659129 0.586431 0.244594
0.661837 0.586269 0.246813
0.094590 0.640333 0.107157
0.097919 0.640491 0.107261
0.115815 0.640633 0.107324
0.135704 0.640775 0.107406
0.157449 0.640917 0.107509
0.180913 0.641060 0.107633
0.205957 0.641202 0.107776
0.232442 0.641345 0.107941
0.260227 0.641489 0.108126
0.289172 0.641633 0.108331
0.319137 0.641777 0.108557
0.349980 0.641922 0.108803
0.381560 0.642067 0.109070
0.413735 0.642213 0.109357
0.446362 0.642359 0.109664
0.479299 0.642506 0.109993
0.496516 0.641127 0.117860
0.509340 0.639323 0.127839
0.522131 0.637528 0.137798
0.534836 0.635751 0.147695
0.547401 0.634000 0.157488
0.559771 0.632284 0.167135
0.571893 0.630611 0.176594
0.583712 0.628990 0.185824
0.595174 0.627429 0.194782
0.606226 0.625937 0.203428
0.616813 0.624522 0.211720
0.626882 0.623193 0.219616
0.636380 0.621958 0.227075
0.645253 0.620826 0.234056
0.653449 0.619804 0.240518
0.660914 0.618902 0.246420
0.663913 0.618705 0.248878
0.095771 0.671874 0.107441
0.098421 0.672041 0.107552
0.116329 0.672208 0.107683
0.136236 0.672373 0.107834
0.158003 0.672538 0.108006
0.181492 0.672702 0.108198
0.206563 0.672865 0.108411
0.233076 0.673027 0.108644
0.260890 0.673189 0.108898
0.289865 0.673350 0.109172
0.319859 0.673511 0.109466
0.350731 0.673671 0.109782
0.382338 0.673830 0.110117
0.414538 0.673989 0.110473
0.447189 0.674148 0.110850
0.480148 0.674306 0.111247
0.497685 0.672966 0.119041
0.510559 0.671175 0.129074
0.523400 0.669392 0.139086
0.536154 0.667625 0.149035
0.548767 0.665884 0.158879
0.561185 0.664177 0.168577
0.573353 0.662512 0.178087
0.585218 0.660898 0.187367
0.596727 0.659343 0.196376
0.607824 0.657856 0.205072
0.618458 0.656445 0.213413
0.628573 0.655119 0.221360
0.638118 0.653886 0.228870
0.647039 0.652754 0.235902
0.655284 0.651732 0.242417
0.662800 0.650828 0.248373
0.666090 0.650590 0.251070
0.097095 0.702791 0.107894
0.099138 0.702976 0.108073
0.117052 0.703158 0.108273
0.136969 0.703339 0.108493
0.158749 0.703518 0.108734
0.182253 0.703695 0.108995
0.207341 0.703870 0.109277
0.233872 0.704044 0.109579
0.261704 0.704216 0.109901
0.290697 0.704386 0.110245
0.320708 0.704555 0.110608
0.351595 0.704722 0.110992
0.383217 0.704888 0.111397
0.415430 0.705052 0.111822
0.448091 0.705215 0.112268
0.481059 0.705377 0.112734
0.499020 0.704100 0.120399
0.511939 0.702340 0.130482
0.524824 0.700581 0.140542
0.537622 0.698835 0.150540
0.550278 0.697108 0.160432
0.562738 0.695409 0.170177
0.574949 0.693748 0.179734
0.586856 0.692137 0.189061
0.598406 0.690583 0.198116
0.609545 0.689097 0.206859
0.620221 0.687685 0.215247
0.630379 0.686357 0.223241
0.639967 0.685122 0.230799
0.648933 0.683986 0.237880
0.657224 0.682959 0.244445
0.664787 0.682048 0.250452
0.668367 0.681766 0.253387
0.098635 0.732022 0.108578
0.100072 0.732212 0.108827
0.117985 0.732398 0.109095
0.137903 0.732583 0.109384
0.159688 0.732764 0.109694
0.183198 0.732943 0.110024
0.208292 0.733119 0.110375
0.234830 0.733293 0.110746
0.262669 0.733465 0.111137
0.291668 0.733633 0.111549
0.321684 0.733800 0.111982
0.352575 0.733964 0.112435
0.384198 0.734126 0.112909
0.416411 0.734285 0.113403
0.449070 0.734442 0.113917
0.482033 0.734597 0.114452
0.500521 0.733425 0.121935
0.513480 0.731744 0.132063
0.526405 0.730065 0.142168
0.539242 0.728395 0.152210
0.551936 0.726744 0.162146
0.564434 0.725119 0.171935
0.576682 0.723529 0.181535
0.588626 0.721982 0.190905
0.600213 0.720486 0.200004
0.611390 0.719051 0.208789
0.622103 0.717684 0.217222
0.632300 0.716394 0.225260
0.641928 0.715189 0.232862
0.650934 0.714079 0.239990
0.659268 0.713071 0.246602
0.666876 0.712174 0.252658
0.670745 0.711850 0.255831
0.100392 0.759153 0.109495
0.101226 0.759342 0.109812
0.119129 0.759528 0.110149
0.139041 0.759710 0.110507
0.160821 0.759889 0.110886
0.184327 0.760064 0.111285
0.209418 0.760236 0.111704
0.235952 0.760405 0.112144
0.263787 0.760571 0.112605
0.292780 0.760733 0.113086
0.322790 0.760893 0.113588
0.353672 0.761049 0.114110
0.385285 0.761202 0.114652
0.417484 0.761352 0.115215
0.450128 0.761499 0.115799
0.483074 0.761643 0.116403
0.502189 0.760574 0.123648
0.515183 0.758967 0.133817
0.528143 0.757361 0.143964
0.541013 0.755763 0.154046
0.553741 0.754181 0.164023
0.566271 0.752624 0.173851
0.578552 0.751098 0.183491
0.590528 0.749613 0.192900
0.602148 0.748177 0.202039
0.613358 0.746796 0.210864
0.624104 0.745480 0.219337
0.634336 0.744237 0.227416
0.644000 0.743074 0.235061
0.653044 0.742000 0.242232
0.661416 0.741023 0.248888
0.669067 0.740151 0.254991
0.673223 0.739790 0.258400
0.102366 0.784155 0.110643
0.102994 0.784339 0.111029
0.120486 0.784519 0.111435
0.140383 0.784694 0.111862
0.162149 0.784866 0.112310
0.185642 0.785034 0.112778
0.210720 0.785197 0.113266
0.237240 0.785357 0.113775
0.265059 0.785513 0.114305
0.294036 0.785665 0.114855
0.324026 0.785814 0.115425
0.354888 0.785958 0.116016
0.386477 0.786099 0.116627
0.418651 0.786237 0.117259
0.451267 0.786370 0.117912
0.484182 0.786500 0.118584
0.504024 0.785533 0.125538
0.517049 0.783994 0.135746
0.530037 0.782455 0.145930
0.542937 0.780923 0.156049
0.555692 0.779405 0.166061
0.568251 0.777910 0.175926
0.580559 0.776444 0.185602
0.592564 0.775016 0.195047
0.604211 0.773633 0.204221
0.615450 0.772303 0.213083
0.626226 0.771033 0.221593
0.636488 0.769832 0.229710
0.646184 0.768707 0.237394
0.655262 0.767665 0.244605
0.663671 0.766715 0.251304
0.671359 0.765865 0.257451
0.675801 0.765468 0.261096
0.104556 0.807023 0.112023
0.105249 0.807197 0.112478
0.122055 0.807367 0.112953
0.141930 0.807533 0.113449
0.163674 0.807694 0.113966
0.187145 0.807850 0.114503
0.212199 0.808002 0.115060
0.238694 0.808150 0.115638
0.266488 0.808293 0.116236
0.295436 0.808432 0.116855
0.325396 0.808567 0.117494
0.356224 0.808697 0.118154
0.387777 0.808823 0.118834
0.419913 0.808945 0.119535
0.452488 0.809063 0.120256
0.485359 0.809177 0.120997
0.506027 0.808311 0.127607
0.519077 0.806834 0.137849
0.532090 0.805356 0.148066
0.545013 0.803884 0.158218
0.557792 0.802426 0.168263
0.570374 0.800987 0.178160
0.582705 0.799576 0.187867
0.594732 0.798200 0.197345
0.606404 0.796866 0.206552
0.617666 0.795582 0.215447
0.628468 0.794355 0.223991
