design/lut/jc-grade-clean.cube
TITLE "JC Alvarez — clean"
LUT_3D_SIZE 9
DOMAIN_MIN 0 0 0
DOMAIN_MAX 1 1 1
0.107872 0.122855 0.134341
0.183440 0.119872 0.130921
0.280378 0.117216 0.127822
0.392056 0.114891 0.125049
0.503805 0.112152 0.126282
0.548141 0.103200 0.160104
0.590161 0.095001 0.192205
0.627016 0.088004 0.220385
0.648375 0.083829 0.236658
0.101698 0.190736 0.124121
0.177311 0.188494 0.121795
0.277008 0.186533 0.119800
0.391596 0.184856 0.118137
0.501039 0.182224 0.122924
0.547077 0.173743 0.158298
0.590669 0.165992 0.191852
0.628947 0.159422 0.221370
0.652290 0.155546 0.239416
0.099173 0.285138 0.117615
0.174234 0.284189 0.116408
0.276031 0.283469 0.115537
0.392786 0.282982 0.115004
0.501007 0.281173 0.122478
0.548459 0.273737 0.159185
0.593355 0.266996 0.193986
0.632820 0.261402 0.224663
0.658039 0.258341 0.244401
0.100344 0.398770 0.114894
0.174298 0.398854 0.114823
0.277529 0.399107 0.115092
0.395696 0.399532 0.115702
0.503758 0.398437 0.124993
0.552328 0.391799 0.162804
0.598247 0.385809 0.198639
0.638589 0.380841 0.230213
0.665155 0.377810 0.251089
0.105240 0.523289 0.116009
0.177582 0.524055 0.117084
0.281579 0.524924 0.118501
0.400398 0.525899 0.120260
0.509035 0.525159 0.130198
0.557933 0.518659 0.168361
0.604202 0.512742 0.204566
0.644996 0.507855 0.236612
0.673255 0.505109 0.259044
0.113874 0.649752 0.120985
0.183517 0.650657 0.122603
0.287108 0.651583 0.124489
0.405585 0.652550 0.126722
0.515584 0.652042 0.136796
0.565176 0.645791 0.175742
0.612071 0.640067 0.212677
0.653462 0.635314 0.245431
0.683245 0.632491 0.269286
0.123707 0.765164 0.127622
0.191056 0.765996 0.130329
0.294476 0.766807 0.133383
0.412532 0.767600 0.136785
0.525075 0.767311 0.146496
0.575056 0.761712 0.185989
0.622287 0.756472 0.223430
0.664019 0.752000 0.256692
0.695130 0.749060 0.281819
0.137272 0.847802 0.138110
0.202067 0.848282 0.141986
0.304671 0.848709 0.146209
0.421562 0.849085 0.150779
0.537542 0.848895 0.159323
0.587604 0.844224 0.199124
0.634879 0.839786 0.236842
0.676691 0.835905 0.270410
0.708907 0.833086 0.296638
0.154666 0.894745 0.152528
0.216613 0.895285 0.157569
0.317769 0.895756 0.162955
0.432765 0.896160 0.168683
0.553007 0.896436 0.175289
0.602844 0.892805 0.215158
0.649869 0.889332 0.252924
0.691497 0.886274 0.286591
0.724308 0.883953 0.313729
0.107085 0.121805 0.209416
0.182685 0.118933 0.205906
0.279932 0.116389 0.202664
0.391937 0.114177 0.199692
0.511771 0.112297 0.196994
0.595249 0.107194 0.212111
0.637142 0.099072 0.244039
0.673822 0.092152 0.271997
0.695025 0.088044 0.288054
0.101276 0.189943 0.198678
0.176860 0.187796 0.196080
0.276799 0.185931 0.193761
0.391640 0.184351 0.191724
0.514237 0.183059 0.189971
0.593304 0.177831 0.209329
0.636638 0.170136 0.242575
0.674615 0.163624 0.271741
0.697694 0.159793 0.289455
0.099123 0.284790 0.191052
0.174096 0.283918 0.189404
0.276069 0.283277 0.188043
0.393001 0.282869 0.186973
0.517573 0.282697 0.186197
0.593468 0.278063 0.208869
0.637983 0.271356 0.243236
0.677033 0.265796 0.273442
0.701886 0.262755 0.292739
0.100669 0.398779 0.186656
0.174482 0.398921 0.185987
0.277821 0.399232 0.185615
0.396088 0.399715 0.185541
0.521838 0.400373 0.185767
0.595817 0.396232 0.210807
0.641243 0.390251 0.246092
0.680941 0.385131 0.276950
0.707103 0.382098 0.297346
0.105942 0.523538 0.185588
0.178095 0.524339 0.185925
0.282132 0.525244 0.186565
0.400975 0.526255 0.187509
0.526797 0.527111 0.188230
0.599544 0.522940 0.214294
0.645278 0.517010 0.249907
0.685512 0.512110 0.281335
0.713242 0.509336 0.303196
0.114774 0.650068 0.187790
0.184122 0.650967 0.188539
0.287726 0.651907 0.189600
0.406194 0.652889 0.190973
0.531979 0.653916 0.192662
0.604914 0.649931 0.219600
0.651179 0.644171 0.255848
0.691922 0.639381 0.287894
0.720953 0.636506 0.311099
0.124903 0.765449 0.191552
0.192009 0.766274 0.193355
0.295376 0.767078 0.195477
0.413347 0.767865 0.197917
0.538361 0.768635 0.200678
0.612716 0.765140 0.227545
0.659233 0.759888 0.264215
0.700239 0.755396 0.296693
0.730209 0.752409 0.321101
0.138855 0.847971 0.198885
0.203374 0.848433 0.201763
0.305860 0.848842 0.204963
0.422592 0.849201 0.208486
0.546040 0.849510 0.212333
0.623020 0.846681 0.238192
0.669508 0.842227 0.275069
0.710515 0.838323 0.307789
0.740963 0.835458 0.333239
0.156635 0.894936 0.209849
0.218280 0.895453 0.213814
0.319256 0.895901 0.218105
0.434020 0.896282 0.222721
0.555119 0.896598 0.227662
0.635887 0.894683 0.251594
0.682065 0.891191 0.288462
0.722619 0.888107 0.321230
0.753145 0.885742 0.347545
0.106334 0.120793 0.304291
0.181961 0.118032 0.301560
0.279509 0.115601 0.299039
0.391834 0.113501 0.296731
0.511982 0.111735 0.294639
0.632772 0.110305 0.292767
0.699925 0.104702 0.313339
0.736157 0.097910 0.341661
0.756186 0.093920 0.358080
0.100892 0.189183 0.295944
0.176441 0.187131 0.293932
0.276615 0.185363 0.292140
0.391701 0.183880 0.290571
0.514533 0.182686 0.289227
0.637773 0.181783 0.288112
0.700166 0.176003 0.312707
0.737471 0.169597 0.342079
0.759023 0.165859 0.360007
0.099111 0.284468 0.290055
0.173991 0.283675 0.288795
0.276132 0.283113 0.287764
0.393233 0.282784 0.286964
0.517960 0.282692 0.286399
0.642864 0.282838 0.286071
0.701834 0.277592 0.313734
0.739913 0.272112 0.343987
0.762830 0.269136 0.363351
0.101032 0.398809 0.286731
0.174699 0.399007 0.286252
0.278139 0.399377 0.286010
0.396499 0.399919 0.286009
0.522322 0.400636 0.286249
0.648093 0.401529 0.286732
0.704998 0.396710 0.316490
0.743277 0.391484 0.347158
0.767150 0.388492 0.367555
0.106682 0.523798 0.286068
0.178642 0.524634 0.286396
0.282713 0.525575 0.286969
0.401474 0.526561 0.287686
0.527268 0.527413 0.288248
0.653052 0.528378 0.289062
0.708594 0.523431 0.319834
0.747132 0.518557 0.351084
0.772108 0.515792 0.372797
0.115624 0.650369 0.287862
0.184763 0.651282 0.288515
0.288372 0.652235 0.289421
0.406824 0.653233 0.290583
0.532567 0.654276 0.292002
0.658070 0.655367 0.293680
0.713764 0.650543 0.325018
0.752271 0.645749 0.356732
0.778113 0.642852 0.379641
0.126137 0.765732 0.291069
0.192997 0.766549 0.292583
0.296304 0.767347 0.294356
0.414184 0.768128 0.296392
0.539075 0.768894 0.298692
0.663493 0.769647 0.301258
0.720597 0.765374 0.332183
0.758723 0.760908 0.364178
0.785167 0.757912 0.388144
0.140476 0.848134 0.297199
0.204717 0.848578 0.299595
0.307079 0.848970 0.302258
0.423646 0.849311 0.305189
0.546891 0.849604 0.308389
0.669425 0.849851 0.311859
0.729108 0.846377 0.341403
0.766503 0.842488 0.373493
0.793260 0.839608 0.398359
0.158642 0.895120 0.306323
0.219983 0.895613 0.309621
0.320773 0.896038 0.313190
0.435298 0.896397 0.317031
0.556118 0.896690 0.321145
0.675981 0.896920 0.325533
0.739283 0.894470 0.352747
0.775603 0.891392 0.384744
0.802368 0.889008 0.410337
0.105620 0.119819 0.412276
0.181267 0.117169 0.410465
0.279110 0.114850 0.408800
0.391747 0.112864 0.407284
0.512201 0.111212 0.405919
0.633273 0.109896 0.404709
0.746126 0.108917 0.403655
0.799835 0.104558 0.421089
0.817502 0.100692 0.437935
0.100545 0.188455 0.406769
0.176053 0.186499 0.405461
0.276456 0.184827 0.404307
0.391779 0.183442 0.403311
0.514839 0.182346 0.402475
0.638282 0.181543 0.401801
0.752629 0.181034 0.401291
0.801609 0.176472 0.422379
0.820429 0.172832 0.440569
0.099136 0.284173 0.402988
0.173918 0.283458 0.402210
0.276220 0.282975 0.401596
0.393483 0.282726 0.401147
0.518357 0.282715 0.400865
0.643385 0.282942 0.400754
0.758464 0.283411 0.400814
0.803965 0.279336 0.424632
0.823809 0.276428 0.444088
0.101433 0.398857 0.401025
0.174949 0.399114 0.400805
0.278483 0.399542 0.400756
0.396928 0.400143 0.400879
0.522817 0.400919 0.401178
0.648631 0.401873 0.401654
0.763671 0.402928 0.402240
0.806717 0.398751 0.427601
0.827312 0.395800 0.448016
0.107460 0.524070 0.400968
0.179222 0.524942 0.401331
0.283320 0.525919 0.401871
0.401925 0.526837 0.402384
0.527751 0.527728 0.402903
0.653543 0.528732 0.403608
0.768093 0.529853 0.404501
0.809734 0.525913 0.431109
0.831146 0.523157 0.452671
0.116512 0.650674 0.402552
0.185438 0.651601 0.403138
0.289046 0.652569 0.403912
0.407474 0.653582 0.404874
0.533168 0.654641 0.406027
0.658598 0.655749 0.407374
0.772087 0.656909 0.408916
0.813488 0.653016 0.435817
0.835529 0.650096 0.458406
0.127411 0.766012 0.405271
0.194021 0.766822 0.406495
0.297261 0.767614 0.407912
0.415042 0.768390 0.409526
0.539803 0.769151 0.411339
0.664067 0.769901 0.413352
0.775744 0.770641 0.415568
0.818023 0.767134 0.441809
0.840483 0.764131 0.465287
0.142136 0.848291 0.410163
0.206096 0.848717 0.412049
0.308328 0.849091 0.414135
0.424721 0.849416 0.416425
0.547757 0.849693 0.418920
0.670056 0.849925 0.421622
0.779166 0.850114 0.424532
0.823376 0.847202 0.449168
0.846027 0.844312 0.473382
0.160688 0.895295 0.417310
0.221723 0.895765 0.419880
0.322320 0.896167 0.422657
0.436599 0.896503 0.425644
0.557131 0.896775 0.428841
0.676683 0.896984 0.432251
0.782470 0.897131 0.435874
0.829575 0.895102 0.457978
0.852185 0.892696 0.482777
0.118910 0.116107 0.498335
0.180604 0.116345 0.525777
0.278734 0.114138 0.525041
0.391676 0.112265 0.524388
0.512429 0.110727 0.523818
0.633776 0.109525 0.523335
0.746814 0.108662 0.522940
0.831059 0.108138 0.522635
0.872557 0.107921 0.522586
0.114873 0.184851 0.494557
0.175696 0.185899 0.523632
0.276321 0.184324 0.523181
0.391874 0.183037 0.522819
0.515153 0.182041 0.522547
0.638792 0.181337 0.522368
0.753248 0.180928 0.522283
0.837463 0.180817 0.522296
0.875451 0.180268 0.526040
0.113699 0.281023 0.493372
0.173877 0.283268 0.522471
0.276334 0.282864 0.522326
0.393750 0.282696 0.522276
0.518764 0.282765 0.522324
0.643907 0.283074 0.522472
0.759018 0.283625 0.522721
0.842808 0.284420 0.523073
0.878380 0.284184 0.529818
0.115439 0.396230 0.494832
0.175233 0.399240 0.522366
0.278853 0.399726 0.522551
0.397375 0.400387 0.522837
0.523322 0.401223 0.523227
0.649171 0.402237 0.523724
0.764139 0.403205 0.524198
0.847187 0.404146 0.524661
0.881170 0.403577 0.533593
0.120132 0.521999 0.498980
0.179836 0.525262 0.523396
0.283954 0.526275 0.523931
0.402397 0.527127 0.524353
0.528245 0.528056 0.524857
0.654037 0.529099 0.525476
0.768514 0.530260 0.526212
0.850697 0.531541 0.527067
0.884002 0.530985 0.537694
0.127023 0.649080 0.505133
0.186148 0.651925 0.525069
0.289748 0.652908 0.525730
0.408145 0.653936 0.526509
0.533781 0.655012 0.527408
0.659129 0.656137 0.528430
0.772470 0.657315 0.529577
0.853396 0.658547 0.530851
0.886976 0.657795 0.542315
0.135627 0.765077 0.512856
0.195080 0.767093 0.527766
0.298248 0.767879 0.528833
0.415922 0.768650 0.530026
0.540545 0.769407 0.531347
0.664646 0.770153 0.532798
0.776098 0.770890 0.534382
0.855369 0.771622 0.536101
0.890127 0.770654 0.547530
0.147329 0.847954 0.523423
0.207512 0.848850 0.531860
0.309606 0.849207 0.533359
0.425819 0.849515 0.534992
0.548637 0.849777 0.536761
0.670694 0.849994 0.538667
0.779503 0.850169 0.540714
0.856713 0.850304 0.542903
0.893493 0.849243 0.553419
0.162773 0.895462 0.535620
0.223500 0.895909 0.537439
0.323898 0.896289 0.539396
0.437924 0.896603 0.541494
0.558161 0.896853 0.543736
0.677392 0.897040 0.546122
0.782802 0.897167 0.548656
0.857533 0.897234 0.551339
0.897127 0.896544 0.560097
0.153329 0.108243 0.541184
0.206356 0.110316 0.587187
0.278383 0.113465 0.640783
0.391622 0.111705 0.641011
0.512665 0.110281 0.641256
0.634279 0.109194 0.641521
0.747495 0.108446 0.641807
0.831755 0.108038 0.642114
0.873603 0.107970 0.642445
0.150513 0.177053 0.538824
0.203375 0.179769 0.584691
0.276211 0.183855 0.641623
0.391986 0.182666 0.641916
0.515476 0.181769 0.642232
0.639303 0.181165 0.642572
0.753860 0.180857 0.642937
0.838049 0.180847 0.643329
0.881025 0.181138 0.643750
0.150333 0.273523 0.538775
0.202630 0.277390 0.584160
0.276473 0.282780 0.642702
0.394035 0.282693 0.643077
0.519180 0.282843 0.643479
0.644431 0.283234 0.643911
0.759566 0.283867 0.644374
0.843292 0.284745 0.644870
0.887231 0.285870 0.645401
0.152832 0.388983 0.541078
0.204199 0.393694 0.585666
0.279250 0.399931 0.644076
0.397841 0.400651 0.644551
0.523838 0.401547 0.645060
0.649713 0.402623 0.645604
0.764602 0.403504 0.646080
0.847580 0.404507 0.646580
0.892449 0.405698 0.647123
0.158043 0.514933 0.545769
0.208150 0.520097 0.589277
0.284480 0.526576 0.645784
0.402888 0.527430 0.646257
0.528751 0.528397 0.646773
0.654535 0.529480 0.647331
0.768931 0.530682 0.647936
0.851005 0.532003 0.648588
0.896641 0.533448 0.649291
0.165058 0.642030 0.552047
0.213162 0.647035 0.593820
0.290479 0.653252 0.647546
0.408837 0.654296 0.648168
0.534406 0.655388 0.648838
0.659665 0.656531 0.649560
0.772850 0.657727 0.650335
0.853626 0.658979 0.651167
0.899846 0.660289 0.652057
0.173830 0.758827 0.559878
0.220311 0.763118 0.600262
0.299263 0.768143 0.649836
0.416824 0.768908 0.650632
0.541300 0.769661 0.651484
0.665231 0.770404 0.652396
0.776450 0.771139 0.653370
0.855532 0.771869 0.654408
0.902134 0.772597 0.655514
0.185454 0.842973 0.570247
0.230095 0.846020 0.609055
0.310915 0.849317 0.652743
0.426939 0.849609 0.653740
0.549531 0.849855 0.654803
0.671339 0.850058 0.655933
0.779839 0.850219 0.657134
0.856818 0.850342 0.658408
0.903577 0.850428 0.659759
0.199956 0.891592 0.583186
0.242581 0.894076 0.620270
0.325506 0.896403 0.656362
0.439272 0.896695 0.657590
0.559206 0.896923 0.658891
0.678109 0.897090 0.660269
0.783134 0.897196 0.661727
0.857591 0.897243 0.663267
0.904221 0.897197 0.664936
0.185482 0.100874 0.581214
0.238809 0.103001 0.627588
0.308234 0.106834 0.687916
0.391585 0.111184 0.747646
0.512910 0.109874 0.748587
0.634783 0.108902 0.749488
0.748169 0.108269 0.750349
0.832440 0.107976 0.751172
0.874409 0.108025 0.751956
0.183854 0.169751 0.580232
0.236911 0.172514 0.626355
0.307945 0.177097 0.688062
0.392115 0.182329 0.750653
0.515809 0.181531 0.751462
0.639816 0.181027 0.752233
0.754465 0.180820 0.752968
0.838625 0.180912 0.753668
0.881706 0.181305 0.754334
0.184654 0.266517 0.581299
0.237042 0.270422 0.626826
0.309222 0.276250 0.689512
0.394339 0.282717 0.753227
0.519606 0.282949 0.753914
0.644956 0.283422 0.754569
0.760107 0.284138 0.755191
0.843765 0.285099 0.755783
0.887792 0.286308 0.756347
0.187914 0.382223 0.584447
0.239269 0.386961 0.629064
0.312132 0.393707 0.692327
0.398326 0.400935 0.755410
0.524364 0.401893 0.755992
0.650214 0.402943 0.756545
0.765060 0.403824 0.757072
0.847965 0.404891 0.757576
0.892919 0.406146 0.758057
0.193661 0.508343 0.589704
0.243656 0.513523 0.633130
0.316501 0.520587 0.696365
0.403398 0.527746 0.757258
0.529268 0.528752 0.757753
0.655036 0.529875 0.758227
0.769344 0.531117 0.758682
0.851304 0.532480 0.759118
0.897008 0.533967 0.759539
0.200856 0.635437 0.596177
0.248808 0.640442 0.637820
0.321465 0.647596 0.700875
0.409549 0.654661 0.758842
0.535044 0.655770 0.759273
0.660206 0.656931 0.759689
0.773226 0.658146 0.760092
0.853850 0.659417 0.760485
0.900117 0.660747 0.760869
0.209835 0.752894 0.604164
0.256070 0.757232 0.644310
0.328314 0.763487 0.706934
0.417747 0.769165 0.760236
0.542068 0.769915 0.760625
0.665821 0.770655 0.761007
0.776800 0.771388 0.761383
0.855688 0.772116 0.761757
0.902317 0.772844 0.762130
0.221432 0.838216 0.614398
0.265737 0.841302 0.652866
0.337130 0.845944 0.714568
0.428082 0.849698 0.761520
0.550441 0.849929 0.761893
0.671990 0.850117 0.762266
0.780174 0.850265 0.762643
0.856917 0.850375 0.763025
0.903678 0.850449 0.763416
0.235672 0.887815 0.626912
0.277875 0.890336 0.663555
0.347992 0.894135 0.723782
0.440644 0.896780 0.762781
0.560267 0.896987 0.763166
0.678835 0.897133 0.763561
0.783467 0.897219 0.763967
0.857642 0.897238 0.764387
0.904238 0.897166 0.764822
0.213218 0.094429 0.615756
0.266812 0.096614 0.662463
0.336682 0.100525 0.722702
0.416921 0.105663 0.785035
0.513164 0.109506 0.826657
0.635287 0.108649 0.827890
0.748835 0.108132 0.829048
0.833114 0.107955 0.830132
0.875202 0.108120 0.831143
0.212700 0.163383 0.616054
0.265930 0.166195 0.662409
0.337308 0.170849 0.723864
0.419119 0.176689 0.787144
0.516150 0.181326 0.830508
0.640329 0.180923 0.831493
0.755063 0.180818 0.832407
0.839190 0.181012 0.833250
0.882374 0.181507 0.834023
0.214432 0.260447 0.618180
0.266899 0.264392 0.663837
0.339320 0.270279 0.726047
0.422178 0.277302 0.789753
0.520041 0.283082 0.833539
0.645483 0.283638 0.834288
0.760643 0.284437 0.834969
0.844229 0.285482 0.835584
0.888351 0.286678 0.836147
0.218438 0.376396 0.622155
0.269779 0.381161 0.666800
0.342777 0.387953 0.729288
0.426152 0.395812 0.792893
0.524900 0.402258 0.835792
0.650688 0.403221 0.836359
0.765513 0.404165 0.836899
0.848340 0.405296 0.837378
0.893378 0.406615 0.837798
0.224735 0.502674 0.627996
0.274627 0.507868 0.671349
0.347386 0.514843 0.733343
0.430529 0.522790 0.796214
0.529798 0.529120 0.837538
0.655541 0.530283 0.837936
0.769753 0.531566 0.838276
0.851596 0.532971 0.838560
0.897365 0.534501 0.838790
0.232171 0.629747 0.634737
0.279983 0.634749 0.676266
0.352622 0.641917 0.737794
0.435540 0.650014 0.799872
0.535695 0.656159 0.838650
0.660751 0.657337 0.838860
0.773599 0.658571 0.839018
0.854066 0.659862 0.839125
0.900379 0.661213 0.839183
0.241414 0.747699 0.642951
0.287424 0.752072 0.682886
0.359543 0.758399 0.743449
0.441720 0.765391 0.804214
0.542850 0.770167 0.839152
0.666416 0.770904 0.839192
0.777148 0.771635 0.839186
0.855838 0.772363 0.839136
0.902491 0.773091 0.839044
0.253069 0.834019 0.653156
0.297066 0.837132 0.691318
0.368228 0.841833 0.750335
0.449157 0.847005 0.809281
0.551365 0.849998 0.839107
0.672648 0.850172 0.839000
0.780508 0.850307 0.838852
0.857012 0.850404 0.838668
0.903772 0.850467 0.838448
0.267158 0.884472 0.665382
0.308976 0.887019 0.701617
0.378757 0.890873 0.758463
0.457945 0.895052 0.815109
0.561344 0.897043 0.838592
0.679568 0.897169 0.838360
0.783799 0.897234 0.838096
0.857688 0.897220 0.837781
0.904249 0.897130 0.837423
0.227747 0.090653 0.633911
0.281690 0.092879 0.681055
0.352096 0.096850 0.740701
0.432876 0.102049 0.801136
0.519069 0.108056 0.855906
0.635792 0.108435 0.865138
0.749495 0.108033 0.866829
0.833776 0.107972 0.868433
0.875983 0.108253 0.869953
0.228673 0.159613 0.635902
0.282194 0.162451 0.682637
0.354043 0.167147 0.743265
0.436323 0.173033 0.804344
0.523942 0.179678 0.859356
0.640843 0.180854 0.870485
0.755655 0.180850 0.871889
0.839745 0.181146 0.873209
0.883030 0.181744 0.874447
0.231789 0.256879 0.639648
0.284488 0.260833 0.685625
0.357309 0.266747 0.746720
0.440557 0.273797 0.807938
0.529040 0.281544 0.862784
0.646011 0.283882 0.874877
0.761172 0.284764 0.876004
0.844682 0.285893 0.877050
0.888908 0.286982 0.878071
0.237101 0.372952 0.645144
0.288612 0.377708 0.690045
0.361934 0.384507 0.751071
0.445615 0.392375 0.811925
0.534398 0.400866 0.866205
0.651164 0.403521 0.878442
0.765962 0.404528 0.879408
0.848707 0.405723 0.880298
0.893827 0.407107 0.881112
0.244607 0.499251 0.652386
0.294497 0.504331 0.695838
0.367500 0.511257 0.755989
0.450912 0.519192 0.815937
0.539457 0.527690 0.869355
0.656049 0.530705 0.881390
0.770157 0.532029 0.882103
0.851880 0.533476 0.882744
0.897712 0.535049 0.883311
0.253017 0.626150 0.660305
0.300909 0.631105 0.701980
0.373756 0.638240 0.761281
0.456850 0.646307 0.820218
0.544895 0.654857 0.872569
0.661300 0.657750 0.883500
0.773969 0.659003 0.883971
0.854275 0.660314 0.884372
0.900632 0.661686 0.884704
0.263300 0.744239 0.669708
0.309325 0.748587 0.709607
0.381562 0.754916 0.767542
0.463817 0.761920 0.824989
0.550807 0.769172 0.875891
0.667018 0.771153 0.884808
0.777494 0.771883 0.885048
0.855982 0.772610 0.885221
0.902657 0.773338 0.885329
0.275848 0.831075 0.680920
0.319793 0.834165 0.718696
0.390980 0.838868 0.774774
0.471885 0.844050 0.830273
0.557272 0.849372 0.879357
0.673314 0.850222 0.885352
0.780841 0.850344 0.885373
0.857101 0.850429 0.885330
0.903858 0.850481 0.885226
0.290664 0.882044 0.693946
0.332361 0.884574 0.729207
0.402072 0.888433 0.782971
0.481131 0.892624 0.836090
0.564382 0.896873 0.883008
0.680310 0.897197 0.885173
0.784133 0.897244 0.884987
0.857731 0.897195 0.884695
0.904252 0.897087 0.884340
