design/lut/jc-grade-band.cube
TITLE "JC Alvarez — band"
LUT_3D_SIZE 9
DOMAIN_MIN 0 0 0
DOMAIN_MAX 1 1 1
0.088430 0.139183 0.166949
0.166729 0.144162 0.171636
0.222493 0.146346 0.189800
0.261133 0.146435 0.218085
0.301265 0.146326 0.247428
0.342012 0.146146 0.277208
0.382501 0.146025 0.306811
0.421869 0.146090 0.335624
0.459256 0.146467 0.363042
0.106588 0.225133 0.182791
0.186268 0.230532 0.187540
0.241319 0.232981 0.206457
0.280156 0.233450 0.234894
0.320309 0.233737 0.264263
0.360906 0.233970 0.293949
0.401081 0.234274 0.323341
0.439976 0.234778 0.351831
0.476737 0.235607 0.378817
0.124969 0.320289 0.198833
0.205926 0.325930 0.203638
0.260283 0.328475 0.223251
0.299278 0.329153 0.251810
0.339414 0.329664 0.281178
0.379825 0.330135 0.310744
0.419653 0.330694 0.339900
0.458043 0.331465 0.368043
0.494149 0.332574 0.394576
0.143553 0.421386 0.215056
0.225683 0.427097 0.219910
0.279365 0.429580 0.240164
0.318478 0.430300 0.268817
0.358560 0.430870 0.298156
0.398751 0.431416 0.327575
0.438198 0.432065 0.356471
0.475837 0.432724 0.384030
0.510045 0.432589 0.408845
0.162316 0.525229 0.231440
0.245518 0.530847 0.236338
0.298543 0.533115 0.257177
0.337736 0.533721 0.285894
0.376838 0.533666 0.314347
0.415281 0.533124 0.342156
0.453091 0.532699 0.369527
0.489406 0.532520 0.395849
0.523361 0.532712 0.420513
0.181237 0.628696 0.247965
0.263601 0.633487 0.251274
0.314179 0.634746 0.270992
0.351887 0.634438 0.298293
0.390506 0.634012 0.326246
0.429182 0.633595 0.354247
0.467054 0.633312 0.381688
0.503257 0.633293 0.407959
0.536919 0.633664 0.432442
0.192882 0.727693 0.258758
0.276913 0.732393 0.261988
0.327339 0.733490 0.282569
0.365569 0.733125 0.310266
0.404551 0.732657 0.338502
0.443424 0.732213 0.366669
0.481324 0.731919 0.394156
0.517377 0.731903 0.420346
0.550705 0.732292 0.444620
0.204747 0.816664 0.269774
0.290644 0.820680 0.273131
0.340926 0.821379 0.294537
0.379648 0.820859 0.322608
0.418960 0.820262 0.351103
0.457997 0.819699 0.379412
0.495886 0.819283 0.406917
0.531750 0.819127 0.433000
0.564705 0.819346 0.457035
0.217084 0.888971 0.281214
0.304780 0.892245 0.284694
0.354929 0.892492 0.306888
0.394112 0.891731 0.335310
0.433721 0.890912 0.364040
0.472885 0.890134 0.392464
0.510727 0.889497 0.419961
0.546363 0.889102 0.445907
0.578902 0.889051 0.469674
0.090253 0.140872 0.233539
0.168696 0.145858 0.238596
0.255643 0.150864 0.243663
0.308835 0.152273 0.266023
0.349206 0.152192 0.295608
0.390169 0.152042 0.325612
0.430854 0.151953 0.355422
0.470395 0.152051 0.384426
0.507934 0.152462 0.412017
0.108434 0.226965 0.250593
0.188247 0.232368 0.255685
0.276074 0.237781 0.260786
0.328640 0.239493 0.283623
0.369010 0.239804 0.313213
0.409802 0.240061 0.343102
0.450151 0.240393 0.372680
0.489199 0.240926 0.401341
0.526092 0.241785 0.428481
0.126837 0.322205 0.267758
0.207916 0.327845 0.272879
0.296523 0.333486 0.278007
0.348482 0.335335 0.301267
0.388814 0.335865 0.330836
0.429400 0.336358 0.360584
0.469380 0.336939 0.389906
0.507902 0.337735 0.418200
0.544119 0.338870 0.444867
0.145439 0.423327 0.285015
0.227682 0.429034 0.290160
0.316972 0.434733 0.295310
0.368341 0.436559 0.318940
0.408598 0.437144 0.348460
0.448942 0.437707 0.378042
0.488521 0.438375 0.407084
0.525900 0.438602 0.434405
0.560418 0.438512 0.459544
0.164219 0.527139 0.302345
0.247524 0.532751 0.307509
0.337401 0.538346 0.312676
0.388198 0.539996 0.336624
0.427028 0.539630 0.364850
0.465830 0.539122 0.393017
0.503977 0.538734 0.420729
0.540610 0.538594 0.447377
0.574859 0.538828 0.472350
0.182628 0.630372 0.319369
0.264926 0.635091 0.322967
0.353960 0.639823 0.326599
0.402860 0.640521 0.349594
0.441842 0.640125 0.377904
0.480862 0.639739 0.406248
0.519057 0.639490 0.434017
0.555562 0.639506 0.460599
0.589503 0.639915 0.485377
0.194058 0.729292 0.331606
0.278281 0.733983 0.335317
0.368852 0.738650 0.339060
0.417663 0.739220 0.362696
0.456994 0.738781 0.391276
0.496196 0.738368 0.419772
0.534403 0.738106 0.447572
0.570742 0.738122 0.474059
0.604334 0.738543 0.498613
0.205971 0.818031 0.344219
0.292053 0.822037 0.348040
0.384091 0.826012 0.351892
0.432824 0.826273 0.376127
0.472469 0.825701 0.404952
0.511819 0.825164 0.433575
0.550000 0.824774 0.461379
0.586134 0.824645 0.487743
0.619336 0.824889 0.512043
0.218355 0.890086 0.357198
0.306229 0.893349 0.361125
0.399662 0.896579 0.365083
0.448328 0.896468 0.389876
0.488255 0.895671 0.418922
0.527717 0.894917 0.447645
0.565834 0.894303 0.475426
0.601723 0.893931 0.501638
0.634494 0.893901 0.525654
0.106595 0.139846 0.280608
0.170663 0.147556 0.312755
0.257704 0.152568 0.318064
0.350864 0.157600 0.323376
0.401887 0.158489 0.348575
0.442983 0.158362 0.378720
0.483780 0.158297 0.408652
0.523411 0.158421 0.437763
0.561021 0.158859 0.465446
0.125328 0.225983 0.297492
0.190228 0.234205 0.330625
0.278138 0.239621 0.335942
0.371691 0.245046 0.341260
0.422174 0.246276 0.366669
0.463079 0.246551 0.396679
0.503519 0.246903 0.426361
0.542637 0.247457 0.455109
0.579580 0.248338 0.482321
0.144222 0.321216 0.314508
0.209908 0.329761 0.348516
0.298588 0.335402 0.353835
0.392442 0.341043 0.359154
0.442401 0.342446 0.384722
0.483079 0.342952 0.414572
0.523131 0.343549 0.443979
0.561704 0.344363 0.472341
0.597953 0.345516 0.499060
0.163258 0.422284 0.331637
0.229682 0.430970 0.366409
0.319035 0.436667 0.371725
0.413098 0.442354 0.377041
0.462551 0.443772 0.402718
0.502968 0.444345 0.432382
0.542599 0.445024 0.461489
0.579768 0.444827 0.488624
0.614530 0.444775 0.514020
0.182413 0.525998 0.348859
0.249531 0.534653 0.384287
0.339461 0.540242 0.389597
0.433349 0.545621 0.394633
0.481001 0.545937 0.419174
0.520094 0.545458 0.447630
0.558513 0.545101 0.475616
0.595395 0.544994 0.502523
0.629873 0.545263 0.527737
0.200494 0.628841 0.365141
0.266254 0.636697 0.400082
0.355447 0.641432 0.404110
0.449119 0.646178 0.408166
0.496737 0.646561 0.433157
0.536033 0.646201 0.461776
0.574483 0.645979 0.489804
0.611222 0.646025 0.516629
0.645375 0.646466 0.541633
0.213080 0.727565 0.376664
0.279652 0.735571 0.413744
0.370375 0.740229 0.417866
0.465173 0.744863 0.422016
0.512769 0.745153 0.447415
0.552231 0.744765 0.476171
0.590677 0.744528 0.504215
0.627233 0.744569 0.530929
0.661020 0.745014 0.555694
0.226108 0.816283 0.388574
0.293465 0.823390 0.427719
0.385648 0.827355 0.431932
0.481496 0.831288 0.436170
0.529081 0.831333 0.461934
0.568674 0.830817 0.490801
0.607078 0.830448 0.518833
0.643412 0.830339 0.545409
0.676792 0.830602 0.569903
0.239568 0.888314 0.400860
0.307683 0.894450 0.441994
0.401252 0.897668 0.446293
0.498074 0.900851 0.450618
0.545658 0.900578 0.476702
0.585347 0.899842 0.505654
0.623670 0.899247 0.533647
0.659743 0.898893 0.560055
0.692673 0.898878 0.584248
0.134494 0.137000 0.311787
0.191427 0.145738 0.357520
0.259766 0.154275 0.397701
0.352969 0.159313 0.403130
0.449926 0.164368 0.408553
0.499183 0.164991 0.435247
0.540011 0.164942 0.465222
0.579653 0.165085 0.494359
0.617253 0.165544 0.522051
0.153381 0.222913 0.328841
0.211253 0.232479 0.375317
0.280202 0.241462 0.415943
0.373790 0.246890 0.421354
0.470671 0.252326 0.426758
0.519472 0.253324 0.453405
0.559924 0.253688 0.483110
0.599033 0.254256 0.511865
0.635948 0.255154 0.539069
0.172401 0.318207 0.345994
0.231139 0.328076 0.393153
0.300652 0.337318 0.434120
0.394532 0.342958 0.439508
0.491250 0.348598 0.444888
0.539610 0.349805 0.471439
0.579655 0.350411 0.500851
0.618200 0.351234 0.529202
0.654401 0.352399 0.555896
0.191534 0.419283 0.363228
0.251064 0.429278 0.411012
0.321099 0.438599 0.452214
0.415177 0.444284 0.457575
0.511646 0.449958 0.462927
0.559582 0.451216 0.489336
0.599023 0.451669 0.518275
0.636207 0.451289 0.545440
0.671145 0.451269 0.571023
0.210759 0.522955 0.380525
0.271008 0.532909 0.428876
0.341521 0.542137 0.470212
0.434927 0.547186 0.474972
0.530139 0.551809 0.479266
0.576837 0.552021 0.504747
0.615458 0.551689 0.532938
0.652520 0.551608 0.560032
0.687157 0.551906 0.585418
0.228268 0.625458 0.396343
0.287595 0.634559 0.443843
0.356938 0.643043 0.485160
0.450727 0.647792 0.489509
0.546718 0.652553 0.493879
0.593450 0.652866 0.519573
0.632086 0.652667 0.547790
0.668988 0.652736 0.574786
0.703282 0.653202 0.599945
0.241223 0.724128 0.408272
0.301913 0.733295 0.456862
0.371901 0.741806 0.499876
0.466809 0.746431 0.504298
0.563500 0.751031 0.508741
0.610277 0.751285 0.534601
0.648891 0.751068 0.562817
0.685593 0.751128 0.589687
0.719489 0.751590 0.614590
0.254597 0.813147 0.420563
0.316604 0.821194 0.470204
0.387208 0.828694 0.514835
0.483159 0.832617 0.519327
0.580467 0.836509 0.523838
0.627302 0.836553 0.549818
0.665856 0.836200 0.578006
0.702318 0.836105 0.604720
0.735545 0.836381 0.629336
0.268380 0.885428 0.433204
0.331655 0.892318 0.483858
0.402845 0.898753 0.530024
0.499761 0.901925 0.534581
0.597604 0.905063 0.539157
0.644509 0.904818 0.565209
0.682965 0.904237 0.593341
0.719135 0.903895 0.619870
0.751387 0.903866 0.644206
0.163611 0.137000 0.344345
0.220648 0.142340 0.390163
0.283530 0.151922 0.440611
0.355074 0.161028 0.486168
0.452027 0.166089 0.491588
0.550384 0.171169 0.496996
0.598283 0.171775 0.523853
0.637857 0.171928 0.552937
0.675370 0.172401 0.580562
0.182524 0.219641 0.361423
0.240485 0.229218 0.407969
0.303949 0.239246 0.458873
0.375887 0.248735 0.504353
0.472756 0.254174 0.509731
0.570587 0.259620 0.515096
0.618109 0.260636 0.541657
0.657133 0.261212 0.570342
0.693942 0.262118 0.597460
0.201543 0.315019 0.378569
0.260354 0.324896 0.425784
0.324328 0.335188 0.477088
0.396620 0.344874 0.522391
0.493317 0.350513 0.527723
0.590538 0.356151 0.533040
0.637701 0.357410 0.559262
0.676143 0.358236 0.587526
0.712221 0.359407 0.614116
0.220647 0.416126 0.395767
0.280236 0.426127 0.443592
0.344651 0.436508 0.495240
0.417255 0.446212 0.540269
0.513694 0.451883 0.545550
0.610224 0.457545 0.550815
0.656670 0.458230 0.576307
0.693981 0.457874 0.603604
0.728903 0.457880 0.629303
0.239817 0.519777 0.412997
0.300111 0.529735 0.461376
0.364899 0.540039 0.513314
0.436509 0.548754 0.557300
0.531803 0.553382 0.561798
0.627433 0.558029 0.566313
0.673570 0.558384 0.591438
0.710741 0.558323 0.618649
0.744917 0.558644 0.644133
0.256701 0.621954 0.428289
0.316232 0.631057 0.475975
0.380404 0.640542 0.527340
0.452338 0.649408 0.572498
0.548403 0.654172 0.577051
0.644375 0.658945 0.581621
0.690615 0.659439 0.606710
0.727510 0.659524 0.633806
0.760682 0.660010 0.659046
0.269908 0.720588 0.440494
0.330792 0.729782 0.489257
0.396042 0.739231 0.541483
0.468448 0.747996 0.587879
0.565204 0.752587 0.592484
0.661431 0.757152 0.597104
0.707787 0.757611 0.622108
0.744046 0.757683 0.649060
0.776178 0.758156 0.674026
0.283512 0.809924 0.453033
0.345700 0.818011 0.502836
0.411979 0.826273 0.555882
0.484823 0.833942 0.603429
0.582190 0.837823 0.608082
0.678586 0.841672 0.612748
0.725006 0.841929 0.637617
0.760319 0.841843 0.664396
0.791386 0.842126 0.689057
0.297500 0.882478 0.465896
0.360944 0.889406 0.516700
0.428199 0.896457 0.570525
0.501450 0.902995 0.619133
0.599343 0.906121 0.623829
0.695820 0.909213 0.628537
0.741999 0.909184 0.653222
0.776308 0.908850 0.679797
0.806326 0.908776 0.704179
0.193328 0.137000 0.377583
0.250432 0.138839 0.423443
0.313343 0.148438 0.473903
0.380431 0.158392 0.527670
0.454127 0.167812 0.575967
0.552435 0.172898 0.581255
0.649819 0.177999 0.586524
0.696764 0.178838 0.612226
0.733895 0.179317 0.639706
0.212142 0.216282 0.394543
0.270155 0.225876 0.441117
0.333634 0.235920 0.492019
0.400956 0.246281 0.545965
0.474840 0.256023 0.593680
0.572613 0.261471 0.598904
0.669034 0.266927 0.604107
0.715683 0.268209 0.629276
0.751496 0.269117 0.656233
0.231036 0.311766 0.411543
0.289885 0.321658 0.458772
0.353860 0.331963 0.510060
0.421351 0.342551 0.564132
0.495383 0.352428 0.611172
0.592538 0.358065 0.616327
0.687919 0.363700 0.621461
0.734065 0.365257 0.646054
0.768398 0.366425 0.672468
0.249990 0.412924 0.428566
0.309602 0.422939 0.476391
0.374004 0.433331 0.528011
0.441599 0.443971 0.582156
0.515740 0.453807 0.628429
0.612196 0.459465 0.633511
0.706043 0.464045 0.638162
0.751053 0.464470 0.661864
0.783923 0.464495 0.687604
0.268984 0.516577 0.445594
0.329287 0.526547 0.493959
0.393741 0.536632 0.545598
0.460268 0.546173 0.598836
0.533469 0.554958 0.644429
0.629137 0.559611 0.649035
0.722804 0.564280 0.653652
0.767124 0.565027 0.677111
0.799010 0.565363 0.702619
0.285192 0.618442 0.460302
0.344892 0.627554 0.508132
0.409203 0.637045 0.559617
0.476567 0.646792 0.613523
0.550090 0.655792 0.659965
0.646091 0.660569 0.664605
0.739322 0.665355 0.669253
0.782916 0.666278 0.692419
0.813790 0.666776 0.717665
0.298533 0.717061 0.472646
0.359574 0.726274 0.521543
0.424952 0.735769 0.573877
0.493099 0.745370 0.628406
0.566911 0.754140 0.675608
0.663159 0.758696 0.680276
0.755538 0.763225 0.684952
0.798408 0.764126 0.707771
0.828249 0.764603 0.732706
0.312246 0.806716 0.485297
0.374579 0.814847 0.535221
0.440972 0.823154 0.588363
0.509847 0.831515 0.643473
0.583914 0.839134 0.691341
0.680322 0.842971 0.696033
0.771430 0.846777 0.700731
0.813581 0.847455 0.723152
0.842369 0.847739 0.747514
0.326317 0.879555 0.498243
0.389894 0.886526 0.549155
0.457250 0.893619 0.603063
0.526797 0.900728 0.658707
0.601083 0.907175 0.707148
0.697563 0.910255 0.711859
0.786982 0.913301 0.716575
0.828420 0.913671 0.738463
0.856126 0.913542 0.762017
0.223030 0.137000 0.410803
0.280163 0.137000 0.456663
0.343067 0.144974 0.507093
0.410112 0.154950 0.560802
0.479677 0.165148 0.616505
0.554483 0.174628 0.664927
0.651773 0.179736 0.669964
0.745270 0.184859 0.674976
0.788776 0.186178 0.698218
0.241624 0.212950 0.427508
0.299652 0.222568 0.474069
0.363109 0.232633 0.524928
0.430376 0.243014 0.578803
0.499842 0.253582 0.634418
0.574636 0.263324 0.681772
0.670956 0.268782 0.686723
0.762252 0.274246 0.691648
0.804617 0.276039 0.714127
0.260273 0.308560 0.444226
0.319123 0.318474 0.491428
0.383063 0.328799 0.542661
0.450485 0.339403 0.596648
0.519790 0.350160 0.652126
0.594535 0.359979 0.698323
0.689807 0.365613 0.703185
0.778498 0.371245 0.708020
0.819765 0.373344 0.729694
0.278958 0.409793 0.460940
0.338557 0.419827 0.508725
0.402912 0.430236 0.560276
0.470423 0.440891 0.614325
0.539505 0.451664 0.669615
0.614005 0.461137 0.714530
0.707736 0.465545 0.719109
0.793691 0.469976 0.723693
0.834061 0.471003 0.744477
0.297660 0.513467 0.477632
0.357936 0.523455 0.525944
0.421912 0.533199 0.577171
0.488523 0.542754 0.630476
0.556880 0.552467 0.685164
0.630843 0.561195 0.729948
0.724484 0.565870 0.734512
0.808301 0.570562 0.739052
0.848007 0.571951 0.758944
0.313141 0.615033 0.491698
0.372974 0.624160 0.539632
0.437386 0.633666 0.591196
0.504822 0.643424 0.645155
0.573711 0.653308 0.700267
0.647810 0.662193 0.745205
0.740973 0.666983 0.749687
0.822558 0.671781 0.754143
0.861604 0.673385 0.773102
0.326493 0.713659 0.504043
0.387653 0.722886 0.553030
0.453121 0.732430 0.605431
0.521326 0.742081 0.660001
0.590690 0.751706 0.715490
0.664888 0.760237 0.760179
0.757157 0.764757 0.764573
0.836447 0.769249 0.768939
0.874840 0.770823 0.786937
0.340190 0.803625 0.516665
0.402630 0.811805 0.566667
0.469100 0.820160 0.619862
0.538020 0.828569 0.674999
0.607800 0.836915 0.730809
0.682060 0.844267 0.774851
0.773016 0.848062 0.779152
0.849957 0.851824 0.783425
0.887703 0.853127 0.800434
0.354217 0.876751 0.529550
0.417889 0.883767 0.580528
0.485309 0.890906 0.634476
0.554887 0.898060 0.690135
0.625023 0.905127 0.746005
0.699307 0.911293 0.789206
0.788532 0.914327 0.793410
0.863065 0.917294 0.797576
0.900081 0.918084 0.813488
0.252102 0.137000 0.443308
0.309229 0.137000 0.489129
0.372090 0.141643 0.539489
0.439056 0.151647 0.593099
0.508509 0.161871 0.648676
0.578841 0.172185 0.704946
0.653725 0.181474 0.750545
0.747018 0.186602 0.755062
0.827589 0.191746 0.759520
0.270358 0.209759 0.459626
0.328366 0.219408 0.506133
0.391767 0.229501 0.556910
0.458942 0.239908 0.610674
0.528283 0.250499 0.666151
0.598194 0.261145 0.722075
0.672874 0.270637 0.765510
0.763925 0.276103 0.769834
0.841196 0.281576 0.774102
0.288647 0.305517 0.475930
0.347463 0.315459 0.523066
0.411334 0.325809 0.574204
0.478651 0.336437 0.628069
0.547818 0.347215 0.683395
0.617249 0.358014 0.738841
0.691691 0.367526 0.779832
0.780098 0.373157 0.783966
0.854134 0.378518 0.788054
0.306948 0.406843 0.492205
0.366501 0.416903 0.539912
0.430773 0.427335 0.591355
0.498168 0.438011 0.645269
0.567099 0.448803 0.700397
0.635701 0.458887 0.754764
0.709431 0.467047 0.793630
0.795181 0.471486 0.797685
0.866760 0.475950 0.801712
0.325244 0.510560 0.508435
0.385461 0.520571 0.556656
0.448988 0.529974 0.607503
0.515646 0.539549 0.660831
0.584018 0.549280 0.715517
0.652533 0.559040 0.769133
0.726162 0.567462 0.807159
0.809757 0.572160 0.811118
0.879005 0.576874 0.815047
0.339946 0.611841 0.521797
0.399872 0.620990 0.569791
0.464349 0.630516 0.621390
0.531818 0.640293 0.675360
0.600708 0.650194 0.730449
0.669440 0.660092 0.783263
0.742621 0.668611 0.820359
0.823977 0.673412 0.824217
0.890857 0.678222 0.828045
0.353182 0.710497 0.533998
0.414423 0.719745 0.583033
0.479941 0.729328 0.635456
0.548167 0.739033 0.690023
0.617518 0.748710 0.745271
0.686404 0.758233 0.797136
0.758773 0.766285 0.833217
0.837829 0.770768 0.836971
0.902310 0.775223 0.840694
0.366734 0.800756 0.546445
0.429242 0.808989 0.596481
0.495750 0.817395 0.649686
0.564676 0.825854 0.704806
0.634429 0.834249 0.759872
0.703406 0.842469 0.810734
0.774598 0.849343 0.845722
0.851299 0.853094 0.849369
0.913356 0.856811 0.852984
0.380589 0.874158 0.559124
0.444315 0.881223 0.610122
0.511759 0.888410 0.664066
0.581330 0.895610 0.719694
0.651424 0.902723 0.774235
0.720408 0.909649 0.824042
0.790079 0.915350 0.857863
0.864350 0.918250 0.861325
0.923777 0.921037 0.864683
0.279931 0.137000 0.474405
0.337017 0.137000 0.520146
0.399801 0.138559 0.570398
0.466654 0.148598 0.623871
0.535960 0.158854 0.679284
0.606112 0.169197 0.735320
0.675514 0.179500 0.788259
0.748759 0.188348 0.824775
0.828994 0.193497 0.828399
0.297736 0.206823 0.490206
0.355690 0.216509 0.536622
0.419001 0.226636 0.587278
0.486050 0.237075 0.640892
0.555232 0.247695 0.696193
0.624951 0.258369 0.751527
0.693621 0.268968 0.802757
0.765591 0.277961 0.836754
0.842531 0.283435 0.840198
0.315551 0.302749 0.505970
0.374301 0.312725 0.553002
0.438068 0.323107 0.604006
0.505248 0.333764 0.657710
0.574244 0.344568 0.712849
0.643472 0.355393 0.767099
0.711357 0.366110 0.816627
0.781691 0.375068 0.848134
0.855425 0.379905 0.851537
0.333359 0.404188 0.521681
0.392831 0.414280 0.569271
0.456988 0.424741 0.620570
0.524233 0.435444 0.674311
0.592982 0.446261 0.729238
0.661264 0.455917 0.781782
0.728190 0.465338 0.829665
0.796668 0.473000 0.859743
0.868014 0.477471 0.863162
0.351140 0.507968 0.537323
0.410944 0.517745 0.585171
0.474368 0.527069 0.635911
0.541033 0.536672 0.689219
0.609381 0.546428 0.743684
0.677839 0.556211 0.795334
0.744301 0.565895 0.842169
0.811208 0.573759 0.871119
0.880219 0.578478 0.874430
0.365001 0.608978 0.549912
0.424983 0.618157 0.597922
0.489484 0.627711 0.649513
0.556947 0.637513 0.703449
0.625799 0.647438 0.757863
0.694459 0.657358 0.808626
0.760080 0.667144 0.854371
0.825392 0.675045 0.882130
0.892032 0.679857 0.885332
0.377991 0.707687 0.561823
0.439274 0.716963 0.610860
0.504803 0.726582 0.663261
0.573008 0.736344 0.717780
0.642307 0.746075 0.771819
0.711106 0.755649 0.821642
0.775512 0.764945 0.866257
0.839206 0.772284 0.892771
0.903444 0.776730 0.895862
0.391266 0.798217 0.573945
0.453803 0.806504 0.623971
0.520308 0.814964 0.677139
0.589200 0.823475 0.732182
0.658886 0.831920 0.785534
0.727662 0.840187 0.834368
0.790579 0.848170 0.877817
0.852637 0.854360 0.903035
0.914448 0.858066 0.906013
0.404815 0.871874 0.586265
0.468556 0.878989 0.637240
0.535984 0.886225 0.691133
0.605505 0.893473 0.746444
0.675517 0.900631 0.798991
0.743895 0.907601 0.846789
0.805266 0.914290 0.889040
0.865630 0.919201 0.912735
0.924778 0.921974 0.915385
