design/lut/jc-grade-deep.cube
TITLE "JC Alvarez — deep"
LUT_3D_SIZE 5
DOMAIN_MIN 0 0 0
DOMAIN_MAX 1 1 1
0.048383 0.050270 0.054092
0.186004 0.058831 0.078278
0.267640 0.059208 0.143721
0.352722 0.059208 0.211856
0.433010 0.060115 0.276313
0.087431 0.246040 0.091464
0.227316 0.256355 0.118180
0.309869 0.258713 0.184423
0.394079 0.260854 0.251972
0.471813 0.264045 0.314538
0.127974 0.474609 0.130300
0.269637 0.484802 0.159152
0.351791 0.486724 0.224948
0.432081 0.487059 0.288730
0.505213 0.488630 0.347025
0.162534 0.701859 0.164113
0.303224 0.709616 0.191531
0.384635 0.709876 0.256288
0.465291 0.710270 0.320506
0.536949 0.712070 0.377812
0.191525 0.883265 0.193363
0.336153 0.887898 0.223294
0.419286 0.886538 0.289528
0.499889 0.885413 0.353848
0.569611 0.885574 0.409798
0.065123 0.051517 0.181366
0.218548 0.065369 0.220372
0.369038 0.072386 0.255212
0.455174 0.072559 0.324546
0.536287 0.073656 0.390004
0.105979 0.247711 0.221801
0.264266 0.264022 0.264276
0.414883 0.272915 0.299920
0.499910 0.275176 0.368417
0.578237 0.278504 0.431738
0.147981 0.476109 0.263275
0.310308 0.492880 0.308497
0.459041 0.500580 0.343020
0.540818 0.501083 0.408443
0.615211 0.502847 0.468191
0.183168 0.702276 0.298247
0.346909 0.717316 0.344993
0.496722 0.723974 0.379697
0.578680 0.724486 0.445364
0.651407 0.726406 0.503925
0.214824 0.882763 0.329875
0.383807 0.893949 0.381987
0.535702 0.897790 0.417715
0.617414 0.896745 0.483284
0.688008 0.896983 0.540285
0.123774 0.048000 0.253098
0.244858 0.064929 0.359670
0.419926 0.080730 0.417216
0.573621 0.087461 0.454921
0.654727 0.088669 0.520462
0.165339 0.241290 0.294371
0.290849 0.264234 0.404764
0.467155 0.282055 0.462598
0.618973 0.290771 0.499494
0.697080 0.294159 0.562672
0.207730 0.469716 0.336291
0.336848 0.493148 0.449789
0.511621 0.509195 0.505759
0.660706 0.516188 0.540485
0.735136 0.518073 0.600873
0.242567 0.695007 0.371178
0.373834 0.716658 0.486369
0.551129 0.732522 0.545308
0.700739 0.739304 0.579808
0.771456 0.741269 0.638793
0.275420 0.876234 0.404226
0.412053 0.892746 0.524096
0.591371 0.904286 0.585575
0.740404 0.908334 0.619501
0.806284 0.908506 0.676756
0.185612 0.048000 0.328777
0.307006 0.057394 0.435552
0.448856 0.079873 0.560054
0.629112 0.096335 0.621705
0.774030 0.104024 0.654656
0.226590 0.234500 0.369280
0.352246 0.257540 0.479703
0.494913 0.282063 0.604864
0.673003 0.300124 0.663819
0.810662 0.309892 0.694458
0.268100 0.463193 0.410075
0.396494 0.486088 0.522803
0.537899 0.508716 0.646772
0.713275 0.524841 0.703575
0.843999 0.533186 0.731505
0.301605 0.687812 0.443654
0.433391 0.709602 0.559280
0.577604 0.732026 0.685682
0.751234 0.747463 0.741636
0.875497 0.755551 0.766734
0.334383 0.869903 0.476547
0.471388 0.886585 0.596690
0.617732 0.903392 0.724518
0.787458 0.914270 0.777934
0.904927 0.919282 0.799890
0.244879 0.048000 0.401263
0.366207 0.050461 0.507777
0.507618 0.073111 0.631686
0.653824 0.096316 0.757765
0.816368 0.112166 0.804901
0.284039 0.228471 0.439471
0.409473 0.251677 0.549470
0.551554 0.276339 0.673883
0.695191 0.301167 0.794442
0.847755 0.317395 0.835062
0.323466 0.457658 0.477649
0.450849 0.479931 0.589303
0.592198 0.502688 0.712941
0.733354 0.525552 0.827485
0.876838 0.540624 0.864328
0.354608 0.681818 0.508640
0.486515 0.703773 0.624207
0.630512 0.726428 0.748821
0.769350 0.748327 0.858502
0.903815 0.762128 0.891472
0.385975 0.864723 0.539720
0.522944 0.881610 0.659632
0.668906 0.898604 0.783302
0.803400 0.914660 0.887640
0.928323 0.923558 0.915962
