design/lut/jc-grade-clean-deep.cube
TITLE "JC Alvarez — clean-deep"
LUT_3D_SIZE 9
DOMAIN_MIN 0 0 0
DOMAIN_MAX 1 1 1
0.106254 0.125894 0.141258
0.175057 0.121907 0.136742
0.268522 0.118225 0.132531
0.379146 0.114849 0.128628
0.499002 0.111783 0.125033
0.544556 0.101795 0.157357
0.585653 0.092431 0.188465
0.620645 0.084389 0.214926
0.638388 0.079421 0.228135
0.097211 0.184514 0.127283
0.166110 0.181228 0.123802
0.262910 0.178196 0.120634
0.377297 0.175420 0.117780
0.495294 0.172355 0.117948
0.541187 0.162548 0.152918
0.584216 0.153508 0.185743
0.620948 0.145776 0.213774
0.640853 0.141007 0.228880
0.091480 0.273599 0.116820
0.159825 0.271707 0.114398
0.259267 0.270016 0.112296
0.376633 0.268528 0.110514
0.492271 0.266179 0.114311
0.539941 0.257447 0.150880
0.584631 0.249446 0.185217
0.622879 0.242722 0.214647
0.644887 0.238815 0.231606
0.089112 0.385521 0.109945
0.156310 0.384832 0.108602
0.257697 0.384281 0.107582
0.377248 0.383870 0.106886
0.491730 0.382212 0.113359
0.540869 0.374375 0.151293
0.586938 0.367220 0.186924
0.626410 0.361232 0.217511
0.650112 0.357547 0.235893
0.090143 0.511139 0.106714
0.155663 0.511337 0.106461
0.258300 0.511604 0.106533
0.379238 0.511944 0.106931
0.493483 0.510701 0.114891
0.543382 0.503198 0.153526
0.590223 0.496308 0.189869
0.630527 0.490581 0.221232
0.656210 0.487287 0.241376
0.094590 0.640333 0.107157
0.157449 0.640917 0.107509
0.260227 0.641489 0.108126
0.381560 0.642067 0.109070
0.496516 0.641127 0.117860
0.547401 0.634000 0.157488
0.595174 0.627429 0.194782
0.636380 0.621958 0.227075
0.663913 0.618705 0.248878
0.100392 0.759153 0.109495
0.160821 0.759889 0.110886
0.263787 0.760571 0.112605
0.385285 0.761202 0.114652
0.502189 0.760574 0.123648
0.553741 0.754181 0.164023
0.602148 0.748177 0.202039
0.644000 0.743074 0.235061
0.673223 0.739790 0.258400
0.109586 0.846432 0.115479
0.167318 0.846996 0.117973
0.269817 0.847476 0.120794
0.390708 0.847874 0.123941
0.510538 0.847450 0.132281
0.562436 0.841992 0.173154
0.611176 0.836807 0.211657
0.653412 0.832320 0.245205
0.684138 0.829173 0.269933
0.122246 0.896095 0.125168
0.177010 0.896911 0.128759
0.278406 0.897631 0.132674
0.397936 0.898255 0.136911
0.521589 0.898484 0.143774
0.573514 0.894119 0.184895
0.622284 0.889963 0.223647
0.664638 0.886373 0.257511
0.696654 0.883791 0.283460
0.105192 0.124506 0.210036
0.174036 0.120622 0.205480
0.267870 0.117044 0.201168
0.378908 0.113773 0.197102
0.499190 0.110812 0.193287
0.587874 0.105037 0.205115
0.628898 0.095738 0.236098
0.663762 0.087762 0.262379
0.681379 0.082851 0.275398
0.096481 0.183370 0.195684
0.165353 0.180170 0.191962
0.262451 0.177224 0.188496
0.377175 0.174537 0.185290
0.501232 0.172110 0.182347
0.583642 0.165872 0.199731
0.626460 0.156875 0.232287
0.662934 0.149186 0.260001
0.682603 0.144451 0.274797
0.091088 0.272934 0.184187
0.159342 0.271110 0.181341
0.259013 0.269488 0.178763
0.376635 0.268070 0.176455
0.503642 0.266859 0.174421
0.581177 0.261046 0.196352
0.625529 0.253065 0.230288
0.663398 0.246360 0.259277
0.685070 0.242461 0.275819
0.089062 0.385272 0.175683
0.156113 0.384629 0.173749
0.257658 0.384125 0.172093
0.377385 0.383763 0.170717
0.506503 0.383545 0.169624
0.580570 0.378139 0.195074
0.626185 0.370978 0.230186
0.665070 0.364851 0.260110
0.688387 0.361148 0.278021
0.090436 0.511198 0.170286
0.155761 0.511419 0.169297
0.258485 0.511711 0.168593
0.379519 0.512077 0.168177
0.509657 0.512303 0.167618
0.581195 0.506897 0.195233
0.627523 0.499977 0.230997
0.667288 0.494220 0.261755
0.692505 0.490880 0.281342
0.095084 0.640542 0.167984
0.157650 0.641111 0.167462
0.260477 0.641684 0.167232
0.381862 0.642265 0.167297
0.512748 0.642856 0.167658
0.583280 0.637620 0.197061
0.630447 0.630995 0.233684
0.671030 0.625469 0.265286
0.698024 0.622144 0.286460
0.101163 0.759409 0.167394
0.161334 0.760126 0.167863
0.264282 0.760791 0.168632
0.385753 0.761405 0.169702
0.516606 0.761972 0.171074
0.587492 0.757272 0.201247
0.635213 0.751230 0.238512
0.676369 0.746083 0.270772
0.704946 0.742728 0.293422
0.110707 0.846633 0.170166
0.168151 0.847168 0.171649
0.270567 0.847620 0.173436
0.391354 0.847991 0.175528
0.521344 0.848283 0.177927
0.593911 0.844330 0.207862
0.641896 0.839104 0.245549
0.683377 0.834569 0.278278
0.713258 0.831352 0.302269
0.123716 0.896383 0.176366
0.178168 0.897166 0.178876
0.279418 0.897853 0.181694
0.398770 0.898446 0.184820
0.527085 0.898947 0.188254
0.602605 0.896058 0.216968
0.650567 0.891860 0.254855
0.692119 0.888222 0.287857
0.722944 0.885571 0.313033
0.104164 0.123153 0.301570
0.173042 0.119373 0.297995
0.267236 0.115898 0.294603
0.378682 0.112733 0.291397
0.499382 0.109878 0.288380
0.620979 0.107335 0.285557
0.690433 0.100841 0.303930
0.725202 0.092992 0.330729
0.742343 0.088198 0.344250
0.095785 0.182255 0.290276
0.164623 0.179141 0.287330
0.262013 0.176282 0.284578
0.377064 0.173683 0.282024
0.501457 0.171346 0.279672
0.626574 0.169274 0.277525
0.689102 0.162235 0.301355
0.725320 0.154649 0.329424
0.744241 0.150005 0.344573
0.090730 0.272293 0.281145
0.158888 0.270537 0.278867
0.258780 0.268983 0.276794
0.376651 0.267635 0.274931
0.503909 0.266495 0.273280
0.631733 0.265567 0.271844
0.688834 0.258864 0.300104
0.726252 0.252235 0.329285
0.746876 0.248397 0.346029
0.089046 0.385038 0.274305
0.155945 0.384442 0.272732
0.257641 0.383986 0.271375
0.377536 0.383673 0.270236
0.506820 0.383504 0.269319
0.636522 0.383482 0.268626
0.689717 0.377089 0.300267
0.727862 0.370879 0.330153
0.749880 0.367209 0.348181
0.090765 0.511266 0.269877
0.155889 0.511511 0.269041
0.258694 0.511827 0.268430
0.379735 0.512168 0.267962
0.509938 0.512387 0.267392
0.640642 0.512686 0.267054
0.690911 0.506165 0.300934
0.729815 0.500425 0.331631
0.753382 0.497085 0.351187
0.095541 0.640735 0.267728
0.157882 0.641305 0.267242
0.260751 0.641881 0.266989
0.382181 0.642465 0.266971
0.513101 0.643059 0.267190
0.644390 0.643667 0.267650
0.693397 0.637224 0.303149
0.732811 0.631685 0.334533
0.757762 0.628329 0.355530
0.101969 0.759659 0.267023
0.161878 0.760358 0.267330
0.264803 0.761005 0.267878
0.386239 0.761603 0.268669
0.517042 0.762154 0.269705
0.648079 0.762662 0.270989
0.697318 0.756801 0.307054
0.736919 0.751665 0.338945
0.763054 0.748286 0.361273
0.111864 0.846824 0.269017
0.169016 0.847331 0.270144
0.271343 0.847755 0.271518
0.392019 0.848099 0.273141
0.521876 0.848365 0.275016
0.651832 0.848556 0.277144
0.702739 0.843586 0.312736
0.742199 0.839050 0.344949
0.769290 0.835801 0.368478
0.125222 0.896660 0.273795
0.179360 0.897410 0.275762
0.280457 0.898065 0.277982
0.399623 0.898627 0.280457
0.527725 0.899096 0.283188
0.655783 0.899475 0.286175
0.709706 0.895692 0.320272
0.748701 0.892042 0.352620
0.776488 0.889352 0.377200
0.103169 0.121835 0.408156
0.172073 0.118158 0.405789
0.266621 0.114789 0.403537
0.378466 0.111728 0.401403
0.499576 0.108979 0.399390
0.621565 0.106543 0.397503
0.734664 0.104422 0.395742
0.791004 0.099264 0.410616
0.806801 0.094600 0.424763
0.095123 0.181169 0.400656
0.163920 0.178141 0.398689
0.261594 0.175370 0.396847
0.376966 0.172860 0.395134
0.501686 0.170612 0.393553
0.627114 0.168631 0.392106
0.742765 0.166919 0.390797
0.792224 0.161183 0.410774
0.809438 0.156640 0.426377
0.090406 0.271674 0.394543
0.158463 0.269986 0.393010
0.258568 0.268502 0.391614
0.376680 0.267225 0.390356
0.504181 0.266156 0.389239
0.632232 0.265300 0.388267
0.749677 0.264658 0.387442
0.793736 0.259202 0.411539
0.812300 0.255433 0.428565
0.089064 0.384820 0.389933
0.155807 0.384272 0.388868
0.257646 0.383864 0.387950
0.377701 0.383599 0.387179
0.507143 0.383480 0.386560
0.636988 0.383509 0.386094
0.755472 0.383626 0.385729
0.795410 0.378018 0.412742
0.815121 0.374388 0.430955
0.091129 0.511341 0.386936
0.156047 0.511610 0.386372
0.258925 0.511951 0.385963
0.379912 0.512233 0.385541
0.510225 0.512479 0.385133
0.641027 0.512806 0.384888
0.760063 0.513218 0.384808
0.797159 0.507752 0.414257
0.818102 0.504418 0.433825
0.096033 0.640928 0.385374
0.158145 0.641500 0.385025
0.261050 0.642078 0.384840
0.382515 0.642665 0.384820
0.513462 0.643264 0.384970
0.644763 0.643878 0.385290
0.763779 0.644509 0.385785
0.799421 0.639026 0.416654
0.821463 0.635641 0.437491
0.102810 0.759902 0.384855
0.162455 0.760583 0.385066
0.265348 0.761213 0.385450
0.386743 0.761795 0.386009
0.517487 0.762331 0.386745
0.648453 0.762825 0.387660
0.766730 0.763278 0.388758
0.802273 0.758210 0.420029
0.825255 0.754813 0.442028
0.113055 0.847005 0.386256
0.169914 0.847484 0.387057
0.272144 0.847880 0.388039
0.392702 0.848198 0.389204
0.522419 0.848438 0.390554
0.652220 0.848605 0.392091
0.769042 0.848700 0.393818
0.805789 0.844326 0.424479
0.829526 0.841052 0.447513
0.126762 0.896926 0.389674
0.180584 0.897643 0.391092
0.281523 0.898266 0.392698
0.400496 0.898796 0.394494
0.528377 0.899235 0.396483
0.656198 0.899584 0.398665
0.770852 0.899845 0.401043
0.810040 0.896530 0.430101
0.834337 0.893800 0.454041
0.114007 0.118208 0.498101
0.171131 0.116979 0.520919
0.266026 0.113715 0.519931
0.378263 0.110760 0.518992
0.499774 0.108116 0.518103
0.622147 0.105787 0.517268
0.735538 0.103773 0.516488
0.821002 0.102076 0.515766
0.861127 0.100697 0.515104
0.107599 0.177509 0.492174
0.163245 0.177171 0.517793
0.261196 0.174488 0.516977
0.376881 0.172067 0.516218
0.501919 0.169909 0.515518
0.627649 0.168019 0.514879
0.743515 0.166399 0.514305
0.829821 0.165052 0.513797
0.870719 0.163826 0.514119
0.103704 0.268378 0.488491
0.158066 0.269459 0.515278
0.258378 0.268045 0.514662
0.376722 0.266838 0.514112
0.504457 0.265842 0.513629
0.632727 0.265058 0.513216
0.750312 0.264490 0.512876
0.837074 0.264140 0.512611
0.873776 0.263032 0.517245
0.102383 0.381983 0.487115
0.155699 0.384117 0.513470
0.257674 0.383758 0.513084
0.377881 0.383542 0.512771
0.507472 0.383473 0.512534
0.637451 0.383553 0.512376
0.755978 0.383600 0.512193
0.842878 0.383627 0.511995
0.876491 0.382142 0.520105
0.103685 0.509009 0.488100
0.156235 0.511718 0.512467
0.259180 0.512084 0.512339
0.380104 0.512308 0.512111
0.510519 0.512581 0.511945
0.641409 0.512936 0.511866
0.760476 0.513377 0.511877
0.847359 0.513906 0.511982
0.879048 0.512330 0.522991
0.107013 0.639045 0.490910
0.158439 0.641695 0.511905
0.261373 0.642276 0.511859
0.382867 0.642867 0.511904
0.513830 0.643471 0.512044
0.645136 0.644090 0.512281
0.764109 0.644728 0.512619
0.850599 0.645387 0.513059
0.881562 0.643535 0.526086
0.111973 0.758653 0.495196
0.163064 0.760803 0.512119
0.265920 0.761416 0.512393
0.387264 0.761982 0.512767
0.517942 0.762503 0.513245
0.648828 0.762983 0.513830
0.766991 0.763424 0.514525
0.852704 0.763829 0.515331
0.884092 0.761790 0.529478
0.119691 0.846368 0.501995
0.170844 0.847627 0.513446
0.272973 0.847997 0.514070
0.393404 0.848288 0.514805
0.522972 0.848503 0.515653
0.652610 0.848645 0.516617
0.769245 0.848716 0.517699
0.853786 0.848720 0.518901
0.886697 0.846669 0.533256
0.130196 0.896939 0.511343
0.181842 0.897865 0.515990
0.282616 0.898457 0.516997
0.401389 0.898955 0.518122
0.529040 0.899363 0.519370
0.656617 0.899682 0.520742
0.771012 0.899914 0.522240
0.853968 0.900061 0.523868
0.889457 0.898546 0.537544
0.148026 0.110017 0.540490
0.196384 0.110637 0.582420
0.265450 0.112676 0.635628
0.378070 0.109827 0.635921
0.499975 0.107290 0.636196
0.622723 0.105068 0.636455
0.736399 0.103161 0.636699
0.821966 0.101572 0.636931
0.862290 0.100302 0.637152
0.143181 0.169294 0.536411
0.191351 0.170518 0.578171
0.260819 0.173637 0.636545
0.376808 0.171304 0.636785
0.502156 0.169237 0.637013
0.628180 0.167439 0.637230
0.744254 0.165911 0.637440
0.830622 0.164657 0.637644
0.872852 0.163680 0.637844
0.140613 0.260422 0.534283
0.188167 0.262902 0.575505
0.258591 0.267536 0.636537
0.376778 0.266476 0.637515
0.504739 0.265551 0.637717
0.633219 0.264841 0.637917
0.750935 0.264346 0.638116
0.837723 0.264071 0.638316
0.881732 0.264017 0.638521
0.140375 0.374266 0.534159
0.186926 0.377759 0.574509
0.258460 0.383522 0.636501
0.378075 0.383502 0.638188
0.507806 0.383483 0.638390
0.637911 0.383615 0.638597
0.756474 0.383591 0.638727
0.843390 0.383672 0.638854
0.889157 0.383912 0.638994
0.142509 0.501473 0.536085
0.187717 0.505622 0.575271
0.259801 0.512081 0.637738
0.380312 0.512391 0.638772
0.510821 0.512692 0.638903
0.641790 0.513076 0.639048
0.760880 0.513547 0.639210
0.847741 0.514106 0.639391
0.895133 0.514757 0.639593
0.146293 0.631546 0.539427
0.189485 0.635788 0.576859
0.261721 0.642476 0.639105
0.383234 0.643070 0.639273
0.514207 0.643679 0.639462
0.645508 0.644304 0.639673
0.764432 0.644949 0.639911
0.850861 0.645616 0.640177
0.899720 0.646309 0.640475
0.151687 0.751875 0.544159
0.193121 0.755730 0.580076
0.266516 0.761613 0.639757
0.387803 0.762164 0.640004
0.518406 0.762671 0.640281
0.649203 0.763137 0.640591
0.767244 0.763565 0.640937
0.852858 0.763959 0.641322
0.903005 0.764321 0.641748
0.159582 0.840704 0.551085
0.199055 0.843674 0.585314
0.273827 0.848104 0.640713
0.394124 0.848369 0.641072
0.523535 0.848559 0.641472
0.653001 0.848677 0.641914
0.769444 0.848725 0.642402
0.853844 0.848706 0.642939
0.905073 0.848623 0.643528
0.170006 0.892199 0.560242
0.207362 0.894934 0.592651
0.283737 0.898636 0.642086
0.402301 0.899104 0.642592
0.529715 0.899481 0.643147
0.657040 0.899771 0.643756
0.771169 0.899974 0.644421
0.853942 0.900092 0.645145
0.905989 0.900095 0.645971
0.179349 0.102403 0.579528
0.228113 0.103048 0.621960
0.295490 0.105595 0.680507
0.377890 0.108930 0.741767
0.500179 0.106500 0.743063
0.623295 0.104385 0.744284
0.737247 0.102586 0.745431
0.822913 0.101105 0.746507
0.863435 0.099943 0.747511
0.176018 0.161660 0.577239
0.224487 0.162901 0.619384
0.293824 0.166186 0.679599
0.376747 0.170572 0.745831
0.502398 0.168596 0.746880
0.628707 0.166889 0.747859
0.744980 0.165454 0.748770
0.831408 0.164294 0.749613
0.873823 0.163411 0.750392
0.174755 0.253046 0.576639
0.222500 0.255534 0.618128
0.293313 0.260199 0.679592
0.376847 0.266138 0.749085
0.505025 0.265286 0.749904
0.633707 0.264648 0.750659
0.751548 0.264228 0.751352
0.838357 0.264028 0.751984
0.882538 0.264050 0.752557
0.175601 0.367122 0.577768
0.222238 0.370612 0.618269
0.294043 0.376394 0.680566
0.378610 0.383414 0.750989
0.508146 0.383511 0.752199
0.638335 0.383624 0.752752
0.756961 0.383601 0.753252
0.843887 0.383736 0.753699
0.889826 0.384030 0.754096
0.178589 0.494497 0.580663
0.223781 0.498631 0.619886
0.295906 0.505000 0.682435
0.380807 0.512430 0.752924
0.511129 0.512813 0.753849
0.642170 0.513226 0.754228
0.761276 0.513727 0.754559
0.848110 0.514317 0.754844
0.895658 0.515000 0.755087
0.182891 0.624588 0.584612
0.226012 0.628799 0.622019
0.298215 0.635500 0.684613
0.383619 0.643275 0.754668
0.514592 0.643889 0.754938
0.645880 0.644521 0.755165
0.764748 0.645173 0.755354
0.851112 0.645848 0.755505
0.900110 0.646551 0.755623
0.188774 0.745502 0.589858
0.230042 0.749361 0.625641
0.302047 0.755535 0.688045
0.388360 0.762341 0.755413
0.518880 0.762834 0.755552
0.649580 0.763286 0.755657
0.767492 0.763703 0.755732
0.853001 0.764085 0.755779
0.903267 0.764437 0.755802
0.196917 0.835351 0.597001
0.236133 0.838324 0.630990
0.307499 0.843283 0.692820
0.394864 0.848442 0.755752
0.524109 0.848607 0.755790
0.653396 0.848701 0.755804
0.769637 0.848726 0.755798
0.853892 0.848685 0.755774
0.905218 0.848581 0.755735
0.207346 0.887708 0.606074
0.244360 0.890453 0.638143
0.314662 0.894948 0.698989
0.403234 0.899242 0.755791
0.530402 0.899589 0.755761
0.657466 0.899849 0.755718
0.771323 0.900023 0.755664
0.853905 0.900106 0.755603
0.906015 0.900075 0.755537
0.205450 0.095869 0.612090
0.254575 0.096547 0.654968
0.322526 0.099150 0.713731
0.402668 0.103113 0.777544
0.500387 0.105746 0.821261
0.623861 0.103738 0.823078
0.738083 0.102047 0.824787
0.823844 0.100674 0.826389
0.864562 0.099621 0.827886
0.203510 0.155125 0.611436
0.252243 0.156389 0.653926
0.322055 0.159719 0.714232
0.404311 0.164385 0.779532
0.502643 0.167986 0.826946
0.629229 0.166371 0.828405
0.745695 0.165029 0.829760
0.832178 0.163963 0.831014
0.874778 0.163174 0.832167
0.203469 0.246778 0.612261
0.251384 0.249277 0.653993
0.322568 0.253976 0.715395
0.406385 0.259972 0.781690
0.505316 0.265045 0.831445
0.634192 0.264481 0.832562
0.752149 0.264135 0.833581
0.838976 0.264010 0.834504
0.883336 0.264029 0.835344
0.205356 0.361088 0.614591
0.252071 0.364575 0.655234
0.324142 0.370377 0.717281
0.408965 0.377421 0.784074
0.508492 0.383556 0.834816
0.638731 0.383599 0.835647
0.757438 0.383629 0.836418
0.844372 0.383817 0.837099
0.890480 0.384166 0.837693
0.209197 0.488624 0.618450
0.254376 0.492742 0.657716
0.326564 0.499015 0.719721
0.411658 0.506451 0.786413
0.511444 0.512944 0.837325
0.642548 0.513386 0.837888
0.761663 0.513917 0.838366
0.848466 0.514538 0.838760
0.896168 0.515254 0.839074
0.214062 0.618716 0.623064
0.257123 0.622893 0.660460
0.329423 0.629580 0.722392
0.414676 0.637392 0.788866
0.514986 0.644102 0.838884
0.646252 0.644740 0.839169
0.765056 0.645399 0.839375
0.851351 0.646084 0.839505
0.900486 0.646796 0.839560
0.220490 0.740057 0.628894
0.261614 0.743910 0.664570
0.333610 0.750116 0.726006
0.418485 0.757216 0.791766
0.519363 0.762992 0.839533
0.649958 0.763432 0.839563
0.767734 0.763836 0.839521
0.853134 0.764208 0.839410
0.903518 0.764550 0.839233
0.228972 0.830746 0.636366
0.267963 0.833712 0.670155
0.339213 0.838698 0.730629
0.423190 0.844377 0.795189
0.524694 0.848647 0.839353
0.653793 0.848717 0.839152
0.769825 0.848719 0.838888
0.853931 0.848657 0.838563
0.905351 0.848532 0.838180
0.239529 0.883843 0.645507
0.276243 0.886586 0.677288
0.346324 0.891110 0.736322
0.428896 0.896179 0.799210
0.531101 0.899687 0.838430
0.657897 0.899918 0.838027
0.771473 0.900063 0.837568
0.853860 0.900104 0.837040
0.906030 0.900047 0.836448
0.217100 0.092249 0.626738
0.266612 0.092953 0.670099
0.335180 0.095602 0.728817
0.415966 0.099615 0.791635
0.503228 0.104506 0.851421
0.624423 0.103128 0.857871
0.738906 0.101545 0.860335
0.824757 0.100281 0.862683
0.865671 0.099336 0.864917
0.216716 0.151465 0.627925
0.265789 0.152735 0.670855
0.336163 0.156093 0.730952
0.419000 0.160790 0.794983
0.508357 0.166322 0.855608
0.629747 0.165885 0.865702
0.746397 0.164636 0.867782
0.832933 0.163664 0.869749
0.875715 0.162970 0.871607
0.218216 0.243316 0.630570
0.266420 0.245802 0.672695
0.338105 0.250508 0.733691
0.422434 0.256514 0.798446
0.513295 0.263303 0.859499
0.634673 0.264339 0.872255
0.752740 0.264068 0.873964
0.839581 0.264019 0.875564
0.884126 0.263957 0.877106
0.221606 0.357760 0.634673
0.268558 0.361213 0.675657
0.341063 0.366999 0.737065
0.426322 0.374031 0.802056
0.518094 0.381781 0.863131
0.639124 0.383592 0.877658
0.757905 0.383675 0.879104
0.844843 0.383918 0.880448
0.891119 0.384322 0.881691
0.226890 0.485332 0.640230
0.272163 0.489324 0.679709
0.344712 0.495529 0.740820
0.430201 0.502929 0.805508
0.522313 0.510989 0.866279
0.642926 0.513556 0.882118
0.762041 0.514117 0.883226
0.848811 0.514770 0.884235
0.896665 0.515518 0.885148
0.233016 0.615280 0.646372
0.276234 0.619379 0.684027
0.348858 0.626006 0.744807
0.434420 0.633760 0.809039
0.526533 0.642102 0.869273
0.646624 0.644961 0.885456
0.765357 0.645629 0.886239
0.851580 0.646322 0.886928
0.900849 0.647045 0.887524
0.240764 0.736700 0.653747
0.281990 0.740487 0.689622
0.354228 0.746656 0.749567
0.439323 0.753728 0.812873
0.530858 0.761181 0.872176
0.650337 0.763573 0.887718
0.767969 0.763966 0.888190
0.853258 0.764327 0.888573
0.903756 0.764660 0.888868
0.250449 0.827748 0.662617
0.289486 0.830651 0.696513
0.360892 0.835603 0.755136
0.444993 0.841257 0.817059
0.535380 0.847173 0.875049
0.654193 0.848725 0.888953
0.770009 0.848705 0.889130
0.853961 0.848621 0.889222
0.905473 0.848476 0.889231
0.262070 0.881240 0.672984
0.298770 0.883931 0.704680
0.368918 0.888426 0.761545
0.451515 0.893475 0.821651
0.540201 0.898697 0.877957
0.658332 0.899977 0.889214
0.771621 0.900093 0.889112
0.853807 0.900094 0.888887
0.906035 0.900009 0.888577
