design/lut/jc-grade-standard.cube
TITLE "JC Alvarez — standard"
LUT_3D_SIZE 5
DOMAIN_MIN 0 0 0
DOMAIN_MAX 1 1 1
0.084929 0.078811 0.078599
0.223686 0.086214 0.106411
0.304398 0.086076 0.171718
0.386751 0.085708 0.238311
0.464795 0.086047 0.301542
0.122077 0.280852 0.114297
0.261074 0.288734 0.143161
0.341566 0.289258 0.208310
0.422658 0.289658 0.273932
0.498497 0.290854 0.335451
0.159465 0.501793 0.150233
0.298462 0.509072 0.179954
0.377442 0.508504 0.243657
0.453793 0.505994 0.304557
0.525180 0.504372 0.361608
0.187964 0.717980 0.178406
0.323846 0.722926 0.204743
0.401124 0.720862 0.266438
0.478301 0.718865 0.328083
0.549418 0.717870 0.385022
0.208043 0.888343 0.199354
0.347193 0.891427 0.227497
0.426132 0.889439 0.290587
0.503938 0.887571 0.352822
0.574558 0.886515 0.409470
0.105615 0.079115 0.209089
0.263655 0.093400 0.255083
0.410246 0.099650 0.289505
0.492877 0.099349 0.356451
0.571072 0.099765 0.419925
0.143153 0.281318 0.246342
0.303038 0.296330 0.292993
0.448613 0.303152 0.327449
0.529865 0.303591 0.393297
0.605741 0.304838 0.454935
0.180757 0.502076 0.283616
0.342073 0.516671 0.330559
0.484488 0.521500 0.362921
0.562018 0.519116 0.425118
0.634456 0.517636 0.483359
0.208687 0.717312 0.311594
0.368761 0.729993 0.357794
0.511890 0.734147 0.389847
0.590165 0.732291 0.452705
0.662249 0.731434 0.510748
0.230947 0.887463 0.334161
0.395022 0.896622 0.384861
0.540403 0.899173 0.417903
0.619222 0.897412 0.481263
0.690721 0.896454 0.538923
0.164382 0.076000 0.281784
0.290456 0.092543 0.393600
0.462460 0.108037 0.451441
0.610056 0.114062 0.486946
0.687898 0.114507 0.550100
0.201806 0.274267 0.318885
0.329313 0.295782 0.431932
0.501008 0.311754 0.488525
0.646448 0.318429 0.523141
0.721867 0.319679 0.584350
0.239140 0.494933 0.355817
0.367672 0.516084 0.469733
0.536211 0.529151 0.522898
0.678732 0.533069 0.555165
0.751107 0.531690 0.614130
0.266103 0.709317 0.383063
0.394422 0.728511 0.496577
0.565257 0.741866 0.552721
0.709101 0.746119 0.585230
0.779103 0.745356 0.643895
0.289531 0.881367 0.407051
0.422114 0.895247 0.524332
0.595155 0.904692 0.583388
0.739839 0.907364 0.615974
0.806287 0.906380 0.674233
0.224944 0.076000 0.356730
0.350934 0.084955 0.468375
0.490385 0.106956 0.591811
0.664590 0.122717 0.651091
0.801398 0.129429 0.682305
0.261484 0.267008 0.392715
0.388827 0.288582 0.505507
0.527571 0.311111 0.628281
0.699506 0.327117 0.684580
0.828676 0.334544 0.714047
0.297800 0.487725 0.428366
0.425217 0.508173 0.541163
0.561255 0.527654 0.661474
0.730748 0.540778 0.715917
0.853429 0.545696 0.743317
0.323392 0.701347 0.454367
0.452250 0.720687 0.568394
0.591051 0.740474 0.691141
0.760036 0.753591 0.746016
0.877065 0.758803 0.771528
0.347237 0.875308 0.478836
0.480291 0.889415 0.596554
0.621549 0.903485 0.721330
0.788368 0.912550 0.775078
0.899398 0.915736 0.798475
0.283026 0.076000 0.428564
0.408714 0.077908 0.539769
0.547644 0.100008 0.662567
0.688750 0.122328 0.782848
0.841395 0.137431 0.826038
0.317973 0.260383 0.462546
0.444943 0.282058 0.574821
0.583098 0.304670 0.696889
0.721547 0.327283 0.810551
0.864368 0.341394 0.848147
0.352584 0.481283 0.496055
0.478779 0.500874 0.607663
0.615005 0.520427 0.727805
0.751280 0.540127 0.835287
0.886202 0.552547 0.870669
0.376355 0.694250 0.520244
0.505511 0.713698 0.634481
0.644423 0.733741 0.755551
0.779562 0.753160 0.858687
0.906805 0.765159 0.891886
0.399806 0.869937 0.544176
0.533084 0.884278 0.662021
0.674372 0.898577 0.782516
0.806739 0.912139 0.880940
0.925826 0.919826 0.911255
