design/lut/jc-grade-cool.cube
TITLE "JC Alvarez — cool"
LUT_3D_SIZE 33
DOMAIN_MIN 0 0 0
DOMAIN_MAX 1 1 1
0.063974 0.079822 0.095646
0.083274 0.080308 0.096106
0.103881 0.080794 0.096566
0.125711 0.081280 0.097026
0.148678 0.081766 0.097486
0.172699 0.082253 0.097946
0.197687 0.082739 0.098407
0.223560 0.083225 0.098867
0.246384 0.083343 0.101156
0.257082 0.082227 0.109545
0.268020 0.081074 0.118121
0.279166 0.079888 0.126858
0.290487 0.078675 0.135731
0.301953 0.078000 0.144716
0.313531 0.078000 0.153788
0.325190 0.078000 0.162923
0.336898 0.078000 0.172095
0.348623 0.078000 0.181281
0.360333 0.078000 0.190456
0.371997 0.078000 0.199595
0.383584 0.078000 0.208674
0.395062 0.078000 0.217668
0.406400 0.078000 0.226554
0.417565 0.078000 0.235306
0.428527 0.078000 0.243901
0.439255 0.078000 0.252314
0.449717 0.078000 0.260521
0.459881 0.078000 0.268497
0.469718 0.078000 0.276219
0.479195 0.078000 0.283663
0.488282 0.078000 0.290804
0.496946 0.078000 0.297618
0.505159 0.078000 0.304081
0.065684 0.100127 0.097193
0.085023 0.100624 0.097654
0.105663 0.101122 0.098114
0.127521 0.101619 0.098574
0.150511 0.102117 0.099035
0.174550 0.102615 0.099495
0.199551 0.103113 0.099956
0.225432 0.103610 0.100417
0.248076 0.103721 0.102793
0.258773 0.102617 0.111183
0.269709 0.101475 0.119757
0.280851 0.100302 0.128491
0.292167 0.099101 0.137360
0.303626 0.097878 0.146340
0.315196 0.096637 0.155405
0.326845 0.095384 0.164532
0.338541 0.094124 0.173696
0.350253 0.092861 0.182871
0.361949 0.091601 0.192035
0.373597 0.090348 0.201162
0.385167 0.089108 0.210227
0.396627 0.087885 0.219208
0.407944 0.086685 0.228078
0.419089 0.085511 0.236814
0.430029 0.084370 0.245392
0.440733 0.083265 0.253787
0.451171 0.082203 0.261975
0.461310 0.081187 0.269932
0.471120 0.080223 0.277634
0.480570 0.079315 0.285056
0.489628 0.078469 0.292175
0.498264 0.078000 0.298966
0.506446 0.078000 0.305406
0.067395 0.121775 0.098742
0.086772 0.122282 0.099202
0.107445 0.122790 0.099663
0.129331 0.123297 0.100124
0.152344 0.123805 0.100585
0.176400 0.124312 0.101045
0.201415 0.124820 0.101506
0.227303 0.125327 0.101967
0.249767 0.125430 0.104431
0.260464 0.124336 0.112820
0.271398 0.123204 0.121393
0.282536 0.122041 0.130124
0.293847 0.120850 0.138989
0.305299 0.119638 0.147963
0.316860 0.118408 0.157022
0.328499 0.117166 0.166141
0.340183 0.115918 0.175296
0.351882 0.114666 0.184461
0.363564 0.113418 0.193614
0.375196 0.112177 0.202728
0.386749 0.110949 0.211781
0.398190 0.109738 0.220747
0.409488 0.108550 0.229602
0.420612 0.107389 0.238322
0.431530 0.106261 0.246882
0.442211 0.105169 0.255259
0.452624 0.104120 0.263429
0.462738 0.103117 0.271366
0.472521 0.102166 0.279047
0.481943 0.101272 0.286448
0.490973 0.100440 0.293545
0.499580 0.099673 0.300314
0.507732 0.098978 0.306731
0.069106 0.144672 0.100291
0.088521 0.145187 0.100752
0.109228 0.145703 0.101213
0.131141 0.146219 0.101674
0.154177 0.146734 0.102135
0.178250 0.147250 0.102596
0.203277 0.147765 0.103057
0.229174 0.148281 0.103518
0.251459 0.148375 0.106069
0.262155 0.147288 0.114458
0.273087 0.146165 0.123028
0.284221 0.145010 0.131757
0.295527 0.143828 0.140617
0.306971 0.142625 0.149586
0.318524 0.141405 0.158638
0.330152 0.140172 0.167750
0.341825 0.138933 0.176895
0.353511 0.137692 0.186051
0.365178 0.136453 0.195192
0.376795 0.135223 0.204294
0.388330 0.134005 0.213334
0.399753 0.132805 0.222285
0.411031 0.131628 0.231125
0.422133 0.130478 0.239829
0.433029 0.129360 0.248372
0.443687 0.128280 0.256731
0.454076 0.127242 0.264881
0.464164 0.126251 0.272799
0.473921 0.125312 0.280460
0.483316 0.124429 0.287840
0.492317 0.123609 0.294915
0.500894 0.122854 0.301661
0.509016 0.122171 0.308054
0.070819 0.168721 0.101842
0.090271 0.169244 0.102303
0.111010 0.169766 0.102764
0.132951 0.170288 0.103225
0.156009 0.170810 0.103686
0.180099 0.171332 0.104148
0.205139 0.171854 0.104609
0.231043 0.172376 0.105071
0.253150 0.172459 0.107707
0.263846 0.171379 0.116095
0.274776 0.170262 0.124664
0.285906 0.169115 0.133389
0.297206 0.167940 0.142246
0.308643 0.166744 0.151209
0.320187 0.165531 0.160255
0.331805 0.164307 0.169358
0.343466 0.163076 0.178495
0.355139 0.161843 0.187640
0.366791 0.160613 0.196770
0.378392 0.159391 0.205860
0.389910 0.158182 0.214886
0.401314 0.156991 0.223823
0.412572 0.155823 0.232647
0.423654 0.154682 0.241335
0.434528 0.153574 0.249861
0.445162 0.152504 0.258202
0.455526 0.151475 0.266334
0.465589 0.150494 0.274231
0.475320 0.149565 0.281872
0.484687 0.148693 0.289230
0.493660 0.147882 0.296283
0.502207 0.147139 0.303007
0.510299 0.146466 0.309376
0.072532 0.193829 0.103393
0.092022 0.194356 0.103854
0.112793 0.194883 0.104316
0.134761 0.195410 0.104777
0.157841 0.195937 0.105239
0.181948 0.196464 0.105700
0.206999 0.196991 0.106162
0.232910 0.197518 0.106623
0.254841 0.197588 0.109345
0.265537 0.196513 0.117733
0.276464 0.195402 0.126300
0.287590 0.194260 0.135022
0.298884 0.193091 0.143874
0.310315 0.191901 0.152832
0.321850 0.190694 0.161871
0.333457 0.189476 0.170966
0.345107 0.188251 0.180094
0.356766 0.187025 0.189229
0.368404 0.185802 0.198347
0.379989 0.184587 0.207425
0.391489 0.183385 0.216437
0.402875 0.182202 0.225360
0.414113 0.181041 0.234169
0.425173 0.179908 0.242841
0.436025 0.178808 0.251350
0.446636 0.177746 0.259672
0.456976 0.176726 0.267785
0.467013 0.175753 0.275663
0.476717 0.174832 0.283283
0.486057 0.173969 0.290620
0.495001 0.173167 0.297651
0.503519 0.172432 0.304352
0.511581 0.171769 0.310698
0.074246 0.219900 0.104945
0.093774 0.220431 0.105407
0.114577 0.220962 0.105868
0.136571 0.221492 0.106330
0.159672 0.222022 0.106792
0.183796 0.222553 0.107253
0.208859 0.223083 0.107715
0.234777 0.223613 0.108177
0.256533 0.223669 0.110983
0.267228 0.222598 0.119371
0.278152 0.221490 0.127936
0.289274 0.220352 0.136655
0.300563 0.219187 0.145503
0.311986 0.218001 0.154455
0.323512 0.216799 0.163487
0.335109 0.215585 0.172574
0.346746 0.214366 0.181692
0.358392 0.213144 0.190817
0.370015 0.211927 0.199924
0.381584 0.210718 0.208990
0.393067 0.209522 0.217988
0.404434 0.208344 0.226897
0.415653 0.207189 0.235691
0.426692 0.206063 0.244345
0.437521 0.204969 0.252837
0.448109 0.203913 0.261142
0.458424 0.202900 0.269235
0.468436 0.201934 0.277094
0.478113 0.201020 0.284693
0.487425 0.200164 0.292009
0.496341 0.199369 0.299018
0.504830 0.198642 0.305696
0.512861 0.197985 0.312019
0.075961 0.246841 0.106498
0.095525 0.247374 0.106960
0.116360 0.247906 0.107422
0.138381 0.248439 0.107883
0.161503 0.248971 0.108345
0.185644 0.249503 0.108807
0.210718 0.250035 0.109269
0.236643 0.250567 0.109732
0.258224 0.250608 0.112621
0.268918 0.249538 0.121008
0.279840 0.248433 0.129572
0.290958 0.247296 0.138288
0.302241 0.246134 0.147131
0.313656 0.244951 0.156077
0.325173 0.243752 0.165102
0.336760 0.242542 0.174181
0.348385 0.241326 0.183290
0.360018 0.240108 0.192405
0.371626 0.238894 0.201501
0.383179 0.237689 0.210553
0.394645 0.236497 0.219539
0.405992 0.235324 0.228433
0.417191 0.234174 0.237211
0.428209 0.233052 0.245850
0.439016 0.231963 0.254324
0.449580 0.230912 0.262611
0.459871 0.229904 0.270685
0.469857 0.228944 0.278524
0.479508 0.228036 0.286102
0.488792 0.227185 0.293397
0.497679 0.226396 0.300384
0.506139 0.225674 0.307039
0.514140 0.225024 0.313338
0.077677 0.274559 0.108052
0.097278 0.275092 0.108514
0.118144 0.275624 0.108976
0.140190 0.276157 0.109438
0.163334 0.276689 0.109900
0.187490 0.277222 0.110362
0.212576 0.277754 0.110824
0.238507 0.278286 0.111287
0.259916 0.278311 0.114260
0.270609 0.277242 0.122646
0.281528 0.276137 0.131208
0.292641 0.275001 0.139920
0.303918 0.273840 0.148759
0.315326 0.272658 0.157699
0.326834 0.271461 0.166717
0.338410 0.270252 0.175788
0.350024 0.269038 0.184888
0.361643 0.267823 0.193992
0.373236 0.266611 0.203077
0.384773 0.265409 0.212117
0.396221 0.264220 0.221089
0.407550 0.263049 0.229968
0.418728 0.261903 0.238731
0.429725 0.260784 0.247353
0.440510 0.259699 0.255810
0.451050 0.258651 0.264079
0.461316 0.257647 0.272134
0.471277 0.256690 0.279953
0.480901 0.255786 0.287511
0.490158 0.254939 0.294784
0.499017 0.254155 0.301749
0.507447 0.253437 0.308381
0.515417 0.252791 0.314657
0.079393 0.302959 0.109606
0.099030 0.303491 0.110068
0.119927 0.304022 0.110530
0.142000 0.304554 0.110993
0.165164 0.305085 0.111455
0.189337 0.305616 0.111918
0.214433 0.306147 0.112380
0.240370 0.306678 0.112843
0.261607 0.306685 0.115898
0.272299 0.305615 0.124284
0.283215 0.304509 0.132843
0.294324 0.303373 0.141552
0.305595 0.302212 0.150387
0.316995 0.301030 0.159321
0.328494 0.299832 0.168332
0.340060 0.298624 0.177395
0.351661 0.297411 0.186485
0.363267 0.296196 0.195579
0.374845 0.294986 0.204652
0.386365 0.293784 0.213680
0.397796 0.292596 0.222638
0.409106 0.291428 0.231503
0.420265 0.290282 0.240250
0.431240 0.289166 0.248856
0.442002 0.288082 0.257296
0.452519 0.287037 0.265546
0.462761 0.286035 0.273582
0.472696 0.285081 0.281381
0.482293 0.284179 0.288918
0.491522 0.283335 0.296170
0.500353 0.282553 0.303113
0.508753 0.281839 0.309722
0.516693 0.281196 0.315975
0.081110 0.331949 0.111161
0.100784 0.332478 0.111624
0.121711 0.333007 0.112086
0.143809 0.333536 0.112549
0.166994 0.334065 0.113011
0.191182 0.334594 0.113474
0.216289 0.335123 0.113937
0.242232 0.335651 0.114399
0.263298 0.335639 0.117537
0.273989 0.334566 0.125922
0.284902 0.333458 0.134479
0.296007 0.332320 0.143185
0.307272 0.331157 0.152014
0.318664 0.329973 0.160943
0.330154 0.328775 0.169947
0.341709 0.327566 0.179001
0.353298 0.326351 0.188082
0.364890 0.325136 0.197166
0.376454 0.323925 0.206227
0.387957 0.322723 0.215242
0.399371 0.321535 0.224187
0.410662 0.320367 0.233037
0.421800 0.319222 0.241769
0.432754 0.318105 0.250358
0.443494 0.317022 0.258780
0.453987 0.315978 0.267012
0.464204 0.314977 0.275029
0.474113 0.314023 0.282808
0.483684 0.313123 0.290325
0.492885 0.312280 0.297555
0.501687 0.311500 0.304476
0.510058 0.310787 0.311063
0.517968 0.310146 0.317292
0.082828 0.361437 0.112717
0.102537 0.361963 0.113180
0.123495 0.362488 0.113642
0.145619 0.363013 0.114105
0.168824 0.363538 0.114568
0.193027 0.364063 0.115031
0.218144 0.364587 0.115494
0.244093 0.365112 0.115957
0.264989 0.365079 0.119176
0.275678 0.364002 0.127559
0.286589 0.362891 0.136115
0.297689 0.361750 0.144817
0.308948 0.360583 0.153641
0.320333 0.359397 0.162564
0.331813 0.358196 0.171561
0.343357 0.356984 0.180607
0.354934 0.355767 0.189679
0.366512 0.354550 0.198752
0.378061 0.353337 0.207801
0.389548 0.352134 0.216804
0.400944 0.350945 0.225735
0.412216 0.349775 0.234570
0.423334 0.348629 0.243286
0.434267 0.347512 0.251859
0.444984 0.346428 0.260264
0.455454 0.345383 0.268477
0.465646 0.344381 0.276476
0.475529 0.343428 0.284235
0.485073 0.342527 0.291731
0.494247 0.341684 0.298940
0.503020 0.340904 0.305838
0.511295 0.340106 0.312325
0.518934 0.339151 0.318256
0.084547 0.391331 0.114274
0.104291 0.391852 0.114736
0.125279 0.392372 0.115199
0.147428 0.392892 0.115662
0.170653 0.393411 0.116125
0.194871 0.393931 0.116588
0.219998 0.394450 0.117052
0.245952 0.394969 0.117515
0.266680 0.394915 0.120814
0.277368 0.393833 0.129197
0.288276 0.392717 0.137750
0.299371 0.391571 0.146449
0.310623 0.390400 0.155269
0.322001 0.389210 0.164185
0.333471 0.388004 0.173175
0.345005 0.386789 0.182213
0.356569 0.385569 0.191275
0.368134 0.384348 0.200337
0.379667 0.383132 0.209375
0.391138 0.381926 0.218365
0.402516 0.380734 0.227282
0.413769 0.379561 0.236103
0.424867 0.378413 0.244803
0.435779 0.377293 0.253359
0.446473 0.376208 0.261747
0.456919 0.375161 0.269942
0.467087 0.374157 0.277921
0.476944 0.373202 0.285660
0.486293 0.372115 0.292948
0.495185 0.370978 0.299849
0.503687 0.369903 0.306448
0.511768 0.368895 0.312720
0.519396 0.367958 0.318642
0.086267 0.421540 0.115831
0.106046 0.422054 0.116294
0.127064 0.422567 0.116757
0.149237 0.423081 0.117220
0.172481 0.423594 0.117684
0.196714 0.424107 0.118147
0.221851 0.424619 0.118610
0.247811 0.425132 0.119074
0.268370 0.425054 0.122453
0.279057 0.423966 0.130835
0.289962 0.422844 0.139385
0.301053 0.421692 0.148080
0.312298 0.420516 0.156895
0.323668 0.419320 0.165806
0.335129 0.418109 0.174788
0.346652 0.416889 0.183818
0.358204 0.415664 0.192870
0.369755 0.414439 0.201922
0.381273 0.413218 0.210948
0.392727 0.412008 0.219925
0.404087 0.410812 0.228828
0.415321 0.409635 0.237635
0.426399 0.408483 0.246319
0.437289 0.407360 0.254859
0.447961 0.406271 0.263229
0.458099 0.404953 0.271095
0.467970 0.403677 0.278756
0.477545 0.402448 0.286187
0.486791 0.401271 0.293362
0.495678 0.400151 0.300259
0.504172 0.399092 0.306853
0.512244 0.398100 0.313118
0.519861 0.397180 0.319031
0.087987 0.451972 0.117389
0.107801 0.452478 0.117852
0.128848 0.452984 0.118315
0.151046 0.453489 0.118779
0.174309 0.453995 0.119242
0.198556 0.454500 0.119706
0.223704 0.455004 0.120169
0.249668 0.455509 0.120633
0.270061 0.455408 0.124092
0.280746 0.454312 0.132473
0.291648 0.453182 0.141021
0.302734 0.452023 0.149712
0.313973 0.450840 0.158522
0.325334 0.449637 0.167427
0.336786 0.448420 0.176401
0.348298 0.447194 0.185422
0.359837 0.445962 0.194465
0.371374 0.444731 0.203506
0.382877 0.443505 0.212521
0.394315 0.442289 0.221485
0.405657 0.441088 0.230374
0.416758 0.439818 0.239044
0.427512 0.438416 0.247389
0.438092 0.437042 0.255598
0.448467 0.435701 0.263649
0.458606 0.434397 0.271517
0.468478 0.433135 0.279178
0.478051 0.431921 0.286607
0.487293 0.430758 0.293780
0.496174 0.429653 0.300673
0.504661 0.428609 0.307261
0.512723 0.427633 0.313519
0.520328 0.426728 0.319424
0.089708 0.482538 0.118948
0.109556 0.483035 0.119411
0.130633 0.483531 0.119875
0.152854 0.484028 0.120338
0.176137 0.484524 0.120802
0.200398 0.485020 0.121265
0.225555 0.485515 0.121729
0.251523 0.486010 0.122193
0.271751 0.485884 0.125731
0.282435 0.484780 0.134110
0.293333 0.483641 0.142656
0.304414 0.482474 0.151343
0.315647 0.481282 0.160148
0.327000 0.480072 0.169047
0.338443 0.478847 0.178014
0.349943 0.477613 0.187027
0.361470 0.476374 0.196060
0.372993 0.475136 0.205090
0.384235 0.473744 0.213837
0.395333 0.472300 0.222448
0.406350 0.470870 0.230996
0.417254 0.469458 0.239457
0.428014 0.468068 0.247806
0.438599 0.466707 0.256020
0.448977 0.465378 0.264073
0.459118 0.464087 0.271943
0.468989 0.462838 0.279604
0.478559 0.461637 0.287031
0.487798 0.460488 0.294202
0.496672 0.459396 0.301090
0.505152 0.458367 0.307672
0.513204 0.457405 0.313923
0.520798 0.456515 0.319819
0.091429 0.513146 0.120507
0.111312 0.513632 0.120971
0.132417 0.514119 0.121434
0.154662 0.514605 0.121898
0.177964 0.515091 0.122362
0.202239 0.515576 0.122826
0.227405 0.516061 0.123290
0.253378 0.516546 0.123754
0.273441 0.516394 0.127369
0.284123 0.515279 0.135748
0.295018 0.514131 0.144291
0.306094 0.512954 0.152974
0.317321 0.511753 0.161774
0.328666 0.510533 0.170666
0.340065 0.509282 0.179592
0.351194 0.507844 0.188227
0.362365 0.506400 0.196895
0.373546 0.504955 0.205571
0.384707 0.503514 0.214230
0.395816 0.502081 0.222850
0.406842 0.500661 0.231406
0.417753 0.499259 0.239873
0.428520 0.497881 0.248227
0.439109 0.496531 0.256445
0.449490 0.495213 0.264501
0.459632 0.493934 0.272372
0.469503 0.492697 0.280033
0.479071 0.491508 0.287459
0.488306 0.490372 0.294626
0.497174 0.489293 0.301511
0.505646 0.488277 0.308087
0.513689 0.487328 0.314331
0.521270 0.486452 0.320218
0.093151 0.543707 0.122067
0.113068 0.544182 0.122531
0.134202 0.544657 0.122995
0.156470 0.545131 0.123458
0.179791 0.545606 0.123922
0.204079 0.546080 0.124387
0.229254 0.546554 0.124851
0.255231 0.547027 0.125315
0.275131 0.546848 0.129008
0.285812 0.545722 0.137385
0.296703 0.544562 0.145925
0.307595 0.543297 0.154426
0.318435 0.541915 0.162836
0.329407 0.540512 0.171350
0.340482 0.539094 0.179943
0.351628 0.537664 0.188592
0.362814 0.536229 0.197271
0.374009 0.534792 0.205958
0.385182 0.533360 0.214628
0.396302 0.531936 0.223256
0.407337 0.530526 0.231820
0.418257 0.529134 0.240293
0.429029 0.527765 0.248653
0.439623 0.526425 0.256874
0.450007 0.525118 0.264933
0.460150 0.523849 0.272805
0.470021 0.522623 0.280465
0.479587 0.521445 0.287890
0.488817 0.520320 0.295055
0.497679 0.519253 0.301934
0.506143 0.518248 0.308505
0.514176 0.517312 0.314741
0.521746 0.516448 0.320619
0.094874 0.574131 0.123627
0.114824 0.574594 0.124091
0.135986 0.575056 0.124555
0.158278 0.575518 0.125020
0.181617 0.575980 0.125484
0.205919 0.576442 0.125948
0.231102 0.576903 0.126412
0.257083 0.577364 0.126877
0.276482 0.577037 0.130310
0.286760 0.575751 0.138286
0.297263 0.574430 0.146436
0.307960 0.573080 0.154736
0.318820 0.571704 0.163163
0.329811 0.570308 0.171692
0.340904 0.568897 0.180299
0.352066 0.567474 0.188961
0.363267 0.566046 0.197652
0.374476 0.564617 0.206350
0.385661 0.563193 0.215030
0.396792 0.561777 0.223667
0.407836 0.560374 0.232237
0.418764 0.558991 0.240717
0.429542 0.557631 0.249082
0.440141 0.556300 0.257307
0.450528 0.555002 0.265368
0.460672 0.553742 0.273241
0.470541 0.552526 0.280901
0.480105 0.551358 0.288325
0.489331 0.550243 0.295486
0.498187 0.549186 0.302361
0.506643 0.548193 0.308926
0.514666 0.547267 0.315155
0.522224 0.546415 0.321024
0.096597 0.604331 0.125189
0.116580 0.604780 0.125653
0.137771 0.605228 0.126117
0.160086 0.605677 0.126581
0.183359 0.606102 0.126967
0.207242 0.606428 0.127006
0.232036 0.606754 0.127046
0.257661 0.607080 0.127085
0.276783 0.606710 0.130572
0.287085 0.605429 0.138566
0.297611 0.604113 0.146734
0.308329 0.602768 0.155051
0.319209 0.601398 0.163494
0.330220 0.600007 0.172038
0.341330 0.598601 0.180659
0.352509 0.597185 0.189334
0.363725 0.595763 0.198037
0.374947 0.594340 0.206746
0.386145 0.592922 0.215435
0.397286 0.591513 0.224081
0.408339 0.590118 0.232659
0.419274 0.588741 0.241145
0.430059 0.587389 0.249514
0.440662 0.586065 0.257743
0.451052 0.584775 0.265807
0.461197 0.583524 0.273681
0.471066 0.582316 0.281341
0.480627 0.581156 0.288762
0.489848 0.580050 0.295921
0.498698 0.579003 0.302792
0.507146 0.578019 0.309350
0.515158 0.577103 0.315572
0.522705 0.576261 0.321432
0.098321 0.634216 0.126750
0.118064 0.634595 0.126981
0.138806 0.634927 0.127020
0.160700 0.635259 0.127060
0.183664 0.635592 0.127100
0.207618 0.635924 0.127140
0.232481 0.636257 0.127181
0.258172 0.636591 0.127222
0.277088 0.636202 0.130838
0.287414 0.634925 0.138851
0.297963 0.633613 0.147037
0.308702 0.632272 0.155371
0.319603 0.630905 0.163829
0.330632 0.629519 0.172388
0.341760 0.628118 0.181024
0.352955 0.626706 0.189711
0.364186 0.625289 0.198427
0.375422 0.623871 0.207146
0.386632 0.622458 0.215845
0.397784 0.621055 0.224499
0.408846 0.619665 0.233084
0.419789 0.618295 0.241577
0.430579 0.616948 0.249951
0.441187 0.615631 0.258183
0.451579 0.614348 0.266249
0.461725 0.613103 0.274125
0.471593 0.611902 0.281784
0.481151 0.610750 0.289204
0.490368 0.609652 0.296359
0.499212 0.608613 0.303225
0.507652 0.607637 0.309778
0.515654 0.606730 0.315992
0.523188 0.605896 0.321843
0.098554 0.663462 0.127075
0.118145 0.663800 0.127115
0.138966 0.664138 0.127155
0.160936 0.664477 0.127196
0.183974 0.664815 0.127238
0.207999 0.665154 0.127279
0.232930 0.665493 0.127322
0.258687 0.665832 0.127364
0.277398 0.665423 0.131108
0.287748 0.664148 0.139140
0.298319 0.662839 0.147344
0.309080 0.661500 0.155695
0.320000 0.660137 0.164169
0.331049 0.658753 0.172743
0.342194 0.657355 0.181392
0.353406 0.655947 0.190093
0.364652 0.654534 0.198820
0.375901 0.653120 0.207550
0.387123 0.651711 0.216259
0.398285 0.650311 0.224921
0.409357 0.648926 0.233514
0.420307 0.647560 0.242012
0.431104 0.646219 0.250391
0.441715 0.644907 0.258627
0.452110 0.643629 0.266696
0.462257 0.642390 0.274572
0.472124 0.641195 0.282231
0.481679 0.640049 0.289649
0.490892 0.638957 0.296801
0.499729 0.637924 0.303662
0.508160 0.636956 0.310208
0.516152 0.636056 0.316415
0.523674 0.635230 0.322256
0.098560 0.692311 0.127211
0.118232 0.692653 0.127253
0.139131 0.692996 0.127295
0.161176 0.693339 0.127337
0.184288 0.693682 0.127380
0.208384 0.694025 0.127423
0.233384 0.694369 0.127466
0.259207 0.694712 0.127510
0.277713 0.694282 0.131383
0.288086 0.693008 0.139434
0.298680 0.691700 0.147655
0.309462 0.690363 0.156023
0.320403 0.689001 0.164513
0.331470 0.687619 0.173102
0.342633 0.686223 0.181765
0.353861 0.684817 0.190478
0.365122 0.683406 0.199218
0.376385 0.681994 0.207958
0.387618 0.680588 0.216676
0.398791 0.679191 0.225348
0.409872 0.677809 0.233947
0.420829 0.676447 0.242452
0.431631 0.675109 0.250836
0.442247 0.673801 0.259075
0.452644 0.672527 0.267146
0.462792 0.671292 0.275022
0.472658 0.670102 0.282681
0.482211 0.668961 0.290097
0.491418 0.667874 0.297246
0.500249 0.666846 0.304102
0.508672 0.665883 0.310642
0.516653 0.664989 0.316841
0.524163 0.664170 0.322673
0.098570 0.720518 0.127353
0.118323 0.720852 0.127395
0.139300 0.721186 0.127439
0.161422 0.721519 0.127482
0.184607 0.721853 0.127526
0.208774 0.722187 0.127571
0.233842 0.722520 0.127616
0.259731 0.722853 0.127661
0.278032 0.722418 0.131663
0.288429 0.721191 0.139732
0.299045 0.719927 0.147971
0.309849 0.718629 0.156355
0.320809 0.717302 0.164862
0.331895 0.715952 0.173465
0.343076 0.714582 0.182142
0.354320 0.713196 0.190868
0.365595 0.711801 0.199619
0.376872 0.710400 0.208371
0.388117 0.708999 0.217098
0.399301 0.707604 0.225778
0.410390 0.706224 0.234385
0.421355 0.704863 0.242895
0.432163 0.703527 0.251284
0.442782 0.702221 0.259527
0.453182 0.700950 0.267599
0.463330 0.699718 0.275477
0.473195 0.698531 0.283135
0.482745 0.697394 0.290549
0.491948 0.696311 0.297694
0.500772 0.695287 0.304546
0.509186 0.694328 0.311080
0.517157 0.693439 0.317270
0.524654 0.692624 0.323093
0.098585 0.746387 0.127498
0.118418 0.746696 0.127543
0.139474 0.747005 0.127587
0.161671 0.747313 0.127632
0.184930 0.747622 0.127678
0.209168 0.747930 0.127724
0.234305 0.748238 0.127770
0.260259 0.748546 0.127817
0.278355 0.748125 0.131946
0.288776 0.746995 0.140034
0.299414 0.745830 0.148291
0.310240 0.744634 0.156692
0.321220 0.743412 0.165214
0.332325 0.742167 0.173833
0.343523 0.740904 0.182524
0.354783 0.739627 0.191262
0.366073 0.738340 0.200025
0.377363 0.737047 0.208787
0.388620 0.735755 0.217524
0.399814 0.734466 0.226212
0.410913 0.733185 0.234826
0.421884 0.731918 0.243342
0.432698 0.730670 0.251736
0.443321 0.729445 0.259982
0.453723 0.728247 0.268057
0.463872 0.727084 0.275935
0.473736 0.725958 0.283592
0.483283 0.724877 0.291004
0.492481 0.723844 0.298146
0.501298 0.722865 0.304993
0.509703 0.721946 0.311520
0.517664 0.721092 0.317703
0.525148 0.720308 0.323516
0.098605 0.769594 0.127649
0.118518 0.769877 0.127695
0.139652 0.770160 0.127741
0.161926 0.770443 0.127787
0.185257 0.770725 0.127834
0.209567 0.771007 0.127881
0.234772 0.771290 0.127929
0.260791 0.771571 0.127977
0.278684 0.771166 0.132235
0.289128 0.770130 0.140341
0.299789 0.769061 0.148615
0.310635 0.767964 0.157033
0.321635 0.766842 0.165571
0.332759 0.765700 0.174205
0.343974 0.764540 0.182909
0.355250 0.763367 0.191661
0.366555 0.762185 0.200435
0.377858 0.760997 0.209208
0.389127 0.759809 0.217954
0.400331 0.758624 0.226650
0.411439 0.757447 0.235271
0.422418 0.756282 0.243793
0.433237 0.755134 0.252191
0.443864 0.754006 0.260441
0.454268 0.752905 0.268517
0.464417 0.751834 0.276396
0.474280 0.750798 0.284053
0.483823 0.749803 0.291463
0.493017 0.748852 0.298601
0.501827 0.747952 0.305443
0.510224 0.747106 0.311963
0.518173 0.746320 0.318138
0.525645 0.745599 0.323942
0.098630 0.790212 0.127804
0.118623 0.790469 0.127851
0.139835 0.790726 0.127898
0.162184 0.790982 0.127946
0.185590 0.791238 0.127994
0.209970 0.791494 0.128043
0.235243 0.791750 0.128092
0.261328 0.792005 0.128142
0.279016 0.791617 0.132527
0.289484 0.790671 0.140652
0.300167 0.789696 0.148944
0.311034 0.788694 0.157379
0.322055 0.787669 0.165933
0.333197 0.786625 0.174581
0.344430 0.785565 0.183299
0.355722 0.784493 0.192063
0.367042 0.783412 0.200849
0.378358 0.782326 0.209632
0.389639 0.781239 0.218388
0.400853 0.780154 0.227092
0.411969 0.779076 0.235721
0.422955 0.778009 0.244248
0.433779 0.776957 0.252651
0.444410 0.775924 0.260904
0.454817 0.774914 0.268982
0.464966 0.773932 0.276862
0.474827 0.772983 0.284518
0.484367 0.772070 0.291925
