design/lut/jc-grade-air.cube
TITLE "JC Alvarez — air"
LUT_3D_SIZE 33
DOMAIN_MIN 0 0 0
DOMAIN_MAX 1 1 1
0.118339 0.109216 0.106980
0.139449 0.110561 0.108285
0.160879 0.111905 0.109590
0.182611 0.113248 0.110895
0.204624 0.114592 0.112200
0.226898 0.115934 0.113503
0.236272 0.116001 0.121136
0.245724 0.116053 0.128837
0.255251 0.116092 0.136597
0.264847 0.116120 0.144412
0.274504 0.116138 0.152274
0.284214 0.116147 0.160178
0.293970 0.116149 0.168118
0.303764 0.116144 0.176088
0.313589 0.116133 0.184082
0.323438 0.116118 0.192094
0.333302 0.116101 0.200119
0.343174 0.116081 0.208150
0.353048 0.116061 0.216182
0.362915 0.116041 0.224208
0.372769 0.116024 0.232224
0.382601 0.116009 0.240223
0.392404 0.115997 0.248200
0.402172 0.115992 0.256148
0.411897 0.115992 0.264062
0.421571 0.116000 0.271936
0.431187 0.116017 0.279765
0.440738 0.116043 0.287543
0.450217 0.116080 0.295263
0.459616 0.116130 0.302922
0.468929 0.116192 0.310511
0.478148 0.116269 0.318027
0.487265 0.116362 0.325464
0.122905 0.133566 0.111370
0.144023 0.134912 0.112674
0.165460 0.136258 0.113978
0.187194 0.137603 0.115281
0.209205 0.138948 0.116585
0.231374 0.140283 0.117935
0.240738 0.140351 0.125567
0.250184 0.140405 0.133264
0.259704 0.140447 0.141019
0.269292 0.140477 0.148827
0.278940 0.140498 0.156681
0.288639 0.140509 0.164577
0.298384 0.140514 0.172507
0.308165 0.140511 0.180466
0.317976 0.140504 0.188449
0.327809 0.140492 0.196449
0.337656 0.140478 0.204460
0.347511 0.140462 0.212477
0.357366 0.140445 0.220494
0.367213 0.140429 0.228504
0.377046 0.140415 0.236503
0.386856 0.140404 0.244485
0.396636 0.140397 0.252442
0.406379 0.140395 0.260371
0.416078 0.140400 0.268265
0.425726 0.140412 0.276118
0.435315 0.140433 0.283925
0.444838 0.140464 0.291680
0.454287 0.140506 0.299378
0.463656 0.140560 0.307012
0.472938 0.140627 0.314577
0.482124 0.140709 0.322067
0.491209 0.140806 0.329477
0.127466 0.158244 0.115756
0.148593 0.159591 0.117059
0.170035 0.160937 0.118361
0.191770 0.162283 0.119663
0.213780 0.163628 0.120965
0.235838 0.164953 0.122365
0.245197 0.165021 0.129993
0.254638 0.165076 0.137685
0.264152 0.165118 0.145434
0.273731 0.165150 0.153235
0.283369 0.165172 0.161082
0.293058 0.165185 0.168969
0.302790 0.165191 0.176890
0.312558 0.165190 0.184838
0.322355 0.165184 0.192809
0.332172 0.165175 0.200796
0.342003 0.165162 0.208794
0.351840 0.165148 0.216797
0.361676 0.165134 0.224798
0.371503 0.165120 0.232793
0.381314 0.165108 0.240775
0.391101 0.165100 0.248738
0.400858 0.165095 0.256677
0.410577 0.165096 0.264586
0.420251 0.165104 0.272460
0.429872 0.165119 0.280292
0.439433 0.165143 0.288077
0.448927 0.165177 0.295809
0.458347 0.165222 0.303483
0.467686 0.165279 0.311093
0.476936 0.165350 0.318633
0.486090 0.165435 0.326097
0.495142 0.165536 0.333481
0.132022 0.183221 0.120137
0.153158 0.184567 0.121439
0.174604 0.185912 0.122740
0.196340 0.187257 0.124041
0.218347 0.188601 0.125341
0.240296 0.189915 0.126789
0.249651 0.189982 0.134414
0.259086 0.190037 0.142100
0.268592 0.190079 0.149844
0.278163 0.190110 0.157638
0.287792 0.190132 0.165477
0.297470 0.190145 0.173355
0.307190 0.190151 0.181265
0.316944 0.190150 0.189203
0.326726 0.190145 0.197162
0.336527 0.190136 0.205137
0.346341 0.190124 0.213121
0.356160 0.190111 0.221109
0.365977 0.190097 0.229095
0.375783 0.190085 0.237073
0.385573 0.190074 0.245038
0.395338 0.190067 0.252983
0.405071 0.190063 0.260903
0.414765 0.190066 0.268793
0.424413 0.190075 0.276646
0.434008 0.190091 0.284457
0.443541 0.190117 0.292220
0.453007 0.190153 0.299929
0.462397 0.190200 0.307579
0.471705 0.190259 0.315165
0.480924 0.190332 0.322680
0.490046 0.190419 0.330118
0.499064 0.190522 0.337476
0.136574 0.208469 0.124514
0.157717 0.209812 0.125814
0.179167 0.211155 0.127114
0.200904 0.212498 0.128414
0.222907 0.213839 0.129713
0.244749 0.215141 0.131208
0.254099 0.215206 0.138828
0.263527 0.215259 0.146510
0.273026 0.215299 0.154247
0.282589 0.215329 0.162034
0.292207 0.215349 0.169865
0.301874 0.215361 0.177733
0.311581 0.215366 0.185634
0.321322 0.215364 0.193561
0.331089 0.215358 0.201508
0.340875 0.215348 0.209470
0.350671 0.215336 0.217440
0.360472 0.215322 0.225413
0.370269 0.215308 0.233384
0.380055 0.215295 0.241345
0.389823 0.215284 0.249293
0.399565 0.215276 0.257220
0.409275 0.215273 0.265121
0.418944 0.215276 0.272991
0.428566 0.215285 0.280823
0.438134 0.215302 0.288612
0.447640 0.215328 0.296353
0.457076 0.215364 0.304040
0.466437 0.215412 0.311666
0.475714 0.215472 0.319227
0.484901 0.215545 0.326717
0.493991 0.215634 0.334130
0.502975 0.215738 0.341460
0.141121 0.233958 0.128887
0.162271 0.235298 0.130185
0.183725 0.236638 0.131484
0.205461 0.237976 0.132782
0.227461 0.239314 0.134079
0.249195 0.240602 0.135621
0.258540 0.240664 0.143237
0.267962 0.240714 0.150913
0.277454 0.240751 0.158644
0.287007 0.240778 0.166424
0.296616 0.240796 0.174246
0.306271 0.240805 0.182106
0.315966 0.240807 0.189996
0.325693 0.240803 0.197912
0.335445 0.240795 0.205847
0.345214 0.240783 0.213795
0.354993 0.240768 0.221751
0.364775 0.240753 0.229710
0.374553 0.240737 0.237664
0.384318 0.240722 0.245609
0.394064 0.240710 0.253539
0.403783 0.240701 0.261448
0.413469 0.240697 0.269330
0.423113 0.240698 0.277180
0.432710 0.240706 0.284991
0.442250 0.240722 0.292759
0.451728 0.240748 0.300478
0.461136 0.240783 0.308141
0.470466 0.240830 0.315744
0.479713 0.240889 0.323280
0.488868 0.240962 0.330744
0.497925 0.241050 0.338131
0.506876 0.241154 0.345435
0.145664 0.259661 0.133254
0.166820 0.260996 0.134552
0.188276 0.262330 0.135848
0.210011 0.263664 0.137145
0.232006 0.264997 0.138441
0.253636 0.266270 0.140028
0.262976 0.266328 0.147640
0.272391 0.266373 0.155310
0.281875 0.266406 0.163035
0.291419 0.266429 0.170807
0.301017 0.266443 0.178621
0.310660 0.266448 0.186471
0.320342 0.266446 0.194351
0.330055 0.266439 0.202255
0.339792 0.266427 0.210178
0.349545 0.266412 0.218113
0.359306 0.266394 0.226055
0.369070 0.266376 0.233998
0.378827 0.266357 0.241937
0.388572 0.266339 0.249865
0.398296 0.266324 0.257778
0.407992 0.266313 0.265668
0.417654 0.266306 0.273531
0.427273 0.266305 0.281360
0.436843 0.266311 0.289151
0.446356 0.266324 0.296897
0.455806 0.266348 0.304593
0.465185 0.266381 0.312233
0.474485 0.266426 0.319812
0.483701 0.266484 0.327324
0.492824 0.266555 0.334763
0.501848 0.266641 0.342123
0.510765 0.266743 0.349400
0.150202 0.285549 0.137617
0.171364 0.286878 0.138913
0.192821 0.288206 0.140208
0.214555 0.289533 0.141503
0.236545 0.290860 0.142798
0.258070 0.292118 0.144429
0.267404 0.292170 0.152036
0.276813 0.292209 0.159701
0.286288 0.292237 0.167419
0.295823 0.292254 0.175184
0.305410 0.292262 0.182989
0.315042 0.292263 0.190829
0.324711 0.292256 0.198698
0.334410 0.292244 0.206591
0.344131 0.292227 0.214501
0.353867 0.292208 0.222423
0.363611 0.292185 0.230351
0.373356 0.292162 0.238279
0.383093 0.292140 0.246202
0.392816 0.292118 0.254113
0.402518 0.292099 0.262007
0.412191 0.292084 0.269879
0.421829 0.292073 0.277723
0.431423 0.292068 0.285532
0.440966 0.292070 0.293302
0.450452 0.292081 0.301026
0.459874 0.292101 0.308699
0.469223 0.292131 0.316316
0.478494 0.292173 0.323871
0.487678 0.292227 0.331357
0.496769 0.292295 0.338771
0.505760 0.292379 0.346106
0.514644 0.292478 0.353356
0.154734 0.311594 0.141975
0.175901 0.312916 0.143269
0.197360 0.314236 0.144563
0.219092 0.315556 0.145857
0.241076 0.316875 0.147150
0.262498 0.318116 0.148825
0.271827 0.318161 0.156427
0.281228 0.318194 0.164086
0.290695 0.318215 0.171797
0.300221 0.318225 0.179553
0.309797 0.318227 0.187350
0.319416 0.318221 0.195180
0.329072 0.318208 0.203039
0.338756 0.318190 0.210919
0.348462 0.318168 0.218817
0.358181 0.318142 0.226725
0.367907 0.318114 0.234639
0.377633 0.318086 0.242552
0.387350 0.318058 0.250458
0.397052 0.318031 0.258352
0.406731 0.318007 0.266229
0.416381 0.317986 0.274082
0.425994 0.317970 0.281906
0.435562 0.317961 0.289694
0.445079 0.317958 0.297443
0.454538 0.317964 0.305145
0.463931 0.317979 0.312796
0.473251 0.318005 0.320389
0.482491 0.318043 0.327920
0.491645 0.318093 0.335382
0.500704 0.318157 0.342770
0.509662 0.318236 0.350078
0.518511 0.318331 0.357301
0.159262 0.337769 0.146327
0.180433 0.339082 0.147620
0.201893 0.340394 0.148913
0.223622 0.341705 0.150205
0.245599 0.343015 0.151496
0.266920 0.344238 0.153214
0.276242 0.344275 0.160811
0.285636 0.344299 0.168464
0.295095 0.344312 0.176168
0.304611 0.344315 0.183916
0.314176 0.344309 0.191703
0.323783 0.344296 0.199524
0.333425 0.344276 0.207371
0.343095 0.344251 0.215240
0.352784 0.344221 0.223125
0.362487 0.344188 0.231020
0.372195 0.344154 0.238919
0.381901 0.344119 0.246816
0.391598 0.344084 0.254706
0.401278 0.344050 0.262583
0.410935 0.344020 0.270441
0.420561 0.343993 0.278275
0.430149 0.343971 0.286080
0.439692 0.343956 0.293848
0.449183 0.343947 0.301575
0.458614 0.343947 0.309256
0.467978 0.343957 0.316883
0.477269 0.343977 0.324453
0.486478 0.344009 0.331959
0.495600 0.344053 0.339396
0.504627 0.344112 0.346758
0.513552 0.344186 0.354040
0.522368 0.344276 0.361236
0.163785 0.364045 0.150675
0.184959 0.365348 0.151966
0.206419 0.366650 0.153257
0.228144 0.367951 0.154547
0.250115 0.369252 0.155837
0.271335 0.370456 0.157597
0.280651 0.370483 0.165188
0.290038 0.370498 0.172835
0.299488 0.370502 0.180532
0.308993 0.370497 0.188272
0.318547 0.370482 0.196050
0.328142 0.370460 0.203860
0.337770 0.370431 0.211697
0.347425 0.370397 0.219554
0.357098 0.370360 0.227425
0.366784 0.370319 0.235306
0.376473 0.370276 0.243190
0.386160 0.370233 0.251072
0.395836 0.370190 0.258945
0.405495 0.370150 0.266805
0.415129 0.370111 0.274645
0.424731 0.370077 0.282460
0.434295 0.370048 0.290245
0.443812 0.370025 0.297992
0.453276 0.370010 0.305698
0.462679 0.370003 0.313356
0.472015 0.370005 0.320961
0.481275 0.370019 0.328507
0.490455 0.370044 0.335989
0.499545 0.370082 0.343401
0.508539 0.370134 0.350737
0.517431 0.370202 0.357992
0.526212 0.370286 0.365161
0.168302 0.390396 0.155017
0.189479 0.391688 0.156307
0.210939 0.392979 0.157596
0.232660 0.394269 0.158885
0.254623 0.395558 0.160173
0.275744 0.396743 0.161974
0.285054 0.396760 0.169560
0.294432 0.396764 0.177200
0.303873 0.396758 0.184889
0.313368 0.396742 0.192621
0.322910 0.396717 0.200390
0.332493 0.396686 0.208189
0.342107 0.396647 0.216015
0.351746 0.396604 0.223859
0.361404 0.396557 0.231718
0.371072 0.396507 0.239585
0.380743 0.396455 0.247454
0.390409 0.396403 0.255320
0.400065 0.396351 0.263176
0.409702 0.396301 0.271019
0.419314 0.396255 0.278840
0.428892 0.396212 0.286636
0.438430 0.396174 0.294401
0.447922 0.396143 0.302128
0.457358 0.396120 0.309812
0.466734 0.396104 0.317448
0.476040 0.396099 0.325029
0.485272 0.396104 0.332552
0.494420 0.396122 0.340009
0.503479 0.396152 0.347395
0.512441 0.396197 0.354706
0.521179 0.396112 0.361799
0.529499 0.395654 0.368455
0.172813 0.416795 0.159354
0.193993 0.418075 0.160642
0.215452 0.419353 0.161930
0.237168 0.420631 0.163217
0.259123 0.421908 0.164503
0.280146 0.423071 0.166344
0.289449 0.423077 0.173924
0.298820 0.423070 0.181558
0.308251 0.423052 0.189240
0.317736 0.423025 0.196963
0.327266 0.422989 0.204722
0.336835 0.422946 0.212511
0.346436 0.422897 0.220325
0.356060 0.422843 0.228157
0.365701 0.422785 0.236002
0.375351 0.422725 0.243855
0.385003 0.422663 0.251709
0.394650 0.422601 0.259559
0.404285 0.422539 0.267399
0.413900 0.422479 0.275223
0.423488 0.422423 0.283027
0.433043 0.422370 0.290803
0.442556 0.422323 0.298547
0.452021 0.422283 0.306253
0.461431 0.422250 0.313916
0.470778 0.422225 0.321529
0.480056 0.422211 0.329088
0.489257 0.422207 0.336586
0.498076 0.421897 0.343689
0.506652 0.421417 0.350545
0.515151 0.420950 0.357342
0.523568 0.420499 0.364074
0.531894 0.420063 0.370735
0.177319 0.443214 0.163685
0.198501 0.444480 0.164972
0.219958 0.445746 0.166258
0.241669 0.447010 0.167543
0.263615 0.448273 0.168828
0.284541 0.449415 0.170708
0.293837 0.449407 0.178282
0.303200 0.449388 0.185909
0.312621 0.449358 0.193583
0.322095 0.449318 0.201297
0.331614 0.449270 0.209046
0.341170 0.449215 0.216825
0.350756 0.449154 0.224627
0.360365 0.449089 0.232447
0.369989 0.449019 0.240278
0.379621 0.448947 0.248117
0.389254 0.448874 0.255955
0.398881 0.448800 0.263789
0.408495 0.448728 0.271612
0.418088 0.448657 0.279419
0.427653 0.448590 0.287204
0.437183 0.448526 0.294961
0.446671 0.448469 0.302685
0.456110 0.448417 0.310370
0.465493 0.448374 0.318011
0.474313 0.447871 0.325059
0.483085 0.447377 0.332070
0.491802 0.446893 0.339038
0.500457 0.446421 0.345957
0.509041 0.445962 0.352822
0.517549 0.445516 0.359626
0.525972 0.445086 0.366365
0.534303 0.444672 0.373031
0.181820 0.469627 0.168011
0.203003 0.470879 0.169296
0.224457 0.472130 0.170580
0.246162 0.473379 0.171864
0.268099 0.474628 0.173147
0.288930 0.475747 0.175065
0.298218 0.475726 0.182633
0.307572 0.475692 0.190253
0.316984 0.475649 0.197919
0.326447 0.475596 0.205624
0.335954 0.475535 0.213363
0.345496 0.475467 0.221131
0.355068 0.475393 0.228921
0.364661 0.475314 0.236728
0.374268 0.475232 0.244547
0.383882 0.475147 0.252370
0.393497 0.475062 0.260194
0.403103 0.474976 0.268011
0.412696 0.474891 0.275817
0.422266 0.474808 0.283606
0.431808 0.474729 0.291372
0.441117 0.474495 0.298900
0.450055 0.473990 0.306040
0.458965 0.473490 0.313160
0.467841 0.472998 0.320253
0.476675 0.472514 0.327313
0.485460 0.472039 0.334335
0.494188 0.471575 0.341314
0.502853 0.471123 0.348242
0.511446 0.470683 0.355115
0.519962 0.470258 0.361927
0.528391 0.469848 0.368671
0.536727 0.469454 0.375343
0.186315 0.496008 0.172331
0.207498 0.497244 0.173614
0.228949 0.498479 0.174897
0.250648 0.499713 0.176179
0.272575 0.500946 0.177460
0.293311 0.502041 0.179415
0.302592 0.502005 0.186977
0.311937 0.501957 0.194590
0.321340 0.501899 0.202247
0.330791 0.501831 0.209944
0.340285 0.501756 0.217673
0.349814 0.501673 0.225429
0.359371 0.501585 0.233208
0.368948 0.501493 0.241002
0.378538 0.501397 0.248806
0.388134 0.501299 0.256615
0.397729 0.501200 0.264423
0.407316 0.501100 0.272224
0.416471 0.500709 0.279576
0.425467 0.500210 0.286764
0.434457 0.499714 0.293946
0.443433 0.499221 0.301118
0.452388 0.498734 0.308273
0.461315 0.498252 0.315407
0.470205 0.497778 0.322512
0.479053 0.497312 0.329585
0.487850 0.496856 0.336618
0.496590 0.496410 0.343606
0.505265 0.495977 0.350543
0.513867 0.495556 0.357424
0.522389 0.495150 0.364243
0.530825 0.494759 0.370993
0.539165 0.494385 0.377670
0.190804 0.522329 0.176645
0.211987 0.523549 0.177926
0.233434 0.524767 0.179207
0.255126 0.525985 0.180487
0.277042 0.527200 0.181767
0.297685 0.528271 0.183758
0.306958 0.528219 0.191314
0.316295 0.528155 0.198920
0.325687 0.528081 0.206569
0.335127 0.527998 0.214256
0.344609 0.527908 0.221975
0.354124 0.527810 0.229720
0.363666 0.527707 0.237486
0.373227 0.527600 0.245267
0.382743 0.527455 0.252999
0.391720 0.526972 0.260170
0.400717 0.526488 0.267358
0.409728 0.526003 0.274558
0.418746 0.525519 0.281762
0.427763 0.525036 0.288967
0.436773 0.524557 0.296166
0.445767 0.524081 0.303353
0.454739 0.523610 0.310523
0.463681 0.523146 0.317670
0.472586 0.522688 0.324789
0.481447 0.522240 0.331873
0.490257 0.521801 0.338917
0.499007 0.521373 0.345915
0.507692 0.520957 0.352861
0.516302 0.520555 0.359750
0.524832 0.520167 0.366575
0.533273 0.519794 0.373331
0.541618 0.519438 0.380013
0.195287 0.548566 0.180953
0.216469 0.549768 0.182233
0.237912 0.550969 0.183512
0.259596 0.552168 0.184790
0.281501 0.553366 0.186068
0.302052 0.554412 0.188095
0.311318 0.554342 0.195644
0.320645 0.554262 0.203242
0.330026 0.554171 0.210883
0.339455 0.554072 0.218560
0.348924 0.553964 0.226268
0.358131 0.553697 0.233703
0.367030 0.553241 0.240813
0.375970 0.552780 0.247956
0.384944 0.552316 0.255126
0.393945 0.551848 0.262318
0.402966 0.551379 0.269526
0.412000 0.550909 0.276744
0.421039 0.550440 0.283966
0.430077 0.549973 0.291188
0.439105 0.549509 0.298403
0.448117 0.549049 0.305606
0.457106 0.548594 0.312790
0.466064 0.548145 0.319951
0.474983 0.547704 0.327082
0.483858 0.547272 0.334177
0.492679 0.546850 0.341232
0.501441 0.546438 0.348240
0.510134 0.546039 0.355195
0.518753 0.545653 0.362091
0.527290 0.545282 0.368923
0.535736 0.544927 0.375685
0.544086 0.544588 0.382371
0.199763 0.574692 0.185256
0.220945 0.575876 0.186533
0.242383 0.577057 0.187810
0.264059 0.578238 0.189087
0.285952 0.579417 0.190363
0.306412 0.580436 0.192425
0.315669 0.580349 0.199967
0.324987 0.580250 0.207557
0.333804 0.579893 0.214630
0.342567 0.579472 0.221634
0.351392 0.579043 0.228686
0.360271 0.578607 0.235782
0.369197 0.578164 0.242915
0.378164 0.577717 0.250080
0.387163 0.577266 0.257271
0.396189 0.576812 0.264483
0.405233 0.576357 0.271711
0.414289 0.575901 0.278948
0.423350 0.575447 0.286188
0.432407 0.574994 0.293427
0.441454 0.574544 0.300658
0.450484 0.574099 0.307876
0.459490 0.573659 0.315074
0.468463 0.573225 0.322248
0.477397 0.572799 0.329392
0.486284 0.572382 0.336499
0.495117 0.571975 0.343564
0.503889 0.571579 0.350581
0.512592 0.571196 0.357545
0.521219 0.570826 0.364448
0.529762 0.570471 0.371287
0.538214 0.570132 0.378054
0.546568 0.569809 0.384745
0.204234 0.600682 0.189552
0.225413 0.601846 0.190827
0.246846 0.603008 0.192103
0.268513 0.604168 0.193377
0.290263 0.605278 0.194519
0.309930 0.605999 0.195913
0.318498 0.605621 0.202764
0.327149 0.605232 0.209680
0.335875 0.604833 0.216655
0.344668 0.604424 0.223684
0.353522 0.604007 0.230760
0.362429 0.603583 0.237879
0.371382 0.603153 0.245035
0.380375 0.602718 0.252222
0.389400 0.602280 0.259435
0.398450 0.601839 0.266667
0.407518 0.601397 0.273914
0.416596 0.600954 0.281169
0.425677 0.600513 0.288428
0.434755 0.600073 0.295683
0.443821 0.599637 0.302930
0.452868 0.599205 0.310163
0.461890 0.598779 0.317376
0.470878 0.598359 0.324563
0.479826 0.597947 0.331719
0.488726 0.597544 0.338837
0.497571 0.597152 0.345912
0.506353 0.596770 0.352939
0.515066 0.596402 0.359911
0.523700 0.596047 0.366822
0.532250 0.595706 0.373667
0.540707 0.595382 0.380439
0.549064 0.595075 0.387134
0.208698 0.626511 0.193841
0.229444 0.627520 0.194723
0.250126 0.628422 0.195283
0.271092 0.629324 0.195844
0.292324 0.630228 0.196407
0.311922 0.630950 0.197878
0.320524 0.630583 0.204756
0.329207 0.630205 0.211698
0.337964 0.629816 0.218699
0.346787 0.629418 0.225752
0.355670 0.629012 0.232853
0.364605 0.628600 0.239996
0.373586 0.628181 0.247174
0.382605 0.627758 0.254383
0.391655 0.627331 0.261616
0.400729 0.626902 0.268869
0.409820 0.626472 0.276135
0.418920 0.626041 0.283409
0.428022 0.625612 0.290685
0.437119 0.625185 0.297957
0.446204 0.624761 0.305220
0.455269 0.624341 0.312468
0.464307 0.623928 0.319694
0.473310 0.623521 0.326894
0.482272 0.623122 0.334062
0.491185 0.622732 0.341192
0.500041 0.622353 0.348277
0.508833 0.621985 0.355313
0.517554 0.621630 0.362293
0.526196 0.621289 0.369211
0.534752 0.620962 0.376062
0.543214 0.620652 0.382840
0.551575 0.620359 0.389538
0.210804 0.651536 0.196049
0.231271 0.652450 0.196613
0.252039 0.653366 0.197178
0.273089 0.654282 0.197746
0.294402 0.655200 0.198315
0.313934 0.655922 0.199861
0.322569 0.655564 0.206767
0.331284 0.655196 0.213735
0.340071 0.654817 0.220762
0.348925 0.654429 0.227840
0.357837 0.654034 0.234965
0.366800 0.653631 0.242130
0.375808 0.653223 0.249331
0.384853 0.652810 0.256562
0.393928 0.652394 0.263816
0.403026 0.651975 0.271089
0.412140 0.651556 0.278374
0.421262 0.651136 0.285666
0.430385 0.650718 0.292960
0.439501 0.650302 0.300248
0.448604 0.649889 0.307527
0.457686 0.649482 0.314789
0.466740 0.649079 0.322030
0.475759 0.648684 0.329243
0.484734 0.648297 0.336423
0.493659 0.647920 0.343563
0.502526 0.647552 0.350658
0.511328 0.647197 0.357703
0.520058 0.646854 0.364691
0.528707 0.646525 0.371616
0.537269 0.646212 0.378473
0.545736 0.645915 0.385255
0.554100 0.645635 0.391958
0.212562 0.676452 0.197953
0.233118 0.677379 0.198522
0.253972 0.678308 0.199094
0.275105 0.679237 0.199667
0.296500 0.680168 0.200242
0.315965 0.680888 0.201864
0.324633 0.680540 0.208796
0.333379 0.680180 0.215791
0.342198 0.679810 0.222843
0.351081 0.679431 0.229946
0.360022 0.679044 0.237095
0.369013 0.678651 0.244284
0.378048 0.678252 0.251507
0.387119 0.677848 0.258759
0.396219 0.677441 0.266034
0.405341 0.677033 0.273327
0.414477 0.676623 0.280631
0.423621 0.676213 0.287941
0.432764 0.675805 0.295252
0.441900 0.675399 0.302557
0.451021 0.674996 0.309851
0.460120 0.674599 0.317128
0.469190 0.674207 0.324382
0.478223 0.673823 0.331608
0.487212 0.673446 0.338800
0.496149 0.673079 0.345951
0.505027 0.672723 0.353056
0.513839 0.672379 0.360109
0.522577 0.672048 0.367105
0.531233 0.671730 0.374037
0.539801 0.671428 0.380900
0.548272 0.671143 0.387687
0.556639 0.670875 0.394392
0.214340 0.701342 0.199876
0.234984 0.702281 0.200451
0.255923 0.703221 0.201028
0.277140 0.704163 0.201607
0.298616 0.705105 0.202188
0.318015 0.705823 0.203886
0.326715 0.705482 0.210845
0.335494 0.705130 0.217866
0.344343 0.704767 0.224943
0.353256 0.704396 0.232071
0.362226 0.704017 0.239243
0.371245 0.703632 0.246455
0.380307 0.703241 0.253701
0.389403 0.702846 0.260974
0.398528 0.702447 0.268270
0.407673 0.702047 0.275582
0.416832 0.701645 0.282906
0.425997 0.701244 0.290234
0.435160 0.700845 0.297562
0.444315 0.700448 0.304883
0.453455 0.700054 0.312193
0.462571 0.699666 0.319484
0.471656 0.699284 0.326752
0.480703 0.698909 0.333990
0.489705 0.698542 0.341193
0.498655 0.698185 0.348355
0.507544 0.697839 0.355470
0.516365 0.697504 0.362532
0.525111 0.697183 0.369535
0.533774 0.696876 0.376474
0.542347 0.696585 0.383342
0.550822 0.696310 0.390133
0.559192 0.696053 0.396842
0.216137 0.726165 0.201819
0.236869 0.727108 0.202400
0.257894 0.728050 0.202983
0.279194 0.728991 0.203567
0.300751 0.729931 0.204154
0.320085 0.730636 0.205927
0.328817 0.730306 0.212913
0.337627 0.729965 0.219960
0.346507 0.729614 0.227062
0.355449 0.729254 0.234214
0.364448 0.728886 0.241411
0.373495 0.728512 0.248646
0.382583 0.728132 0.255913
0.391705 0.727748 0.263208
0.400855 0.727361 0.270524
0.410023 0.726971 0.277856
0.419204 0.726580 0.285198
0.428390 0.726190 0.292544
0.437574 0.725800 0.299889
0.446748 0.725413 0.307227
0.455905 0.725030 0.314551
0.465038 0.724651 0.321857
0.474139 0.724279 0.329138
0.483200 0.723913 0.336389
0.492215 0.723556 0.343603
0.501176 0.723208 0.350776
0.510076 0.722871 0.357900
0.518906 0.722546 0.364970
0.527660 0.722234 0.371981
0.536330 0.721936 0.378926
0.544908 0.721654 0.385799
0.553387 0.721389 0.392595
0.561760 0.721142 0.399308
0.217954 0.750185 0.203781
0.238773 0.751093 0.204368
0.259884 0.752001 0.204957
0.281267 0.752908 0.205547
0.302904 0.753814 0.206139
0.322173 0.754481 0.207987
0.330938 0.754171 0.215000
0.339779 0.753851 0.222072
0.348689 0.753521 0.229200
0.357661 0.753183 0.236377
0.366688 0.752838 0.243597
0.375763 0.752486 0.250854
0.384877 0.752129 0.258144
0.394025 0.751768 0.265460
0.403199 0.751404 0.272796
0.412391 0.751038 0.280148
0.421594 0.750671 0.287508
0.430801 0.750305 0.294873
0.440005 0.749939 0.302234
0.449198 0.749576 0.309588
0.458372 0.749217 0.316927
0.467521 0.748862 0.324247
0.476637 0.748513 0.331542
0.485713 0.748171 0.338804
0.494741 0.747837 0.346030
0.503713 0.747513 0.353213
0.512623 0.747198 0.360346
0.521462 0.746895 0.367425
0.530224 0.746605 0.374443
0.538900 0.746328 0.381394
0.547483 0.746067 0.388273
0.555966 0.745821 0.395072
0.564341 0.745593 0.401788
0.219791 0.772983 0.205762
0.240697 0.773856 0.206355
0.261892 0.774728 0.206950
0.283358 0.775598 0.207546
0.305075 0.776468 0.208144
0.324280 0.777098 0.210066
0.333077 0.776807 0.217105
0.341950 0.776506 0.224204
0.350890 0.776195 0.231357
0.359892 0.775877 0.238557
0.368947 0.775553 0.245801
0.378049 0.775222 0.253081
0.387190 0.774886 0.260393
0.396363 0.774547 0.267730
0.405561 0.774204 0.275087
0.414776 0.773860 0.282457
0.424001 0.773515 0.289837
0.433229 0.773171 0.297218
0.442452 0.772828 0.304597
0.451664 0.772487 0.311966
0.460856 0.772150 0.319320
0.470021 0.771817 0.326654
0.479152 0.771490 0.333962
0.488242 0.771170 0.341237
0.497282 0.770857 0.348473
0.506266 0.770554 0.355666
0.515186 0.770260 0.362809
0.524034 0.769977 0.369895
