design/lut/jc-grade-clean-deep.cube
TITLE "JC Alvarez — clean-deep"
LUT_3D_SIZE 5
DOMAIN_MIN 0 0 0
DOMAIN_MAX 1 1 1
0.106254 0.125894 0.141258
0.268522 0.118225 0.132531
0.499002 0.111783 0.125033
0.585653 0.092431 0.188465
0.638388 0.079421 0.228135
0.091480 0.273599 0.116820
0.259267 0.270016 0.112296
0.492271 0.266179 0.114311
0.584631 0.249446 0.185217
0.644887 0.238815 0.231606
0.090143 0.511139 0.106714
0.258300 0.511604 0.106533
0.493483 0.510701 0.114891
0.590223 0.496308 0.189869
0.656210 0.487287 0.241376
0.100392 0.759153 0.109495
0.263787 0.760571 0.112605
0.502189 0.760574 0.123648
0.602148 0.748177 0.202039
0.673223 0.739790 0.258400
0.122246 0.896095 0.125168
0.278406 0.897631 0.132674
0.521589 0.898484 0.143774
0.622284 0.889963 0.223647
0.696654 0.883791 0.283460
0.104164 0.123153 0.301570
0.267236 0.115898 0.294603
0.499382 0.109878 0.288380
0.690433 0.100841 0.303930
0.742343 0.088198 0.344250
0.090730 0.272293 0.281145
0.258780 0.268983 0.276794
0.503909 0.266495 0.273280
0.688834 0.258864 0.300104
0.746876 0.248397 0.346029
0.090765 0.511266 0.269877
0.258694 0.511827 0.268430
0.509938 0.512387 0.267392
0.690911 0.506165 0.300934
0.753382 0.497085 0.351187
0.101969 0.759659 0.267023
0.264803 0.761005 0.267878
0.517042 0.762154 0.269705
0.697318 0.756801 0.307054
0.763054 0.748286 0.361273
0.125222 0.896660 0.273795
0.280457 0.898065 0.277982
0.527725 0.899096 0.283188
0.709706 0.895692 0.320272
0.776488 0.889352 0.377200
0.114007 0.118208 0.498101
0.266026 0.113715 0.519931
0.499774 0.108116 0.518103
0.735538 0.103773 0.516488
0.861127 0.100697 0.515104
0.103704 0.268378 0.488491
0.258378 0.268045 0.514662
0.504457 0.265842 0.513629
0.750312 0.264490 0.512876
0.873776 0.263032 0.517245
0.103685 0.509009 0.488100
0.259180 0.512084 0.512339
0.510519 0.512581 0.511945
0.760476 0.513377 0.511877
0.879048 0.512330 0.522991
0.111973 0.758653 0.495196
0.265920 0.761416 0.512393
0.517942 0.762503 0.513245
0.766991 0.763424 0.514525
0.884092 0.761790 0.529478
0.130196 0.896939 0.511343
0.282616 0.898457 0.516997
0.529040 0.899363 0.519370
0.771012 0.899914 0.522240
0.889457 0.898546 0.537544
0.179349 0.102403 0.579528
0.295490 0.105595 0.680507
0.500179 0.106500 0.743063
0.737247 0.102586 0.745431
0.863435 0.099943 0.747511
0.174755 0.253046 0.576639
0.293313 0.260199 0.679592
0.505025 0.265286 0.749904
0.751548 0.264228 0.751352
0.882538 0.264050 0.752557
0.178589 0.494497 0.580663
0.295906 0.505000 0.682435
0.511129 0.512813 0.753849
0.761276 0.513727 0.754559
0.895658 0.515000 0.755087
0.188774 0.745502 0.589858
0.302047 0.755535 0.688045
0.518880 0.762834 0.755552
0.767492 0.763703 0.755732
0.903267 0.764437 0.755802
0.207346 0.887708 0.606074
0.314662 0.894948 0.698989
0.530402 0.899589 0.755761
0.771323 0.900023 0.755664
0.906015 0.900075 0.755537
0.217100 0.092249 0.626738
0.335180 0.095602 0.728817
0.503228 0.104506 0.851421
0.738906 0.101545 0.860335
0.865671 0.099336 0.864917
0.218216 0.243316 0.630570
0.338105 0.250508 0.733691
0.513295 0.263303 0.859499
0.752740 0.264068 0.873964
0.884126 0.263957 0.877106
0.226890 0.485332 0.640230
0.344712 0.495529 0.740820
0.522313 0.510989 0.866279
0.762041 0.514117 0.883226
0.896665 0.515518 0.885148
0.240764 0.736700 0.653747
0.354228 0.746656 0.749567
0.530858 0.761181 0.872176
0.767969 0.763966 0.888190
0.903756 0.764660 0.888868
0.262070 0.881240 0.672984
0.368918 0.888426 0.761545
0.540201 0.898697 0.877957
0.771621 0.900093 0.889112
0.906035 0.900009 0.888577
