design/lut/jc-grade-cool-deep.cube
TITLE "JC Alvarez — cool-deep"
LUT_3D_SIZE 33
DOMAIN_MIN 0 0 0
DOMAIN_MAX 1 1 1
0.035714 0.047591 0.061442
0.053699 0.048109 0.061939
0.073248 0.048628 0.062436
0.094263 0.049147 0.062933
0.116644 0.049667 0.063431
0.140292 0.050187 0.063929
0.165109 0.050707 0.064427
0.190995 0.051228 0.064926
0.217851 0.051749 0.065425
0.230450 0.050809 0.073181
0.241593 0.049655 0.082005
0.252993 0.048460 0.091031
0.264612 0.047232 0.100228
0.276413 0.046000 0.109568
0.288359 0.046000 0.119022
0.300413 0.046000 0.128559
0.312536 0.046000 0.138151
0.324693 0.046000 0.147770
0.336846 0.046000 0.157386
0.348958 0.046000 0.166969
0.360992 0.046000 0.176492
0.372911 0.046000 0.185924
0.384678 0.046000 0.195238
0.396256 0.046000 0.204405
0.407609 0.046000 0.213394
0.418700 0.046000 0.222179
0.429491 0.046000 0.230730
0.439946 0.046000 0.239017
0.450029 0.046000 0.247014
0.459703 0.046000 0.254690
0.468931 0.046000 0.262018
0.477677 0.046000 0.268968
0.485904 0.046000 0.275513
0.037517 0.066803 0.063114
0.055583 0.067346 0.063612
0.075206 0.067890 0.064110
0.096287 0.068434 0.064609
0.118726 0.068978 0.065108
0.142426 0.069523 0.065607
0.167287 0.070068 0.066107
0.193209 0.070613 0.066607
0.220096 0.071158 0.067107
0.232365 0.070209 0.075033
0.243515 0.069078 0.083864
0.254919 0.067908 0.092893
0.266540 0.066703 0.102092
0.278341 0.065471 0.111432
0.290284 0.064217 0.120883
0.302332 0.062946 0.130417
0.314448 0.061665 0.140004
0.326595 0.060380 0.149615
0.338736 0.059096 0.159221
0.350833 0.057819 0.168793
0.362851 0.056555 0.178303
0.374751 0.055310 0.187721
0.386497 0.054089 0.197019
0.398052 0.052899 0.206168
0.409380 0.051745 0.215138
0.420444 0.050633 0.223902
0.431206 0.049569 0.232430
0.441630 0.048559 0.240694
0.451681 0.047607 0.248665
0.461320 0.046721 0.256315
0.470512 0.046000 0.263614
0.479219 0.046000 0.270535
0.487407 0.046000 0.277049
0.039324 0.087681 0.064790
0.057470 0.088247 0.065290
0.077166 0.088813 0.065789
0.098313 0.089379 0.066289
0.120810 0.089946 0.066789
0.144561 0.090512 0.067289
0.169465 0.091079 0.067790
0.195425 0.091647 0.068291
0.222341 0.092214 0.068793
0.234282 0.091253 0.076888
0.245439 0.090143 0.085724
0.256847 0.088994 0.094758
0.268470 0.087812 0.103958
0.280270 0.086601 0.113298
0.292210 0.085369 0.122747
0.304253 0.084121 0.132277
0.316361 0.082864 0.141857
0.328498 0.081602 0.151461
0.340626 0.080341 0.161058
0.352709 0.079088 0.170619
0.364710 0.077848 0.180116
0.376591 0.076628 0.189520
0.388316 0.075432 0.198801
0.399849 0.074267 0.207932
0.411151 0.073139 0.216883
0.422188 0.072052 0.225626
0.432921 0.071014 0.234131
0.443315 0.070030 0.242371
0.453332 0.069105 0.250317
0.462936 0.068245 0.257940
0.472092 0.067457 0.265211
0.480761 0.066745 0.272102
0.488908 0.066116 0.278585
0.041135 0.110110 0.066471
0.059361 0.110696 0.066971
0.079130 0.111282 0.067472
0.100341 0.111868 0.067973
0.122897 0.112454 0.068474
0.146697 0.113040 0.068976
0.171645 0.113627 0.069478
0.197641 0.114214 0.069980
0.224586 0.114801 0.070483
0.236201 0.113826 0.078746
0.247365 0.112735 0.087588
0.258778 0.111605 0.096624
0.270402 0.110441 0.105827
0.282201 0.109251 0.115166
0.294138 0.108039 0.124613
0.306175 0.106811 0.134138
0.318275 0.105574 0.143713
0.330402 0.104333 0.153309
0.342518 0.103094 0.162896
0.354586 0.101862 0.172446
0.366570 0.100644 0.181930
0.378432 0.099446 0.191319
0.390136 0.098273 0.200584
0.401645 0.097130 0.209697
0.412923 0.096025 0.218629
0.423932 0.094962 0.227350
0.434636 0.093947 0.235834
0.444998 0.092986 0.244049
0.454983 0.092085 0.251970
0.464553 0.091250 0.259565
0.473671 0.090486 0.266808
0.482302 0.089799 0.273669
0.490410 0.089195 0.280121
0.042950 0.133974 0.068155
0.061256 0.134577 0.068657
0.081096 0.135180 0.069158
0.102372 0.135784 0.069661
0.124985 0.136388 0.070163
0.148835 0.136991 0.070666
0.173825 0.137595 0.071169
0.199857 0.138200 0.071673
0.226831 0.138804 0.072177
0.238123 0.137813 0.080607
0.249293 0.136738 0.089454
0.260710 0.135624 0.098494
0.272336 0.134478 0.107697
0.284134 0.133304 0.117036
0.296067 0.132110 0.126480
0.308098 0.130900 0.136001
0.320191 0.129681 0.145570
0.332307 0.128459 0.155158
0.344410 0.127238 0.164736
0.356464 0.126026 0.174274
0.368430 0.124828 0.183745
0.380273 0.123649 0.193119
0.391956 0.122496 0.202368
0.403442 0.121374 0.211463
0.414694 0.120289 0.220375
0.425676 0.119247 0.229076
0.436351 0.118253 0.237536
0.446682 0.117314 0.245728
0.456633 0.116434 0.253622
0.466168 0.115621 0.261191
0.475250 0.114879 0.268405
0.483843 0.114214 0.275237
0.491910 0.113633 0.281657
0.044769 0.159158 0.069843
0.063154 0.159777 0.070346
0.083065 0.160395 0.070849
0.104405 0.161013 0.071352
0.127074 0.161632 0.071856
0.150974 0.162251 0.072360
0.176007 0.162870 0.072864
0.202073 0.163489 0.073369
0.229075 0.164108 0.073874
0.240047 0.163098 0.082470
0.251223 0.162037 0.091322
0.262643 0.160938 0.100365
0.274271 0.159806 0.109570
0.286068 0.158648 0.118908
0.297998 0.157469 0.128350
0.310023 0.156275 0.137866
0.322107 0.155072 0.147429
0.334213 0.153865 0.157009
0.346303 0.152662 0.166577
0.358342 0.151466 0.176104
0.370291 0.150285 0.185562
0.382115 0.149124 0.194921
0.393776 0.147988 0.204154
0.405239 0.146884 0.213230
0.416465 0.145817 0.222123
0.427420 0.144794 0.230802
0.438065 0.143819 0.239240
0.448365 0.142899 0.247407
0.458284 0.142039 0.255276
0.467784 0.141245 0.262817
0.476829 0.140523 0.270003
0.485383 0.139878 0.276805
0.493410 0.139316 0.283194
0.046593 0.185548 0.071536
0.065055 0.186180 0.072040
0.085038 0.186811 0.072544
0.106441 0.187442 0.073048
0.129166 0.188073 0.073553
0.153115 0.188705 0.074058
0.178189 0.189336 0.074564
0.204290 0.189968 0.075070
0.231069 0.190575 0.075696
0.241973 0.189570 0.084335
0.253155 0.188520 0.093192
0.264579 0.187433 0.102239
0.276208 0.186313 0.111445
0.288003 0.185168 0.120782
0.299930 0.184002 0.130221
0.311949 0.182821 0.139733
0.324024 0.181631 0.149290
0.336119 0.180439 0.158861
0.348197 0.179250 0.168419
0.360220 0.178069 0.177935
0.372153 0.176902 0.187379
0.383957 0.175756 0.196724
0.395597 0.174636 0.205940
0.407036 0.173548 0.214998
0.418237 0.172497 0.223871
0.429164 0.171490 0.232529
0.439780 0.170531 0.240944
0.450048 0.169628 0.249087
0.459933 0.168785 0.256930
0.469398 0.168008 0.264444
0.478407 0.167303 0.271601
0.486923 0.166676 0.278373
0.494909 0.166133 0.284731
0.048420 0.213031 0.073232
0.066960 0.213672 0.073737
0.087013 0.214314 0.074242
0.108479 0.214956 0.074748
0.131260 0.215598 0.075254
0.155257 0.216239 0.075760
0.180372 0.216881 0.076267
0.206507 0.217523 0.076774
0.232988 0.218109 0.077558
0.243901 0.217112 0.086203
0.255089 0.216072 0.095065
0.266517 0.214995 0.104114
0.278146 0.213885 0.113322
0.289940 0.212750 0.122658
0.301863 0.211595 0.132094
0.313876 0.210425 0.141602
0.325943 0.209247 0.151152
0.338027 0.208066 0.160715
0.350092 0.206889 0.170263
0.362100 0.205720 0.179767
0.374014 0.204566 0.189198
0.385799 0.203433 0.198527
0.397418 0.202326 0.207727
0.408833 0.201251 0.216767
0.420008 0.200214 0.225620
0.430907 0.199221 0.234256
0.441494 0.198277 0.242648
0.451731 0.197388 0.250767
0.461583 0.196559 0.258584
0.471013 0.195798 0.266071
0.479984 0.195108 0.273200
0.488461 0.194497 0.279941
0.496408 0.193969 0.286268
0.050251 0.241492 0.074932
0.068869 0.242142 0.075438
0.088991 0.242791 0.075945
0.110519 0.243441 0.076451
0.133355 0.244091 0.076959
0.157400 0.244741 0.077466
0.182556 0.245391 0.077974
0.208725 0.246041 0.078482
0.234910 0.246604 0.079421
0.245831 0.245614 0.088074
0.257025 0.244581 0.096941
0.268456 0.243511 0.105993
0.280086 0.242409 0.115201
0.291879 0.241282 0.124536
0.303797 0.240135 0.133969
0.315804 0.238974 0.143472
0.327862 0.237806 0.153015
0.339935 0.236634 0.162570
0.351987 0.235467 0.172108
0.363979 0.234308 0.181600
0.375877 0.233165 0.191018
0.387642 0.232042 0.200332
0.399239 0.230946 0.209514
0.410630 0.229883 0.218536
0.421780 0.228857 0.227369
0.432651 0.227875 0.235984
0.443208 0.226943 0.244353
0.453413 0.226066 0.252447
0.463232 0.225251 0.260239
0.472626 0.224502 0.267698
0.481561 0.223825 0.274798
0.489999 0.223227 0.281510
0.497905 0.222713 0.287805
0.052086 0.270818 0.076636
0.070780 0.271474 0.077143
0.090972 0.272130 0.077651
0.112562 0.272786 0.078159
0.135452 0.273441 0.078667
0.159544 0.274097 0.079176
0.184740 0.274753 0.079685
0.210943 0.275408 0.080194
0.236835 0.275946 0.081288
0.247763 0.274961 0.089947
0.258963 0.273933 0.098818
0.270397 0.272868 0.107873
0.282028 0.271772 0.117081
0.293819 0.270651 0.126415
0.305733 0.269511 0.135846
0.317733 0.268357 0.145344
0.329783 0.267195 0.154880
0.341845 0.266031 0.164427
0.353883 0.264871 0.173955
0.365860 0.263720 0.183435
0.377739 0.262585 0.192839
0.389485 0.261471 0.202138
0.401060 0.260384 0.211303
0.412427 0.259329 0.220307
0.423551 0.258313 0.229119
0.434394 0.257341 0.237713
0.444921 0.256418 0.246059
0.455095 0.255552 0.254128
0.464880 0.254746 0.261894
0.474239 0.254008 0.269326
0.483137 0.253342 0.276397
0.491536 0.252755 0.283079
0.499402 0.252252 0.289342
0.053925 0.300897 0.078344
0.072695 0.301557 0.078852
0.092955 0.302217 0.079361
0.114607 0.302876 0.079870
0.137551 0.303536 0.080379
0.161690 0.304195 0.080889
0.186926 0.304855 0.081399
0.213161 0.305514 0.081909
0.238761 0.306025 0.083157
0.249698 0.305042 0.091822
0.260903 0.304017 0.100698
0.272340 0.302955 0.109755
0.283971 0.301863 0.118964
0.295760 0.300745 0.128297
0.307670 0.299609 0.137724
0.319663 0.298459 0.147217
0.331704 0.297302 0.156747
0.343755 0.296144 0.166285
0.355779 0.294989 0.175802
0.367741 0.293844 0.185271
0.379602 0.292715 0.194661
0.391328 0.291607 0.203944
0.402881 0.290527 0.213093
0.414224 0.289479 0.222078
0.425322 0.288470 0.230870
0.436137 0.287505 0.239442
0.446634 0.286591 0.247765
0.456777 0.285732 0.255810
0.466528 0.284935 0.263549
0.475852 0.284205 0.270954
0.484712 0.283548 0.277996
0.493073 0.282970 0.284647
0.500898 0.282476 0.290880
0.055767 0.331617 0.080055
0.074613 0.332279 0.080565
0.094941 0.332940 0.081075
0.116653 0.333601 0.081585
0.139651 0.334262 0.082095
0.163836 0.334923 0.082606
0.189112 0.335584 0.083117
0.215379 0.336245 0.083629
0.240690 0.336727 0.085028
0.251634 0.335744 0.093700
0.262845 0.334720 0.102580
0.274284 0.333659 0.111639
0.285916 0.332568 0.120849
0.297703 0.331453 0.130180
0.309608 0.330319 0.139604
0.321594 0.329171 0.149092
0.333626 0.328017 0.158615
0.345665 0.326861 0.168144
0.357676 0.325710 0.177651
0.369622 0.324569 0.187107
0.381466 0.323444 0.196484
0.393171 0.322340 0.205752
0.404702 0.321264 0.214883
0.416021 0.320221 0.223849
0.427093 0.319217 0.232622
0.437880 0.318258 0.241172
0.448347 0.317349 0.249471
0.458458 0.316496 0.257492
0.468175 0.315705 0.265205
0.477464 0.314982 0.272582
0.486287 0.314331 0.279595
0.494550 0.313685 0.286150
0.502126 0.312923 0.292109
0.057614 0.362866 0.081771
0.076535 0.363527 0.082281
0.096930 0.364188 0.082792
0.118703 0.364849 0.083303
0.141753 0.365509 0.083815
0.165984 0.366170 0.084327
0.191298 0.366830 0.084839
0.217597 0.367490 0.085351
0.242621 0.367941 0.086902
0.253573 0.366957 0.095580
0.264788 0.365931 0.104464
0.276230 0.364870 0.113526
0.287862 0.363778 0.122736
0.299647 0.362662 0.132066
0.311547 0.361528 0.141486
0.323527 0.360381 0.150969
0.335549 0.359227 0.160485
0.347577 0.358073 0.170005
0.359574 0.356923 0.179501
0.371504 0.355783 0.188945
0.383329 0.354660 0.198308
0.395015 0.353558 0.207560
0.406523 0.352485 0.216674
0.417818 0.351445 0.225622
0.428863 0.350444 0.234374
0.439623 0.349488 0.242902
0.450060 0.348582 0.251178
0.460138 0.347733 0.259174
0.469676 0.346784 0.266697
0.478709 0.345810 0.273797
0.487285 0.344907 0.280539
0.495368 0.344083 0.286895
0.502919 0.343344 0.292836
0.059464 0.394532 0.083490
0.078459 0.395191 0.084001
0.098922 0.395849 0.084513
0.120754 0.396508 0.085025
0.143857 0.397166 0.085538
0.168133 0.397824 0.086051
0.193485 0.398481 0.086564
0.219816 0.399139 0.087078
0.244553 0.399557 0.088778
0.255513 0.398569 0.097462
0.266733 0.397540 0.106350
0.278178 0.396475 0.115414
0.289810 0.395381 0.124624
0.301592 0.394263 0.133952
0.313487 0.393127 0.143369
0.325460 0.391978 0.152847
0.337473 0.390823 0.162355
0.349489 0.389667 0.171867
0.361472 0.388516 0.181353
0.373386 0.387376 0.190784
0.385193 0.386253 0.200132
0.396858 0.385152 0.209369
0.408344 0.384079 0.218466
0.419615 0.383039 0.227395
0.430634 0.382039 0.236126
0.441119 0.380850 0.244362
0.451292 0.379711 0.252355
0.461117 0.378627 0.260074
0.470556 0.377604 0.267492
0.479572 0.376649 0.274579
0.488129 0.375766 0.281307
0.496189 0.374962 0.287646
0.503716 0.374243 0.293568
0.061317 0.426505 0.085212
0.080387 0.427160 0.085725
0.100916 0.427814 0.086238
0.122807 0.428467 0.086751
0.145962 0.429121 0.087265
0.170283 0.429774 0.087779
0.195673 0.430427 0.088293
0.222034 0.431080 0.088808
0.246488 0.431464 0.090657
0.257455 0.430470 0.099347
0.268680 0.429435 0.108239
0.280127 0.428366 0.117305
0.291759 0.427267 0.126515
0.303538 0.426144 0.135841
0.315429 0.425004 0.145254
0.327394 0.423852 0.154726
0.339397 0.422693 0.164227
0.351402 0.421535 0.173730
0.363371 0.420381 0.183205
0.375268 0.419239 0.192624
0.387057 0.418113 0.201958
0.398603 0.416933 0.211074
0.409805 0.415644 0.219870
0.420802 0.414388 0.228507
0.431559 0.413171 0.236956
0.442038 0.411998 0.245188
0.452202 0.410875 0.253173
0.462015 0.409808 0.260884
0.471440 0.408802 0.268291
0.480439 0.407864 0.275366
0.488977 0.406999 0.282079
0.497015 0.406214 0.288401
0.504516 0.405513 0.294304
0.063175 0.458675 0.086938
0.082318 0.459323 0.087452
0.102913 0.459970 0.087966
0.124862 0.460617 0.088481
0.148069 0.461264 0.088995
0.172434 0.461911 0.089511
0.197861 0.462557 0.090026
0.224253 0.463203 0.090542
0.248426 0.463551 0.092538
0.259399 0.462550 0.101233
0.270629 0.461508 0.110129
0.282078 0.460431 0.119197
0.293709 0.459325 0.128407
0.305486 0.458197 0.137731
0.317371 0.457050 0.147141
0.329329 0.455892 0.156607
0.341322 0.454729 0.166101
0.353315 0.453565 0.175594
0.365058 0.452267 0.184836
0.376660 0.450927 0.193946
0.388165 0.449603 0.202980
0.399538 0.448301 0.211911
0.410740 0.447025 0.220709
0.421736 0.445783 0.229345
0.432489 0.444580 0.237791
0.442961 0.443421 0.246018
0.453116 0.442312 0.253997
0.462918 0.441260 0.261700
0.472328 0.440270 0.269096
0.481311 0.439347 0.276158
0.489828 0.438499 0.282856
0.497844 0.437730 0.289161
0.505320 0.437046 0.295045
0.065036 0.490931 0.088668
0.084251 0.491570 0.089183
0.104912 0.492209 0.089698
0.126920 0.492848 0.090214
0.150177 0.493486 0.090729
0.174586 0.494124 0.091246
0.200050 0.494762 0.091762
0.226471 0.495399 0.092279
0.250365 0.495709 0.094421
0.261345 0.494698 0.103122
0.272579 0.493647 0.112022
0.284030 0.492561 0.121091
0.295661 0.491447 0.130301
0.307434 0.490310 0.139623
0.319285 0.489140 0.148999
0.330924 0.487805 0.158138
0.342611 0.486462 0.167314
0.354309 0.485117 0.176499
0.365981 0.483778 0.185664
0.377591 0.482448 0.194781
0.389102 0.481135 0.203821
0.400477 0.479843 0.212754
0.411681 0.478579 0.221553
0.422675 0.477348 0.230189
0.433423 0.476157 0.238632
0.443889 0.475010 0.246854
0.454035 0.473914 0.254827
0.463825 0.472875 0.262520
0.473221 0.471898 0.269906
0.482186 0.470990 0.276955
0.490684 0.470155 0.283638
0.498677 0.469401 0.289926
0.506128 0.468733 0.295790
0.066900 0.523163 0.090401
0.086188 0.523792 0.090917
0.106914 0.524421 0.091434
0.128979 0.525049 0.091950
0.152286 0.525677 0.092467
0.176739 0.526305 0.092984
0.202239 0.526932 0.093501
0.228690 0.527559 0.094019
0.252306 0.527829 0.096306
0.263293 0.526807 0.105013
0.274531 0.525744 0.113916
0.285829 0.524580 0.122830
0.297130 0.523306 0.131705
0.308586 0.522008 0.140701
0.320160 0.520692 0.149789
0.331816 0.519363 0.158942
0.343518 0.518027 0.168130
0.355228 0.516691 0.177326
0.366910 0.515359 0.186499
0.378528 0.514038 0.195623
0.390044 0.512733 0.204667
0.401423 0.511450 0.213604
0.412627 0.510196 0.222404
0.423619 0.508975 0.231038
0.434364 0.507793 0.239479
0.444823 0.506657 0.247696
0.454959 0.505572 0.255662
0.464737 0.504544 0.263346
0.474118 0.503579 0.270721
0.483066 0.502683 0.277757
0.491544 0.501861 0.284424
0.499514 0.501119 0.290695
0.506939 0.500464 0.296540
0.068768 0.555263 0.092138
0.088128 0.555880 0.092655
0.108918 0.556496 0.093172
0.131040 0.557112 0.093690
0.154398 0.557728 0.094208
0.178893 0.558343 0.094726
0.204429 0.558958 0.095244
0.230909 0.559573 0.095763
0.253955 0.559697 0.097900
0.264603 0.558533 0.106264
0.275513 0.557327 0.114832
0.286648 0.556087 0.123577
0.297972 0.554817 0.132471
0.309449 0.553523 0.141483
0.321042 0.552212 0.150587
0.332715 0.550888 0.159753
0.344431 0.549558 0.168953
0.356153 0.548228 0.178159
0.367845 0.546902 0.187341
0.379470 0.545587 0.196471
0.390992 0.544289 0.205520
0.402374 0.543014 0.214459
0.413579 0.541767 0.223260
0.424569 0.540553 0.231894
0.435309 0.539380 0.240331
0.445761 0.538253 0.248544
0.455888 0.537177 0.256502
0.465653 0.536158 0.264177
0.475020 0.535202 0.271541
0.483950 0.534316 0.278563
0.492407 0.533505 0.285216
0.500354 0.532774 0.291469
0.507753 0.532130 0.297294
0.070640 0.587122 0.093878
0.090071 0.587725 0.094396
0.110924 0.588327 0.094915
0.133103 0.588929 0.095433
0.156438 0.589511 0.095884
0.180600 0.590005 0.096033
0.205826 0.590499 0.096182
0.232022 0.590994 0.096333
0.254700 0.591064 0.098590
0.265377 0.589901 0.106976
0.276314 0.588698 0.115567
0.287474 0.587459 0.124332
0.298821 0.586192 0.133243
0.310319 0.584901 0.142273
0.321930 0.583592 0.151392
0.333620 0.582272 0.160571
0.345350 0.580945 0.169783
0.357084 0.579619 0.178998
0.368786 0.578297 0.188189
0.380419 0.576987 0.197325
0.391946 0.575694 0.206378
0.403331 0.574424 0.215320
0.414536 0.573182 0.224122
0.425524 0.571975 0.232755
0.436259 0.570808 0.241189
0.446704 0.569687 0.249396
0.456821 0.568618 0.257348
0.466574 0.567606 0.265014
0.475926 0.566659 0.272366
0.484838 0.565780 0.279375
0.493275 0.564977 0.286012
0.501199 0.564256 0.292247
0.508572 0.563621 0.298052
0.072515 0.618632 0.095622
0.091780 0.619169 0.095938
0.112285 0.619667 0.096087
0.134134 0.620164 0.096237
0.157234 0.620662 0.096388
0.181488 0.621160 0.096539
0.206801 0.621658 0.096691
0.233079 0.622156 0.096844
0.255452 0.622194 0.099286
0.266158 0.621030 0.107696
0.277122 0.619826 0.116308
0.288307 0.618588 0.125093
0.299677 0.617321 0.134023
0.311195 0.616031 0.143069
0.322825 0.614723 0.152203
0.334531 0.613404 0.161396
0.346275 0.612079 0.170619
0.358022 0.610754 0.179845
0.369734 0.609435 0.189043
0.381374 0.608127 0.198185
0.392906 0.606837 0.207243
0.404293 0.605570 0.216188
0.415498 0.604331 0.224990
0.426484 0.603128 0.233621
0.437215 0.601965 0.242053
0.447652 0.600849 0.250255
0.457759 0.599785 0.258199
0.467500 0.598779 0.265856
0.476836 0.597837 0.273196
0.485731 0.596965 0.280192
0.494147 0.596168 0.286813
0.502047 0.595454 0.293030
0.509393 0.594826 0.298815
0.073106 0.649476 0.096292
0.092281 0.649975 0.096443
0.112891 0.650474 0.096594
0.134842 0.650974 0.096747
0.158037 0.651473 0.096900
0.182383 0.651973 0.097053
0.207783 0.652473 0.097208
0.234143 0.652973 0.097363
0.256212 0.652975 0.099990
0.266946 0.651809 0.108423
0.277937 0.650603 0.117056
0.289146 0.649363 0.125861
0.300539 0.648094 0.134809
0.312078 0.646802 0.143872
0.323727 0.645493 0.153021
0.335449 0.644174 0.162227
0.347207 0.642848 0.171462
0.358966 0.641523 0.180697
0.370687 0.640204 0.189904
0.382335 0.638897 0.199052
0.393871 0.637607 0.208114
0.405261 0.636341 0.217061
0.416466 0.635105 0.225864
0.427450 0.633903 0.234494
0.438175 0.632743 0.242922
0.448605 0.631629 0.251118
0.458702 0.630568 0.259055
0.468430 0.629565 0.266702
0.477750 0.628627 0.274032
0.486627 0.627759 0.281013
0.495022 0.626967 0.287619
0.502899 0.626257 0.293818
0.510219 0.625635 0.299582
0.073505 0.679837 0.096802
0.092790 0.680336 0.096955
0.113505 0.680835 0.097109
0.135556 0.681335 0.097264
0.158848 0.681834 0.097419
0.183285 0.682333 0.097575
0.208772 0.682833 0.097732
0.235213 0.683332 0.097889
0.256979 0.683298 0.100702
0.267742 0.682127 0.109157
0.278759 0.680917 0.117812
0.289993 0.679673 0.126637
0.301408 0.678400 0.135603
0.312968 0.677105 0.144682
0.324635 0.675793 0.153846
0.336373 0.674470 0.163065
0.348146 0.673142 0.172312
0.359916 0.671815 0.181556
0.371646 0.670494 0.190771
0.383301 0.669185 0.199925
0.394843 0.667895 0.208992
0.406234 0.666628 0.217941
0.417439 0.665391 0.226744
0.428420 0.664189 0.235372
0.439141 0.663029 0.243797
0.449563 0.661915 0.251988
0.459650 0.660855 0.259917
0.469364 0.659854 0.267554
0.478669 0.658917 0.274872
0.487528 0.658051 0.281840
0.495902 0.657262 0.288429
0.503754 0.656555 0.294610
0.511048 0.655936 0.300354
0.073912 0.709453 0.097320
0.093306 0.709935 0.097476
0.114126 0.710415 0.097632
0.136278 0.710896 0.097789
0.159666 0.711376 0.097947
0.184194 0.711855 0.098105
0.209767 0.712334 0.098264
0.236290 0.712812 0.098424
0.257753 0.712741 0.101421
0.268544 0.711608 0.109899
0.279588 0.710432 0.118575
0.290847 0.709221 0.127419
0.302284 0.707979 0.136403
0.313864 0.706711 0.145499
0.325550 0.705423 0.154678
0.337304 0.704120 0.163910
0.349090 0.702808 0.173168
0.360872 0.701493 0.182422
0.372612 0.700181 0.191644
0.384273 0.698877 0.200805
0.395820 0.697587 0.209875
0.407213 0.696318 0.218826
0.418418 0.695078 0.227630
0.429396 0.693874 0.236256
0.440111 0.692712 0.244677
0.450525 0.691597 0.252862
0.460602 0.690535 0.260784
0.470303 0.689533 0.268412
0.479593 0.688596 0.275717
0.488432 0.687730 0.282671
0.496785 0.686941 0.289244
0.504613 0.686235 0.295407
0.511880 0.685617 0.301130
0.074327 0.736710 0.097847
0.093830 0.737153 0.098004
0.114755 0.737595 0.098163
0.137007 0.738038 0.098322
0.160491 0.738479 0.098482
0.185110 0.738920 0.098643
0.210769 0.739361 0.098804
0.237373 0.739800 0.098967
0.258534 0.739698 0.102147
0.269354 0.738637 0.110648
0.280424 0.737538 0.119345
0.291707 0.736406 0.128209
0.303167 0.735244 0.137211
0.314767 0.734059 0.146323
0.326471 0.732855 0.155516
0.338241 0.731637 0.164762
0.350041 0.730411 0.174031
0.361834 0.729181 0.183294
0.373583 0.727954 0.192524
0.385251 0.726735 0.201690
0.396802 0.725529 0.210764
0.408198 0.724342 0.219718
0.419402 0.723179 0.228522
0.430378 0.722047 0.237146
0.441087 0.720951 0.245563
0.451493 0.719896 0.253743
0.461559 0.718890 0.261656
0.471247 0.717938 0.269274
0.480520 0.717045 0.276567
0.489341 0.716219 0.283507
0.497672 0.715464 0.290064
0.505476 0.714788 0.296208
0.512716 0.714195 0.301911
0.074750 0.761307 0.098381
0.094362 0.761712 0.098541
0.115392 0.762116 0.098702
0.137744 0.762519 0.098863
0.161323 0.762922 0.099026
0.186032 0.763325 0.099189
0.211778 0.763727 0.099352
0.238462 0.764128 0.099517
0.259322 0.763997 0.102880
0.270171 0.763007 0.111404
0.281267 0.761981 0.120122
0.292575 0.760924 0.129005
0.304057 0.759840 0.138025
0.315677 0.758734 0.147154
0.327399 0.757611 0.156362
0.339185 0.756474 0.165620
0.350998 0.755330 0.174900
0.362802 0.754183 0.184173
0.374560 0.753038 0.193410
0.386235 0.751900 0.202582
0.397790 0.750774 0.211660
0.409188 0.749666 0.220615
0.420392 0.748580 0.229419
0.431364 0.747523 0.238042
0.442067 0.746499 0.246454
0.452465 0.745514 0.254628
0.462520 0.744574 0.262533
0.472195 0.743684 0.270141
0.481452 0.742850 0.277423
0.490254 0.742077 0.284348
0.498563 0.741372 0.290888
0.506343 0.740739 0.297014
0.513555 0.740185 0.302696
0.075181 0.783317 0.098922
0.094902 0.783683 0.099085
0.116036 0.784049 0.099248
0.138488 0.784414 0.099412
0.162162 0.784778 0.099577
0.186962 0.785142 0.099742
0.212793 0.785505 0.099908
0.239558 0.785868 0.100075
0.260118 0.785714 0.103621
0.270995 0.784791 0.112167
0.282117 0.783836 0.120906
0.293449 0.782851 0.129809
0.304954 0.781841 0.138847
0.316594 0.780811 0.147991
0.328333 0.779765 0.157214
0.340135 0.778707 0.166485
0.351961 0.777641 0.175776
0.363777 0.776572 0.185058
0.375544 0.775505 0.194302
0.387225 0.774445 0.203480
0.398784 0.773396 0.212562
0.410184 0.772362 0.221519
0.421386 0.771350 0.230322
0.432355 0.770364 0.238943
0.443053 0.769409 0.247352
0.453443 0.768490 0.255519
0.463486 0.767613 0.263416
