design/lut/jc-grade-cool-deep.cube
TITLE "JC Alvarez — cool-deep"
LUT_3D_SIZE 5
DOMAIN_MIN 0 0 0
DOMAIN_MAX 1 1 1
0.035714 0.047591 0.061442
0.217851 0.051749 0.065425
0.312536 0.046000 0.138151
0.407609 0.046000 0.213394
0.485904 0.046000 0.275513
0.050251 0.241492 0.074932
0.234910 0.246604 0.079421
0.327862 0.237806 0.153015
0.421780 0.228857 0.227369
0.497905 0.222713 0.287805
0.065036 0.490931 0.088668
0.250365 0.495709 0.094421
0.342611 0.486462 0.167314
0.433423 0.476157 0.238632
0.506128 0.468733 0.295790
0.074327 0.736710 0.097847
0.258534 0.739698 0.102147
0.350041 0.730411 0.174031
0.441087 0.720951 0.245563
0.512716 0.714195 0.301911
0.077932 0.867620 0.102338
0.265045 0.868532 0.108218
0.357873 0.863452 0.181167
0.449071 0.858181 0.252850
0.519525 0.854265 0.308310
0.037170 0.049000 0.238383
0.219664 0.053166 0.243402
0.425188 0.054221 0.263984
0.520761 0.046000 0.339827
0.599440 0.046000 0.402449
0.051732 0.243257 0.255265
0.237621 0.248456 0.260282
0.442531 0.250470 0.281108
0.536895 0.241595 0.356004
0.613353 0.235539 0.416887
0.066627 0.492650 0.271961
0.255563 0.497766 0.277147
0.458645 0.498836 0.297003
0.550562 0.488640 0.369552
0.624233 0.481346 0.427830
0.076195 0.737639 0.281826
0.265766 0.741431 0.287961
0.469716 0.741930 0.307791
0.561838 0.732872 0.380524
0.634403 0.726447 0.437962
0.081857 0.867757 0.287969
0.275299 0.869351 0.298328
0.481117 0.869120 0.318920
0.573361 0.864229 0.391773
0.644720 0.860609 0.448289
0.107169 0.046000 0.330239
0.236689 0.051550 0.444520
0.459451 0.058782 0.480706
0.666623 0.059547 0.502863
0.740979 0.052223 0.565290
0.122493 0.231198 0.345622
0.254351 0.247244 0.461949
0.477287 0.255417 0.497466
0.682630 0.257290 0.518903
0.752589 0.251264 0.579544
0.137921 0.480457 0.361071
0.271934 0.496587 0.479281
0.493458 0.503370 0.513089
0.696773 0.503946 0.533154
0.762576 0.496735 0.592022
0.147118 0.725998 0.370777
0.282507 0.739816 0.490088
0.506000 0.746090 0.526439
0.709515 0.746737 0.546372
0.772106 0.740637 0.604358
0.153781 0.861772 0.378163
0.293298 0.868326 0.501105
0.518771 0.871029 0.540016
0.721973 0.870940 0.559753
0.781346 0.867589 0.616824
0.180701 0.046000 0.422171
0.310204 0.046000 0.536337
0.478036 0.056865 0.684149
0.703518 0.064438 0.722306
0.842495 0.067867 0.730053
0.195137 0.218764 0.436432
0.326945 0.234884 0.552609
0.494643 0.254075 0.700290
0.717263 0.262376 0.735124
0.848328 0.267036 0.741197
0.209627 0.468181 0.450697
0.343046 0.483973 0.568280
0.509666 0.501681 0.714933
0.729368 0.508495 0.747487
0.854094 0.512045 0.752428
0.217799 0.714019 0.459423
0.353635 0.728323 0.579137
0.522599 0.744582 0.727389
0.740657 0.750685 0.759530
0.859481 0.754027 0.763260
0.224570 0.855483 0.466930
0.364504 0.862499 0.590243
0.535697 0.870139 0.739582
0.751566 0.872653 0.771140
0.863559 0.873728 0.774429
0.241962 0.046000 0.498696
0.371208 0.046000 0.612448
0.538534 0.046586 0.756265
0.708280 0.065178 0.860336
0.847188 0.070133 0.865163
0.254719 0.208936 0.510843
0.386242 0.225177 0.626577
0.553407 0.244469 0.768234
0.719993 0.263837 0.866321
0.851406 0.268717 0.869011
0.267494 0.458664 0.522949
0.400152 0.474050 0.639734
0.566758 0.491837 0.778765
0.731067 0.509678 0.871963
0.855934 0.513657 0.873970
0.273900 0.704526 0.529763
0.409882 0.719268 0.649502
0.578798 0.736011 0.788143
0.741776 0.751840 0.877232
0.860131 0.755217 0.878557
0.279766 0.850425 0.536120
0.419816 0.857827 0.659423
0.590925 0.865900 0.797226
0.752646 0.873056 0.881563
0.863896 0.874064 0.882568
