design/lut/jc-grade-cool.cube
TITLE "JC Alvarez — cool"
LUT_3D_SIZE 9
DOMAIN_MIN 0 0 0
DOMAIN_MAX 1 1 1
0.063974 0.079822 0.095646
0.148678 0.081766 0.097486
0.246384 0.083343 0.101156
0.290487 0.078675 0.135731
0.336898 0.078000 0.172095
0.383584 0.078000 0.208674
0.428527 0.078000 0.243901
0.469718 0.078000 0.276219
0.505159 0.078000 0.304081
0.070819 0.168721 0.101842
0.156009 0.170810 0.103686
0.253150 0.172459 0.107707
0.297206 0.167940 0.142246
0.343466 0.163076 0.178495
0.389910 0.158182 0.214886
0.434528 0.153574 0.249861
0.475320 0.149565 0.281872
0.510299 0.146466 0.309376
0.077677 0.274559 0.108052
0.163334 0.276689 0.109900
0.259916 0.278311 0.114260
0.303918 0.273840 0.148759
0.350024 0.269038 0.184888
0.396221 0.264220 0.221089
0.440510 0.259699 0.255810
0.480901 0.255786 0.287511
0.515417 0.252791 0.314657
0.084547 0.391331 0.114274
0.170653 0.393411 0.116125
0.266680 0.394915 0.120814
0.310623 0.390400 0.155269
0.356569 0.385569 0.191275
0.402516 0.380734 0.227282
0.446473 0.376208 0.261747
0.486293 0.372115 0.292948
0.519396 0.367958 0.318642
0.091429 0.513146 0.120507
0.177964 0.515091 0.122362
0.273441 0.516394 0.127369
0.317321 0.511753 0.161774
0.362365 0.506400 0.196895
0.406842 0.500661 0.231406
0.449490 0.495213 0.264501
0.488306 0.490372 0.294626
0.521270 0.486452 0.320218
0.098321 0.634216 0.126750
0.183664 0.635592 0.127100
0.277088 0.636202 0.130838
0.319603 0.630905 0.163829
0.364186 0.625289 0.198427
0.408846 0.619665 0.233084
0.451579 0.614348 0.266249
0.490368 0.609652 0.296359
0.523188 0.605896 0.321843
0.098585 0.746387 0.127498
0.184930 0.747622 0.127678
0.278355 0.748125 0.131946
0.321220 0.743412 0.165214
0.366073 0.738340 0.200025
0.410913 0.733185 0.234826
0.453723 0.728247 0.268057
0.492481 0.723844 0.298146
0.525148 0.720308 0.323516
0.098693 0.824090 0.128128
0.186268 0.824906 0.128329
0.279695 0.825166 0.133126
0.322907 0.821929 0.166668
0.368026 0.818427 0.201690
0.413040 0.814847 0.236631
0.455924 0.811399 0.269922
0.494643 0.808311 0.299987
0.527150 0.805827 0.325238
0.098876 0.866312 0.128832
0.187678 0.866749 0.129055
0.281106 0.866820 0.134378
0.324663 0.864827 0.168192
0.370045 0.862639 0.203421
0.415228 0.860369 0.238498
0.458179 0.858150 0.271847
0.496853 0.856135 0.301881
0.529194 0.854493 0.327007
0.064665 0.080482 0.177348
0.149419 0.082427 0.179333
0.250989 0.084373 0.181317
0.342631 0.084271 0.193442
0.389114 0.079254 0.229891
0.435863 0.078000 0.266547
0.480859 0.078000 0.301844
0.522094 0.078000 0.334225
0.557572 0.078000 0.362144
0.071510 0.169431 0.184023
0.156749 0.171519 0.186006
0.258482 0.173607 0.187989
0.349639 0.173612 0.200279
0.395969 0.168758 0.236609
0.442471 0.163876 0.273073
0.487138 0.159281 0.308114
0.527971 0.155286 0.340183
0.562983 0.152202 0.367741
0.078370 0.275282 0.190692
0.164073 0.277413 0.192674
0.265953 0.279541 0.194655
0.356630 0.279552 0.207101
0.402801 0.274759 0.243308
0.449053 0.269952 0.279577
0.493387 0.265443 0.314360
0.533816 0.261543 0.346115
0.568362 0.258563 0.373311
0.085241 0.392038 0.197356
0.171391 0.394117 0.199335
0.273400 0.396192 0.201314
0.363603 0.396119 0.213907
0.409610 0.391297 0.249987
0.455607 0.386472 0.286059
0.499606 0.381957 0.320581
0.539175 0.377490 0.351516
0.572488 0.373358 0.377447
0.092124 0.513807 0.204012
0.178702 0.515750 0.205990
0.280824 0.517689 0.207966
0.370556 0.517451 0.220697
0.415308 0.511854 0.255537
0.460027 0.506135 0.290311
0.502908 0.500709 0.323661
0.541944 0.495891 0.354032
0.575117 0.491997 0.379860
0.098553 0.634714 0.210329
0.183789 0.636044 0.210842
0.284843 0.637377 0.211362
0.373053 0.636460 0.223042
0.417887 0.630863 0.257908
0.462788 0.625259 0.292828
0.505752 0.619963 0.326246
0.544760 0.615291 0.356601
0.577787 0.611560 0.382319
0.098593 0.746806 0.212081
0.185062 0.748041 0.212616
0.287188 0.749271 0.213157
0.375427 0.748443 0.225265
0.420530 0.743474 0.260344
0.465609 0.738426 0.295405
0.508649 0.733591 0.328888
0.547625 0.729282 0.359221
0.580498 0.725828 0.384825
0.098708 0.824368 0.213905
0.186407 0.825182 0.214461
0.289600 0.825991 0.215023
0.377868 0.825367 0.227555
0.423236 0.821965 0.262843
0.468489 0.818487 0.298044
0.511601 0.815137 0.331587
0.550537 0.812138 0.361894
0.583249 0.809729 0.387377
0.098899 0.866461 0.215800
0.187824 0.866896 0.216377
0.292079 0.867326 0.216960
0.380377 0.866884 0.229912
0.426006 0.864795 0.265407
0.471427 0.862624 0.300743
0.514606 0.860501 0.334342
0.553496 0.858572 0.364617
0.586040 0.857001 0.389975
0.066832 0.080850 0.272531
0.150159 0.083088 0.277564
0.251747 0.085034 0.279598
0.364720 0.086982 0.281631
0.451502 0.085838 0.298963
0.498255 0.080788 0.335632
0.543246 0.078000 0.370935
0.584468 0.078000 0.403315
0.619926 0.078000 0.431227
0.073716 0.169840 0.279300
0.157488 0.172228 0.284401
0.259237 0.174316 0.286429
0.372076 0.176403 0.288456
0.458449 0.175398 0.305784
0.504952 0.170522 0.342258
0.549611 0.165935 0.377301
0.590427 0.161948 0.409366
0.625417 0.158873 0.436913
0.080602 0.275701 0.286068
0.164812 0.278136 0.291216
0.266706 0.280263 0.293238
0.379396 0.282388 0.295258
0.465363 0.281420 0.312575
0.511613 0.276618 0.348850
0.555936 0.272116 0.383632
0.596345 0.268224 0.415379
0.630864 0.265252 0.442560
0.087491 0.392436 0.292836
0.172130 0.394822 0.298009
0.274151 0.396896 0.300024
0.386678 0.398967 0.302037
0.472244 0.397946 0.319334
0.518236 0.393126 0.355409
0.562220 0.388617 0.389926
0.601606 0.383782 0.420670
0.635100 0.379673 0.446807
0.094380 0.514157 0.299602
0.179439 0.516409 0.304779
0.281572 0.518347 0.306787
0.393676 0.520131 0.308553
0.477790 0.518224 0.324755
0.522722 0.512522 0.359759
0.565805 0.507116 0.393331
0.605033 0.502318 0.423915
0.638385 0.498447 0.449947
0.100252 0.634828 0.305404
0.183914 0.636496 0.309675
0.285077 0.637831 0.310504
0.396853 0.639169 0.311339
0.481028 0.637343 0.327855
0.526141 0.631756 0.363004
0.569305 0.626479 0.396643
0.608504 0.621828 0.427209
0.641708 0.618119 0.453130
0.101139 0.746779 0.306495
0.185194 0.748459 0.312488
0.287429 0.749688 0.313337
0.400088 0.750914 0.314192
0.484326 0.749311 0.331017
0.529616 0.744379 0.366306
0.572856 0.739656 0.400008
0.612019 0.735450 0.430551
0.645068 0.732084 0.456355
0.102099 0.824244 0.307656
0.186547 0.825457 0.315367
0.289847 0.826265 0.316236
0.403384 0.827068 0.317110
0.487685 0.825938 0.334239
0.533146 0.822573 0.369665
0.576456 0.819332 0.403426
0.615579 0.816431 0.433941
0.648465 0.814102 0.459624
0.103131 0.866313 0.308888
0.187971 0.867042 0.318312
0.292333 0.867471 0.319201
0.406739 0.867895 0.320094
0.491104 0.867166 0.337521
0.536732 0.865108 0.373081
0.580107 0.863091 0.406896
0.619182 0.861258 0.437379
0.651898 0.859765 0.462933
0.100777 0.078000 0.314568
0.160786 0.081787 0.366985
0.252504 0.085695 0.389049
0.365464 0.087643 0.391046
0.484412 0.089593 0.393040
0.567540 0.088041 0.412359
0.612473 0.083272 0.447608
0.653629 0.079094 0.479929
0.689014 0.078000 0.507775
0.107626 0.163958 0.321294
0.167969 0.171005 0.373999
0.259992 0.175025 0.395755
0.372817 0.177112 0.397742
0.491360 0.179199 0.399725
0.574148 0.177813 0.418887
0.618746 0.173228 0.453874
0.659494 0.169245 0.485875
0.694407 0.166174 0.513354
0.114474 0.269841 0.328014
0.175136 0.276956 0.380996
0.267458 0.280985 0.402425
0.380133 0.283110 0.404401
0.498259 0.285232 0.406374
0.580711 0.283912 0.425371
0.624970 0.279411 0.460093
0.665308 0.275522 0.491775
0.699743 0.272554 0.518885
0.121319 0.386567 0.334727
0.182288 0.393658 0.387975
0.274901 0.397600 0.409059
0.387411 0.399670 0.411024
0.505109 0.401736 0.412985
0.587228 0.400390 0.431812
0.631030 0.395687 0.466145
0.670439 0.390689 0.496920
0.704024 0.386600 0.523224
0.128161 0.508253 0.341434
0.189423 0.515233 0.394935
0.282320 0.519004 0.415655
0.393994 0.520539 0.417133
0.510551 0.521740 0.418211
0.591772 0.519520 0.436251
0.635024 0.514129 0.470008
0.674409 0.509350 0.500768
0.707764 0.505498 0.526965
0.133457 0.628692 0.346701
0.193626 0.635047 0.399151
0.285311 0.638285 0.419690
0.397177 0.639624 0.420781
0.514413 0.640967 0.421877
0.595734 0.638853 0.440097
0.639065 0.633592 0.473919
0.678419 0.628957 0.504659
0.711496 0.625268 0.530743
0.134612 0.741249 0.348123
0.195650 0.747065 0.401331
0.287670 0.750105 0.423380
0.400418 0.751330 0.424488
0.518325 0.752551 0.425601
0.599747 0.750728 0.443996
0.643152 0.746122 0.477879
0.682469 0.742023 0.508593
0.715217 0.738745 0.534559
0.135838 0.820456 0.349614
0.197742 0.824426 0.403576
0.290095 0.826538 0.427128
0.403720 0.827340 0.428254
0.522286 0.828136 0.429384
0.603811 0.826877 0.447946
0.647284 0.823749 0.481886
0.686558 0.820951 0.512570
0.718927 0.818707 0.538412
0.137135 0.864012 0.351172
0.199902 0.866366 0.405888
0.292588 0.867616 0.430935
0.407081 0.868038 0.432077
0.526297 0.868456 0.433225
0.607926 0.867664 0.451948
0.651462 0.865760 0.485940
0.690685 0.864028 0.516590
0.722656 0.862602 0.542344
0.136620 0.078000 0.358966
0.196631 0.078000 0.411371
0.268343 0.083364 0.473953
0.366208 0.088305 0.506441
0.485116 0.090255 0.508321
0.604650 0.092206 0.510197
0.685330 0.090876 0.528306
0.725246 0.086698 0.560513
0.756024 0.083426 0.588240
0.143356 0.157715 0.365549
0.203696 0.164772 0.418240
0.275515 0.172804 0.480912
0.373557 0.177821 0.512749
0.492059 0.179907 0.514615
0.610944 0.181993 0.516476
0.691349 0.180854 0.534290
0.730369 0.176870 0.566176
0.760220 0.173799 0.593533
0.150085 0.263636 0.372122
0.210743 0.270761 0.425088
0.282656 0.278841 0.487840
0.380869 0.283831 0.519009
0.498953 0.285953 0.520860
0.617180 0.288072 0.522707
0.697311 0.287023 0.540220
0.735354 0.283132 0.571783
0.764297 0.280163 0.598769
0.156809 0.380369 0.378684
0.217771 0.387468 0.431912
0.289766 0.395502 0.494735
0.388144 0.400372 0.525219
0.505797 0.402437 0.527056
0.623355 0.404499 0.528889
0.702950 0.402893 0.545858
0.739762 0.397909 0.576768
0.767790 0.393836 0.603198
0.163525 0.502034 0.385235
0.224778 0.509022 0.438714
0.296845 0.516927 0.501597
0.394313 0.520946 0.530891
0.510938 0.522150 0.532166
0.627896 0.523357 0.533445
0.707271 0.521447 0.550183
0.743581 0.516681 0.581075
0.771089 0.512844 0.607395
0.168238 0.622243 0.389958
0.228554 0.628595 0.442559
0.299912 0.635889 0.504762
0.397501 0.640080 0.535197
0.514805 0.641424 0.536487
0.632204 0.642771 0.537781
0.711577 0.640995 0.554550
0.747375 0.636374 0.585420
0.774359 0.632700 0.611624
0.169599 0.735336 0.391634
0.230783 0.741266 0.444991
0.302894 0.747904 0.507851
0.400749 0.751745 0.539553
0.518722 0.752965 0.540857
0.636550 0.754181 0.542165
0.715867 0.752687 0.558957
0.751144 0.748693 0.589800
0.777599 0.745504 0.615884
0.171028 0.816378 0.393375
0.233076 0.820463 0.447486
0.305937 0.824980 0.511000
0.404057 0.827611 0.543957
0.522689 0.828405 0.545276
0.640935 0.829195 0.546599
0.720138 0.828176 0.563406
0.754886 0.825481 0.594216
0.780807 0.823321 0.620173
0.172525 0.861492 0.395181
0.235436 0.863963 0.450043
0.309043 0.866640 0.514208
0.407423 0.868181 0.548410
0.526705 0.868597 0.549743
0.645356 0.869009 0.551080
0.724389 0.868370 0.567895
0.758600 0.866740 0.598668
0.784014 0.865370 0.624553
0.172799 0.078000 0.403781
0.232788 0.078000 0.456147
0.304456 0.078000 0.518669
0.384030 0.085579 0.588066
0.485819 0.090917 0.624417
0.605288 0.092868 0.626108
0.719373 0.094820 0.627793
0.785263 0.094339 0.641520
0.808845 0.091063 0.669079
0.179347 0.151420 0.410132
0.239665 0.158491 0.462781
0.311437 0.166535 0.525392
0.390908 0.175234 0.594698
0.492757 0.180616 0.630084
0.611576 0.182701 0.631758
0.724422 0.184786 0.633426
0.788974 0.184517 0.646737
0.811764 0.181442 0.673924
0.185887 0.257393 0.416468
0.246520 0.264531 0.469390
0.318384 0.272622 0.532079
0.397743 0.281350 0.601285
0.499646 0.286673 0.635694
0.617806 0.288792 0.637350
0.729329 0.290909 0.639001
0.792566 0.290752 0.651892
0.814582 0.287777 0.678706
0.192418 0.374147 0.422790
0.253353 0.381259 0.475972
0.325298 0.389304 0.538730
0.404534 0.397967 0.607827
0.506485 0.403138 0.641245
0.623975 0.405199 0.642884
0.733912 0.406351 0.644317
0.795881 0.405137 0.656711
0.817249 0.401076 0.683218
0.198939 0.495804 0.429097
0.260162 0.502805 0.482528
0.331924 0.510541 0.545118
0.410160 0.518273 0.613317
0.511326 0.522559 0.646231
0.628329 0.523768 0.647638
0.737880 0.524982 0.649049
0.799009 0.524007 0.661317
0.819859 0.520182 0.687712
0.203066 0.615786 0.433273
0.263509 0.622139 0.485999
0.334981 0.629432 0.548316
0.413843 0.637358 0.617061
0.515198 0.641881 0.650978
0.632641 0.643229 0.652396
0.741815 0.644581 0.653818
0.802095 0.643771 0.665952
0.822424 0.640108 0.692229
0.204563 0.729312 0.435117
0.265872 0.735358 0.488597
0.338096 0.742129 0.551570
0.417579 0.749292 0.620856
0.519121 0.753378 0.655762
0.636991 0.754593 0.657192
0.745715 0.755804 0.658624
0.805137 0.755180 0.670616
0.824944 0.752074 0.696768
0.206125 0.812195 0.437021
0.268297 0.816398 0.491253
0.341270 0.821048 0.554879
0.421368 0.825904 0.624701
0.523092 0.828674 0.660584
0.641379 0.829463 0.662024
0.749579 0.830246 0.663467
0.808135 0.829827 0.675307
0.827416 0.827748 0.701330
0.207750 0.858865 0.438985
0.270784 0.861454 0.493967
0.344502 0.864265 0.558242
0.425210 0.867132 0.628596
0.527113 0.868737 0.665442
0.645804 0.869148 0.666892
0.753404 0.869553 0.668347
0.811086 0.869276 0.680024
0.829833 0.867961 0.705915
0.207751 0.078000 0.447071
0.267700 0.078000 0.499374
0.339305 0.078000 0.561813
0.418794 0.079490 0.631108
0.502415 0.088426 0.703996
0.605926 0.093531 0.737161
0.719889 0.095484 0.738517
0.802927 0.097437 0.739862
0.845810 0.098427 0.745620
0.214048 0.145382 0.453108
0.274323 0.152470 0.505693
0.346030 0.160529 0.568218
0.425415 0.169242 0.637421
0.508745 0.178290 0.710053
0.612208 0.183409 0.741678
0.724923 0.185494 0.742997
0.805730 0.187578 0.744305
0.847592 0.188799 0.749506
0.220334 0.251418 0.459129
0.280922 0.258573 0.511983
0.352720 0.266680 0.574585
0.431990 0.275421 0.643686
0.515020 0.284480 0.716055
0.618431 0.289511 0.746071
0.729817 0.291627 0.747353
0.808435 0.293742 0.748624
0.849298 0.295093 0.753281
0.226609 0.368206 0.465132
0.287496 0.375334 0.518244
0.359373 0.383395 0.580913
0.438519 0.392070 0.649903
0.521240 0.401047 0.721982
0.624485 0.405690 0.750354
0.734314 0.406693 0.751668
0.811110 0.407701 0.752979
0.851135 0.408016 0.757354
0.232871 0.489868 0.471116
0.294045 0.496886 0.524476
0.365403 0.504351 0.586696
0.443719 0.512087 0.654971
0.525898 0.520155 0.726508
0.628762 0.524180 0.754760
0.738279 0.525395 0.756061
0.813765 0.526615 0.757357
0.852930 0.527204 0.761400
0.236409 0.609624 0.474742
0.296956 0.615982 0.527563
0.368519 0.623280 0.589967
0.447460 0.631209 0.658786
0.530115 0.639457 0.730614
0.633078 0.643688 0.759120
0.742210 0.645040 0.760407
0.816371 0.646396 0.761689
0.854670 0.647186 0.765398
0.237965 0.723470 0.476657
0.299376 0.729632 0.530231
0.371691 0.736532 0.593288
0.451250 0.743835 0.662646
0.534375 0.751226 0.734707
0.637433 0.755005 0.763432
0.746107 0.756215 0.764705
0.818930 0.757421 0.765973
0.856355 0.758196 0.769347
0.239582 0.808113 0.478627
0.301855 0.812431 0.532952
0.374916 0.817211 0.596659
0.455089 0.822205 0.666552
0.538676 0.827191 0.738785
0.641824 0.829729 0.767695
0.749967 0.830511 0.768953
0.821439 0.831288 0.770206
0.857984 0.831816 0.773246
0.241258 0.856264 0.480652
0.304391 0.858966 0.535725
0.378195 0.861905 0.600080
0.458976 0.864911 0.670502
0.543018 0.867835 0.742848
0.646253 0.869286 0.771908
0.753789 0.869690 0.773150
0.823891 0.870074 0.774375
0.859512 0.870277 0.776992
0.239921 0.078000 0.486900
0.299811 0.078000 0.539118
0.371335 0.078000 0.601452
0.450723 0.078000 0.670624
0.534223 0.082917 0.742488
0.618109 0.091903 0.802945
0.720404 0.096147 0.819905
0.803215 0.098101 0.820643
0.850129 0.100056 0.821374
0.245908 0.139907 0.492552
0.306124 0.147015 0.545050
0.377748 0.155094 0.607469
0.457030 0.163825 0.676547
0.540237 0.172888 0.747710
0.623660 0.181971 0.806720
0.725424 0.186202 0.822358
0.806008 0.188286 0.823070
0.851373 0.190369 0.823775
0.251884 0.246019 0.498185
0.312410 0.253194 0.550951
0.384123 0.261320 0.613445
0.463289 0.270077 0.682420
0.546195 0.279151 0.752790
0.629148 0.288228 0.810373
0.730303 0.292346 0.824725
0.808703 0.294459 0.825413
0.852581 0.296335 0.826132
0.257845 0.362850 0.503799
0.318670 0.369999 0.556822
0.390460 0.378077 0.619380
0.469500 0.386769 0.688244
0.552096 0.395761 0.757732
0.634421 0.404143 0.813833
0.734716 0.407034 0.827352
0.811381 0.408044 0.828240
0.854087 0.409060 0.829123
0.263793 0.484529 0.509392
0.324902 0.491566 0.562660
0.395896 0.498755 0.624560
0.474267 0.506499 0.692880
0.556486 0.514574 0.761543
0.638888 0.522669 0.816827
0.738677 0.525809 0.830319
0.814030 0.527030 0.831190
0.855546 0.528256 0.832055
0.266733 0.604061 0.512455
0.327358 0.610430 0.565341
0.398988 0.617737 0.627799
0.477982 0.625674 0.696661
0.560675 0.633929 0.765168
0.643383 0.642189 0.819783
0.742605 0.645501 0.833227
0.816632 0.646858 0.834080
0.856959 0.648218 0.834927
0.268264 0.718123 0.514336
0.329751 0.724394 0.567973
0.402130 0.731417 0.631083
0.481741 0.738851 0.700481
0.564901 0.746375 0.768772
0.647908 0.753697 0.822701
0.746498 0.756625 0.836074
0.819185 0.757830 0.836908
0.858324 0.759031 0.837737
0.269849 0.804360 0.516266
0.332197 0.808784 0.570652
0.405322 0.813684 0.634409
0.485544 0.818807 0.704340
0.569164 0.823924 0.772353
0.652461 0.828832 0.825579
0.750354 0.830776 0.838859
0.821689 0.831551 0.839675
0.859643 0.832321 0.840486
0.271490 0.853843 0.518245
0.334696 0.856650 0.573377
0.408562 0.859706 0.637780
0.489390 0.862837 0.708237
0.573463 0.865891 0.775909
0.657042 0.868741 0.828414
0.754172 0.869826 0.841582
0.824127 0.870182 0.842317
0.860831 0.870498 0.842993
0.267752 0.078000 0.521333
0.327570 0.078000 0.573448
0.398998 0.078000 0.635659
0.478268 0.078000 0.704689
0.561633 0.078280 0.772397
0.645366 0.087284 0.825804
0.724681 0.096006 0.863071
0.803501 0.098765 0.866867
0.850257 0.100720 0.867181
0.273380 0.135302 0.526538
0.333521 0.142435 0.578931
0.405048 0.150536 0.641225
0.484212 0.159286 0.710160
0.567282 0.168369 0.776710
0.650551 0.177468 0.828802
0.728871 0.186271 0.864900
0.806284 0.188994 0.867905
0.851496 0.191077 0.868205
0.278995 0.241499 0.531723
0.339445 0.248698 0.584382
0.411060 0.256845 0.646750
0.490106 0.265622 0.715581
0.572874 0.274714 0.780900
0.655672 0.283808 0.831697
0.732940 0.292590 0.866650
0.808970 0.295176 0.868896
0.852735 0.296587 0.869301
0.284595 0.358384 0.536886
0.345342 0.365556 0.589801
0.417032 0.373655 0.652232
0.495952 0.382367 0.720940
0.578408 0.391376 0.784969
0.660547 0.399386 0.834432
0.736918 0.406975 0.868383
0.811650 0.408389 0.870505
0.854236 0.409406 0.871005
0.290180 0.480089 0.542028
0.350949 0.486938 0.594976
0.421868 0.494055 0.656802
0.500267 0.501813 0.725067
0.582499 0.509901 0.788154
0.664895 0.518008 0.836938
0.740858 0.525820 0.870109
0.814295 0.527446 0.872168
0.855691 0.528673 0.872651
0.292499 0.599403 0.544499
0.353175 0.605788 0.597417
0.424845 0.613110 0.659896
0.503864 0.621061 0.728610
0.586567 0.629328 0.791283
0.669268 0.637599 0.839405
0.744754 0.645558 0.871786
0.816892 0.647319 0.873773
0.857098 0.648681 0.874240
0.293912 0.713603 0.546232
0.355449 0.719973 0.599898
0.427866 0.727104 0.663026
0.507499 0.734652 0.732148
0.590667 0.742294 0.794387
0.673665 0.749730 0.841831
0.748606 0.756692 0.873411
0.819440 0.758238 0.875321
0.858459 0.759438 0.875770
0.295375 0.801180 0.548007
0.357770 0.805698 0.602419
0.430930 0.810702 0.666193
0.511173 0.815936 0.735679
0.594798 0.821166 0.797464
0.678083 0.826185 0.844213
0.752413 0.830815 0.874985
0.821939 0.831813 0.876810
0.859774 0.832582 0.877242
0.296887 0.851774 0.549824
0.360138 0.854670 0.604980
0.434037 0.857827 0.669396
0.514884 0.861064 0.739200
0.598960 0.864227 0.800513
0.682524 0.867184 0.846553
0.756173 0.869835 0.876507
0.824361 0.870290 0.878150
0.860938 0.870605 0.878462
