design/lut/jc-grade-clean.cube
TITLE "JC Alvarez — clean"
LUT_3D_SIZE 33
DOMAIN_MIN 0 0 0
DOMAIN_MAX 1 1 1
0.107872 0.122855 0.134341
0.124409 0.122079 0.133456
0.142582 0.121323 0.132591
0.162292 0.120587 0.131746
0.183440 0.119872 0.130921
0.205925 0.119177 0.130116
0.229645 0.118503 0.129331
0.254497 0.117849 0.128567
0.280378 0.117216 0.127822
0.307181 0.116604 0.127099
0.334800 0.116012 0.126395
0.363128 0.115441 0.125712
0.392056 0.114891 0.125049
0.421475 0.114361 0.124407
0.451275 0.113853 0.123786
0.481343 0.113365 0.123185
0.503805 0.112152 0.126282
0.514953 0.109868 0.134780
0.526087 0.107610 0.143272
0.537164 0.105385 0.151725
0.548141 0.103200 0.160104
0.558974 0.101063 0.168376
0.569618 0.098979 0.176506
0.580028 0.096956 0.184461
0.590161 0.095001 0.192205
0.599971 0.093122 0.199704
0.609414 0.091324 0.206924
0.618444 0.089616 0.213829
0.627016 0.088004 0.220385
0.635084 0.086495 0.226556
0.642604 0.085097 0.232307
0.648157 0.084032 0.236542
0.648375 0.083829 0.236658
0.105990 0.136992 0.131443
0.122106 0.136139 0.130625
0.140433 0.135305 0.129828
0.160306 0.134490 0.129050
0.181627 0.133695 0.128293
0.204291 0.132919 0.127557
0.228197 0.132163 0.126840
0.253241 0.131426 0.126144
0.279316 0.130709 0.125468
0.306316 0.130012 0.124813
0.334135 0.129334 0.124179
0.362662 0.128676 0.123564
0.391790 0.128038 0.122971
0.421408 0.127420 0.122398
0.451405 0.126821 0.121845
0.481668 0.126243 0.121313
0.502860 0.124797 0.125172
0.514124 0.122414 0.133774
0.525372 0.120056 0.142369
0.536561 0.117731 0.150923
0.547649 0.115445 0.159402
0.558589 0.113206 0.167773
0.569338 0.111021 0.175999
0.579852 0.108896 0.184049
0.590086 0.106839 0.191886
0.599994 0.104856 0.199476
0.609533 0.102955 0.206784
0.618655 0.101144 0.213776
0.627318 0.099428 0.220416
0.635474 0.097816 0.226669
0.643078 0.096314 0.232501
0.648930 0.095111 0.236982
0.649182 0.094811 0.237139
0.104332 0.153078 0.128772
0.120014 0.152314 0.128023
0.138487 0.151569 0.127293
0.158516 0.150843 0.126584
0.180000 0.150135 0.125896
0.202835 0.149447 0.125228
0.226917 0.148777 0.124580
0.252140 0.148126 0.123953
0.278399 0.147495 0.123346
0.305586 0.146882 0.122760
0.333592 0.146289 0.122194
0.362308 0.145714 0.121649
0.391624 0.145159 0.121125
0.421429 0.144623 0.120621
0.451611 0.144107 0.120139
0.482057 0.143610 0.119677
0.502084 0.142116 0.124242
0.513458 0.139806 0.132945
0.524816 0.137522 0.141639
0.536113 0.135270 0.150291
0.547306 0.133057 0.158867
0.558351 0.130891 0.167332
0.569202 0.128778 0.175652
0.579815 0.126725 0.183793
0.590145 0.124740 0.191720
0.600148 0.122830 0.199398
0.609778 0.121001 0.206792
0.618991 0.119260 0.213868
0.627740 0.117616 0.220590
0.635981 0.116075 0.226924
0.643667 0.114644 0.232834
0.649817 0.113477 0.237560
0.650103 0.113254 0.237759
0.102901 0.171024 0.126331
0.118136 0.170349 0.125650
0.136747 0.169693 0.124989
0.156923 0.169054 0.124349
0.178561 0.168434 0.123729
0.201556 0.167832 0.123130
0.225804 0.167248 0.122551
0.251197 0.166683 0.121993
0.277629 0.166136 0.121456
0.304991 0.165608 0.120939
0.333174 0.165097 0.120443
0.362067 0.164606 0.119968
0.391559 0.164133 0.119513
0.421539 0.163679 0.119080
0.451894 0.163243 0.118667
0.482511 0.162826 0.118275
0.501477 0.161294 0.123493
0.512958 0.159057 0.132293
0.524420 0.156846 0.141083
0.535821 0.154667 0.149830
0.547116 0.152526 0.158499
0.558259 0.150432 0.167055
0.569208 0.148391 0.175466
0.579916 0.146409 0.183695
0.590340 0.144495 0.191708
0.600433 0.142655 0.199471
0.610152 0.140897 0.206949
0.619450 0.139227 0.214106
0.628283 0.137652 0.220908
0.636605 0.136180 0.227319
0.644371 0.134819 0.233305
0.650820 0.133686 0.238278
0.651140 0.133538 0.238518
0.101698 0.190736 0.124121
0.116473 0.190150 0.123509
0.135214 0.189580 0.122917
0.155528 0.189028 0.122346
0.177311 0.188494 0.121795
0.200457 0.187977 0.121266
0.224861 0.187478 0.120756
0.250414 0.186997 0.120268
0.277008 0.186533 0.119800
0.304534 0.186087 0.119353
0.332881 0.185659 0.118927
0.361939 0.185248 0.118522
0.391596 0.184856 0.118137
0.421739 0.184481 0.117774
0.452255 0.184125 0.117431
0.483030 0.183786 0.117109
0.501039 0.182224 0.122924
0.512622 0.180060 0.131818
0.524186 0.177921 0.140701
0.535686 0.175813 0.149539
0.547077 0.173743 0.158298
0.558316 0.171719 0.166943
0.569358 0.169748 0.175440
0.580157 0.167837 0.183755
0.590669 0.165992 0.191852
0.600850 0.164221 0.199697
0.610653 0.162531 0.207255
0.620034 0.160929 0.214491
0.628947 0.159422 0.221370
0.637347 0.158018 0.227857
0.645189 0.156723 0.233917
0.651936 0.155622 0.239135
0.652290 0.155546 0.239416
0.100722 0.212113 0.122143
0.115026 0.211613 0.121600
0.133889 0.211129 0.121078
0.154333 0.210662 0.120576
0.176252 0.210211 0.120095
0.199540 0.209778 0.119635
0.224089 0.209361 0.119196
0.249791 0.208962 0.118777
0.276536 0.208579 0.118379
0.304215 0.208213 0.118002
0.332716 0.207865 0.117646
0.361927 0.207533 0.117311
0.391736 0.207219 0.116997
0.422030 0.206922 0.116704
0.452695 0.206642 0.116432
0.483616 0.206379 0.116181
0.500773 0.204797 0.122538
0.512454 0.202703 0.131522
0.524113 0.200633 0.140494
0.535707 0.198594 0.149420
0.547192 0.196594 0.158265
0.558521 0.194638 0.166996
0.569652 0.192735 0.175577
0.580538 0.190891 0.183973
0.591135 0.189113 0.192151
0.601399 0.187409 0.200075
0.611283 0.185785 0.207710
0.620742 0.184249 0.215022
0.629732 0.182808 0.221976
0.638208 0.181468 0.228536
0.646123 0.180238 0.234667
0.653168 0.179165 0.240131
0.653556 0.179158 0.240454
0.099976 0.235048 0.120399
0.113797 0.234631 0.119925
0.132774 0.234230 0.119473
0.153339 0.233846 0.119041
0.175385 0.233477 0.118630
0.198805 0.233124 0.118240
0.223489 0.232787 0.117870
0.249330 0.232467 0.117522
0.276215 0.232162 0.117195
0.304035 0.231874 0.116888
0.332678 0.231602 0.116603
0.362031 0.231347 0.116338
0.391981 0.231108 0.116095
0.422413 0.230885 0.115872
0.453214 0.230678 0.115671
0.484269 0.230488 0.115490
0.500678 0.228894 0.122334
0.512452 0.226868 0.131405
0.524203 0.224865 0.140463
0.535887 0.222894 0.149473
0.547460 0.220959 0.158402
0.558876 0.219070 0.167214
0.570091 0.217232 0.175875
0.581060 0.215452 0.184351
0.591738 0.213739 0.192606
0.602080 0.212098 0.200606
0.612041 0.210538 0.208316
0.621576 0.209064 0.215701
0.630639 0.207685 0.222726
0.639186 0.206407 0.229357
0.647172 0.205238 0.235558
0.654514 0.204190 0.241266
0.654936 0.204248 0.241630
0.099459 0.259429 0.118889
0.112788 0.259093 0.118485
0.131871 0.258772 0.118103
0.152548 0.258466 0.117741
0.174712 0.258176 0.117400
0.198253 0.257900 0.117081
0.223063 0.257640 0.116782
0.249031 0.257396 0.116504
0.276047 0.257166 0.116247
0.303997 0.256952 0.116011
0.332770 0.256754 0.115796
0.362252 0.256571 0.115603
0.392330 0.256403 0.115430
0.422889 0.256251 0.115278
0.453814 0.256114 0.115148
0.484990 0.255994 0.115039
0.500756 0.254394 0.122314
0.512618 0.252433 0.131468
0.524456 0.250495 0.140608
0.536226 0.248587 0.149700
0.547882 0.246716 0.158708
0.559380 0.244889 0.167599
0.570675 0.243113 0.176337
0.581723 0.241395 0.184888
0.592477 0.239743 0.193218
0.602894 0.238163 0.201291
0.612929 0.236662 0.209072
0.622535 0.235248 0.216528
0.631669 0.233927 0.223622
0.640284 0.232707 0.230321
0.648337 0.231595 0.236589
0.655783 0.230598 0.242392
0.656430 0.230687 0.242946
0.099173 0.285138 0.117615
0.112000 0.284879 0.117282
0.131181 0.284635 0.116969
0.151962 0.284404 0.116678
0.174234 0.284189 0.116408
0.197888 0.283987 0.116159
0.222813 0.283800 0.115930
0.248898 0.283627 0.115723
0.276031 0.283469 0.115537
0.304100 0.283325 0.115372
0.332992 0.283196 0.115229
0.362592 0.283082 0.115106
0.392786 0.282982 0.115004
0.423459 0.282896 0.114924
0.454496 0.282826 0.114865
0.485780 0.282770 0.114827
0.501007 0.281173 0.122478
0.512953 0.279273 0.131712
0.524874 0.277396 0.140931
0.536724 0.275548 0.150100
0.548459 0.273737 0.159185
0.560035 0.271969 0.168150
0.571406 0.270251 0.176962
0.582527 0.268591 0.185586
0.593355 0.266996 0.193986
0.603842 0.265472 0.202129
0.613946 0.264027 0.209980
0.623620 0.262668 0.217503
0.632820 0.261402 0.224663
0.641501 0.260236 0.231428
0.649618 0.259177 0.237761
0.657127 0.258232 0.243628
0.658039 0.258341 0.244401
0.099118 0.312054 0.116577
0.111435 0.311869 0.116315
0.130705 0.311696 0.116073
0.151581 0.311538 0.115853
0.173952 0.311392 0.115653
0.197708 0.311260 0.115475
0.222738 0.311142 0.115318
0.248930 0.311037 0.115181
0.276171 0.310946 0.115066
0.304347 0.310868 0.114973
0.333346 0.310804 0.114900
0.363051 0.310753 0.114848
0.393350 0.310716 0.114818
0.424124 0.310693 0.114809
0.455260 0.310684 0.114821
0.486640 0.310689 0.114855
0.501432 0.309100 0.122828
0.513457 0.307258 0.132138
0.525455 0.305438 0.141432
0.537382 0.303647 0.150675
0.549192 0.301891 0.159832
0.560840 0.300178 0.168869
0.572283 0.298515 0.177751
0.583474 0.296908 0.186444
0.594370 0.295366 0.194913
0.604924 0.293894 0.203122
0.615093 0.292501 0.211038
0.624832 0.291193 0.218626
0.634095 0.289977 0.225850
0.642837 0.288860 0.232678
0.651016 0.287849 0.239073
0.658585 0.286952 0.245002
0.659762 0.287075 0.245995
0.099295 0.340052 0.115778
0.111093 0.339935 0.115586
0.130445 0.339830 0.115415
0.151407 0.339738 0.115266
0.173868 0.339659 0.115137
0.197717 0.339592 0.115030
0.222842 0.339537 0.114944
0.249129 0.339495 0.114879
0.276466 0.339466 0.114835
0.304739 0.339450 0.114812
0.333832 0.339446 0.114811
0.363632 0.339454 0.114831
0.394022 0.339476 0.114872
0.424886 0.339510 0.114934
0.456108 0.339558 0.115018
0.487572 0.339618 0.115123
0.502032 0.338044 0.123363
0.514132 0.336256 0.132746
0.526203 0.334488 0.142111
0.538200 0.332749 0.151424
0.550080 0.331044 0.160651
0.561797 0.329382 0.169756
0.573307 0.327768 0.178705
0.584564 0.326211 0.187463
0.595523 0.324717 0.195997
0.606140 0.323293 0.204270
0.616371 0.321947 0.212248
0.626170 0.320684 0.219898
0.635492 0.319514 0.227183
0.644293 0.318441 0.234071
0.652530 0.317475 0.240526
0.660156 0.316620 0.246515
0.661600 0.316752 0.247729
0.099703 0.369001 0.115216
0.110976 0.368948 0.115096
0.130402 0.368906 0.114996
0.151441 0.368876 0.114918
0.173983 0.368857 0.114860
0.197915 0.368850 0.114824
0.223124 0.368855 0.114809
0.249496 0.368871 0.114816
0.276919 0.368899 0.114843
0.305276 0.368938 0.114892
0.334453 0.368989 0.114962
0.364334 0.369052 0.115054
0.394803 0.369127 0.115167
0.425745 0.369213 0.115301
0.457041 0.369312 0.115456
0.488576 0.369422 0.115633
0.502807 0.367869 0.124085
0.514976 0.366130 0.133536
0.527116 0.364410 0.142969
0.539180 0.362718 0.152349
0.551125 0.361060 0.161641
0.562906 0.359443 0.170811
0.574478 0.357875 0.179823
0.585796 0.356362 0.188644
0.596815 0.354911 0.197239
0.607491 0.353530 0.205572
0.617779 0.352226 0.213610
0.627634 0.351005 0.221319
0.637013 0.349874 0.228663
0.645869 0.348841 0.235608
0.654160 0.347913 0.242121
0.661814 0.347061 0.248136
0.663424 0.347067 0.249457
0.100344 0.398770 0.114894
0.111085 0.398775 0.114845
0.130576 0.398791 0.114816
0.151685 0.398817 0.114809
0.174298 0.398854 0.114823
0.198303 0.398901 0.114859
0.223586 0.398959 0.114915
0.250033 0.399028 0.114993
0.277529 0.399107 0.115092
0.305960 0.399197 0.115213
0.335208 0.399298 0.115355
0.365159 0.399410 0.115518
0.395696 0.399532 0.115702
0.426702 0.399665 0.115908
0.458060 0.399809 0.116135
0.489653 0.399964 0.116383
0.503758 0.398437 0.124993
0.515992 0.396742 0.134510
0.528195 0.395066 0.144007
0.540322 0.393416 0.153450
0.552328 0.391799 0.162804
0.564168 0.390224 0.172035
0.575797 0.388695 0.181107
0.587172 0.387222 0.189987
0.598247 0.385809 0.198639
0.608977 0.384466 0.207030
0.619319 0.383198 0.215125
0.629227 0.382013 0.222889
0.638589 0.380841 0.230213
0.647394 0.379721 0.237098
0.655638 0.378705 0.243553
0.663276 0.377798 0.249545
0.665155 0.377810 0.251089
0.101218 0.429221 0.114812
0.111421 0.429280 0.114834
0.130970 0.429347 0.114877
0.152139 0.429425 0.114941
0.174814 0.429512 0.115027
0.198883 0.429608 0.115134
0.224230 0.429714 0.115262
0.250741 0.429829 0.115412
0.278300 0.429955 0.115582
0.306792 0.430090 0.115775
0.336100 0.430234 0.115988
0.366109 0.430389 0.116223
0.396701 0.430553 0.116479
0.427759 0.430727 0.116757
0.459166 0.430911 0.117055
0.490805 0.431104 0.117376
0.504886 0.429609 0.126088
0.517180 0.427953 0.135667
0.529441 0.426314 0.145225
0.541625 0.424702 0.154727
0.553687 0.423122 0.164140
0.565582 0.421582 0.173427
0.577265 0.420088 0.182556
0.588692 0.418649 0.191491
0.599818 0.417270 0.200198
0.610484 0.415848 0.208519
0.620766 0.414500 0.216547
0.630619 0.413233 0.224248
0.639999 0.412054 0.231587
0.648862 0.410970 0.238531
0.657162 0.409989 0.245046
0.664856 0.409116 0.251096
0.667003 0.409128 0.252864
0.102326 0.460219 0.114970
0.111986 0.460324 0.115063
0.131584 0.460438 0.115178
0.152805 0.460561 0.115314
0.175533 0.460692 0.115471
0.199655 0.460831 0.115650
0.225056 0.460979 0.115850
0.251620 0.461136 0.116071
0.279231 0.461301 0.116314
0.307773 0.461475 0.116578
0.337130 0.461657 0.116863
0.367184 0.461849 0.117170
0.397819 0.462049 0.117497
0.428917 0.462258 0.117847
0.460360 0.462475 0.118218
0.492032 0.462702 0.118610
0.506190 0.461243 0.127371
0.518540 0.459620 0.137008
0.530855 0.458015 0.146622
0.543092 0.456435 0.156181
0.555205 0.454886 0.165648
0.567104 0.453339 0.174941
0.578714 0.451774 0.183992
0.590073 0.450261 0.192854
0.601136 0.448807 0.201492
0.611858 0.447419 0.209871
0.622196 0.446104 0.217957
0.632103 0.444870 0.225715
0.641537 0.443722 0.233112
0.650453 0.442669 0.240113
0.658806 0.441717 0.246683
0.666553 0.440874 0.252790
0.668969 0.440879 0.254781
0.103666 0.491622 0.115369
0.112780 0.491769 0.115534
0.132420 0.491923 0.115720
0.153683 0.492084 0.115928
0.176455 0.492253 0.116157
0.200621 0.492430 0.116407
0.226065 0.492614 0.116679
0.252672 0.492806 0.116972
0.280324 0.493005 0.117286
0.308904 0.493212 0.117622
0.338298 0.493426 0.117979
0.368385 0.493649 0.118358
0.399051 0.493879 0.118758
0.430176 0.494116 0.119179
0.461643 0.494362 0.119621
0.493335 0.494615 0.120085
0.507672 0.493198 0.128842
0.520072 0.491603 0.138533
0.532338 0.489959 0.148098
0.544493 0.488313 0.157572
0.556529 0.486698 0.166959
0.568402 0.485119 0.176225
0.580068 0.483585 0.185334
0.591481 0.482103 0.194253
0.602597 0.480678 0.202947
0.613371 0.479319 0.211382
0.623760 0.478032 0.219523
0.633718 0.476825 0.227336
0.643202 0.475704 0.234787
0.652168 0.474676 0.241841
0.660571 0.473748 0.248466
0.668369 0.472927 0.254627
0.671053 0.472920 0.256841
0.105240 0.523289 0.116009
0.113804 0.523471 0.116246
0.133477 0.523659 0.116504
0.154775 0.523854 0.116783
0.177582 0.524055 0.117084
0.201782 0.524263 0.117406
0.227260 0.524477 0.117750
0.253897 0.524697 0.118115
0.281579 0.524924 0.118501
0.310187 0.525158 0.118909
0.339605 0.525398 0.119337
0.369715 0.525646 0.119788
0.400398 0.525899 0.120260
0.431538 0.526160 0.120753
0.463008 0.526420 0.121251
0.494612 0.526617 0.121616
0.509035 0.525159 0.130198
0.521350 0.523504 0.139801
0.533634 0.521864 0.149386
0.545843 0.520247 0.158917
0.557933 0.518659 0.168361
0.569858 0.517108 0.177682
0.581574 0.515600 0.186846
0.593037 0.514142 0.195819
0.604202 0.512742 0.204566
0.615024 0.511406 0.213053
0.625460 0.510142 0.221245
0.635465 0.508956 0.229110
0.644996 0.507855 0.236612
0.654008 0.506847 0.243718
0.662458 0.505937 0.250395
0.670303 0.505134 0.256608
0.673255 0.505109 0.259044
0.107048 0.555079 0.116890
0.115059 0.555290 0.117199
0.134758 0.555506 0.117529
0.156082 0.555727 0.117880
0.178914 0.555954 0.118253
0.203139 0.556187 0.118647
0.228639 0.556425 0.119062
0.255298 0.556668 0.119499
0.282999 0.556917 0.119957
0.311623 0.557171 0.120437
0.341053 0.557431 0.120937
0.371114 0.557666 0.121381
0.401687 0.557869 0.121754
0.432729 0.558078 0.122148
0.464123 0.558293 0.122563
0.495752 0.558514 0.123000
0.510399 0.557097 0.131558
0.522766 0.555467 0.141218
0.535101 0.553852 0.150858
0.547360 0.552257 0.160443
0.559498 0.550692 0.169939
0.571471 0.549162 0.179312
0.583234 0.547674 0.188527
0.594742 0.546236 0.197551
0.605951 0.544855 0.206347
0.616817 0.543537 0.214883
0.627296 0.542289 0.223125
0.637345 0.541119 0.231038
0.646918 0.540033 0.238589
0.655974 0.539039 0.245744
0.664467 0.538142 0.252469
0.672356 0.537351 0.258732
0.675576 0.537301 0.261390
0.109090 0.586848 0.118013
0.116546 0.587081 0.118394
0.136263 0.587319 0.118796
0.157604 0.587562 0.119219
0.180453 0.587808 0.119663
0.204692 0.588059 0.120129
0.230206 0.588315 0.120616
0.256875 0.588575 0.121125
0.284458 0.588790 0.121514
0.312949 0.589000 0.121895
0.342258 0.589214 0.122296
0.372269 0.589433 0.122720
0.402864 0.589656 0.123165
0.433925 0.589885 0.123632
0.465334 0.590118 0.124120
0.496974 0.590356 0.124630
0.511945 0.588985 0.133111
0.524359 0.587375 0.142823
0.536741 0.585778 0.152514
0.549045 0.584201 0.162150
0.561227 0.582652 0.171695
0.573242 0.581138 0.181117
0.585047 0.579666 0.190379
0.596596 0.578242 0.199450
0.607845 0.576874 0.208293
0.618751 0.575569 0.216875
0.629269 0.574333 0.225162
0.639357 0.573173 0.233121
0.648970 0.572097 0.240718
0.658065 0.571111 0.247918
0.666599 0.570221 0.254690
0.674529 0.569436 0.261000
0.678014 0.569356 0.263879
0.111365 0.618453 0.119378
0.118266 0.618703 0.119830
0.137993 0.618957 0.120304
0.159343 0.619214 0.120799
0.182166 0.619465 0.121284
0.206238 0.619677 0.121650
0.231596 0.619893 0.122038
0.258122 0.620112 0.122448
0.285698 0.620335 0.122879
0.314208 0.620562 0.123332
0.343534 0.620792 0.123807
0.373558 0.621026 0.124303
0.404163 0.621264 0.124821
0.435230 0.621505 0.125361
0.466642 0.621751 0.125922
0.498281 0.622000 0.126505
0.513673 0.620681 0.134857
0.526130 0.619084 0.144618
0.538554 0.617500 0.154356
0.550898 0.615936 0.164038
0.563119 0.614399 0.173629
0.575173 0.612896 0.183096
0.587014 0.611433 0.192403
0.598600 0.610018 0.201516
0.609885 0.608658 0.210402
0.620826 0.607360 0.219027
0.631380 0.606130 0.227357
0.641503 0.604976 0.235359
0.651151 0.603904 0.242998
0.660282 0.602920 0.250242
0.668853 0.602033 0.257058
0.676822 0.601248 0.263413
0.680570 0.601133 0.266511
0.113874 0.649752 0.120985
0.120111 0.649989 0.121415
0.139652 0.650210 0.121789
0.160826 0.650432 0.122185
0.183517 0.650657 0.122603
0.207607 0.650885 0.123042
0.232981 0.651115 0.123503
0.259521 0.651348 0.123985
0.287108 0.651583 0.124489
0.315626 0.651821 0.125015
0.344957 0.652061 0.125562
0.374983 0.652304 0.126132
0.405585 0.652550 0.126722
0.436646 0.652799 0.127335
0.468048 0.653051 0.127969
0.499673 0.653305 0.128625
0.515584 0.652042 0.136796
0.528080 0.650454 0.146602
0.540540 0.648878 0.156384
0.552920 0.647321 0.166109
0.565176 0.645791 0.175742
0.577263 0.644293 0.185250
0.589137 0.642835 0.194597
0.600754 0.641424 0.203751
0.612071 0.640067 0.212677
0.623044 0.638771 0.221341
0.633628 0.637542 0.229711
0.643782 0.636388 0.237752
0.653462 0.635314 0.245431
0.662626 0.634329 0.252716
0.671231 0.633438 0.259573
0.679235 0.632648 0.265970
0.683245 0.632491 0.269286
0.116042 0.680501 0.122335
0.121640 0.680733 0.122760
0.141193 0.680965 0.123207
0.162379 0.681199 0.123676
0.185080 0.681434 0.124166
0.209179 0.681671 0.124678
0.234559 0.681910 0.125212
0.261102 0.682150 0.125767
0.288690 0.682392 0.126344
0.317205 0.682635 0.126943
0.346529 0.682880 0.127563
0.376544 0.683126 0.128205
0.407131 0.683375 0.128869
0.438174 0.683625 0.129555
0.469553 0.683877 0.130262
0.501152 0.684130 0.130991
0.517680 0.682928 0.138929
0.530209 0.681344 0.148776
0.542701 0.679771 0.158598
0.555112 0.678217 0.168362
0.567397 0.676688 0.178034
0.579513 0.675191 0.187579
0.591415 0.673733 0.196964
0.603060 0.672321 0.206154
0.614404 0.670962 0.215117
0.625403 0.669662 0.223817
0.636015 0.668429 0.232223
0.646196 0.667270 0.240300
0.655905 0.666190 0.248017
0.665097 0.665198 0.255339
0.673732 0.664298 0.262235
0.681768 0.663499 0.268673
0.686039 0.663296 0.272205
0.118358 0.710650 0.123852
0.123407 0.710885 0.124350
0.142965 0.711121 0.124870
0.164154 0.711357 0.125411
0.186857 0.711594 0.125975
0.210955 0.711831 0.126560
0.236331 0.712068 0.127166
0.262867 0.712306 0.127795
0.290444 0.712545 0.128445
0.318945 0.712784 0.129116
0.348250 0.713023 0.129810
0.378243 0.713263 0.130525
0.408804 0.713504 0.131262
0.439816 0.713746 0.132021
0.471160 0.713988 0.132801
0.502719 0.714231 0.133603
0.519959 0.713114 0.141257
0.532517 0.711555 0.151141
0.545037 0.710001 0.160999
0.557474 0.708461 0.170799
0.569784 0.706940 0.180506
0.581924 0.705447 0.190085
0.593850 0.703988 0.199503
0.605517 0.702571 0.208727
0.616884 0.701205 0.217722
0.627906 0.699898 0.226455
0.638541 0.698656 0.234894
0.648745 0.697487 0.243005
0.658478 0.696397 0.250755
0.667696 0.695392 0.258113
0.676358 0.694480 0.265045
0.684422 0.693666 0.271520
0.688951 0.693412 0.275266
0.120913 0.739028 0.125614
0.125413 0.739253 0.126185
0.144969 0.739478 0.126778
0.166153 0.739701 0.127392
0.188848 0.739925 0.128029
0.212936 0.740148 0.128687
0.238298 0.740370 0.129366
0.264817 0.740592 0.130068
0.292372 0.740813 0.130791
0.320847 0.741035 0.131536
0.350123 0.741255 0.132302
0.380081 0.741476 0.133091
0.410603 0.741696 0.133901
0.441572 0.741916 0.134733
0.472869 0.742136 0.135586
0.504377 0.742355 0.136461
0.522424 0.741363 0.143779
0.535006 0.739881 0.153696
0.547548 0.738403 0.163588
0.560006 0.736936 0.173420
0.572337 0.735488 0.183157
0.584496 0.734064 0.192767
0.596441 0.732671 0.202215
0.608127 0.731317 0.211468
0.619512 0.730008 0.220493
0.630552 0.728750 0.229256
0.641205 0.727552 0.237724
0.651430 0.726418 0.245865
0.661182 0.725357 0.253647
0.670422 0.724376 0.261037
0.679108 0.723480 0.268002
0.687198 0.722677 0.274513
0.691981 0.722377 0.278471
0.123707 0.765164 0.127622
0.127660 0.765374 0.128266
0.147205 0.765583 0.128932
0.168377 0.765790 0.129619
0.191056 0.765996 0.130329
0.215124 0.766201 0.131060
0.240462 0.766404 0.131812
0.266953 0.766606 0.132587
0.294476 0.766807 0.133383
0.322914 0.767007 0.134201
0.352148 0.767206 0.135041
0.382060 0.767403 0.135902
0.412532 0.767600 0.136785
0.443445 0.767795 0.137690
0.474682 0.767989 0.138617
0.506126 0.768183 0.139565
0.525075 0.767311 0.146496
0.537675 0.765900 0.156444
0.550235 0.764492 0.166364
0.562710 0.763094 0.176224
0.575056 0.761712 0.185989
0.587230 0.760352 0.195625
0.599189 0.759021 0.205100
0.610889 0.757726 0.214379
0.622287 0.756472 0.223430
0.633342 0.755266 0.232219
0.644010 0.754114 0.240714
0.654249 0.753023 0.248882
0.664019 0.752000 0.256692
0.673277 0.751051 0.264111
0.681983 0.750181 0.271108
0.690095 0.749399 0.277651
0.695130 0.749060 0.281819
0.126739 0.789067 0.129875
0.130148 0.789258 0.130592
0.149676 0.789448 0.131331
0.170826 0.789635 0.132092
0.193480 0.789821 0.132874
0.217519 0.790004 0.133678
0.242824 0.790186 0.134504
0.269276 0.790365 0.135352
0.296756 0.790543 0.136221
0.325147 0.790719 0.137112
0.354328 0.790893 0.138025
0.384182 0.791065 0.138959
0.414590 0.791236 0.139916
0.445436 0.791405 0.140893
0.476601 0.791572 0.141893
0.507968 0.791737 0.142914
0.527911 0.790981 0.149409
0.540526 0.789636 0.159383
0.553098 0.788293 0.169329
0.565585 0.786959 0.179213
0.577942 0.785639 0.189001
0.590126 0.784339 0.198661
0.602094 0.783066 0.208158
0.613804 0.781824 0.217460
0.625212 0.780621 0.226533
0.636276 0.779463 0.235345
0.646954 0.778355 0.243863
0.657205 0.777303 0.252056
0.666988 0.776314 0.259891
0.676260 0.775394 0.267337
0.684983 0.774549 0.274361
0.693115 0.773784 0.280934
0.698398 0.773408 0.285310
0.130011 0.810768 0.132374
0.132879 0.810939 0.133165
0.152382 0.811107 0.133977
0.173503 0.811272 0.134810
0.196123 0.811435 0.135666
0.220123 0.811595 0.136543
0.245385 0.811753 0.137442
0.271788 0.811908 0.138363
0.299215 0.812061 0.139305
0.327546 0.812212 0.140269
0.356663 0.812360 0.141255
0.386447 0.812506 0.142262
0.416781 0.812649 0.143291
0.447546 0.812790 0.144342
0.478627 0.812929 0.145415
0.509905 0.813066 0.146509
0.530935 0.812421 0.152518
0.543558 0.811137 0.162514
0.556139 0.809856 0.172481
0.568632 0.808581 0.182386
0.580995 0.807318 0.192195
0.593185 0.806074 0.201874
0.605158 0.804854 0.211390
0.616872 0.803663 0.220710
0.628285 0.802507 0.229803
0.639354 0.801393 0.238634
0.650039 0.800325 0.247173
0.660298 0.799310 0.255386
